;FLAVOR:Marlin
;TIME:574
;Filament used: 0.328936m
;Layer height: 0.2
;MINX:96.298
;MINY:87.495
;MINZ:0.2
;MAXX:138.695
;MAXY:147.492
;MAXZ:6.4
;POSTPROCESSED
;Generated with Cura_SteamEngine main
M140 S60
M105
M190 S60
M104 S205
M105
M109 S205
M82 ;absolute extrusion mode
; Script based on an original created by tjjfvi (https://github.com/tjjfvi)
; An up-to-date version of the tjjfvi's original script can be found
; here:  https://csi.t6.fyi/
; Note - This script will only work in Cura V4.2 and above!
; --- Global Settings
; layer_height = 0.2
; smooth_spiralized_contours = True
; magic_mesh_surface_mode = normal
; machine_extruder_count = 1
; --- Single Extruder Settings
; speed_z_hop = 5
; retraction_amount = 5.0
; retraction_hop = 0.2
; retraction_hop_enabled = False
; retraction_enable = True
; retraction_speed = 45.0
; retraction_retract_speed = 45.0
; retraction_prime_speed = 45.0
; speed_travel = 150.0

; Ender 3 Custom Start G-code
G92 E0 ; Reset Extruder
G28 ; Home all axes
M501 ;load bed level data
M420 S1 ;enable bed leveling
G1 Z2.0 F3000 ; Move Z Axis up little to prevent scratching of Heat Bed
G1 X1.0 Y20 Z0.3 F5000.0 ; Move to start position
G1 X1.0 Y200.0 Z0.3 F1500.0 E15 ; Draw the first line
G1 X1.3 Y200.0 Z0.3 F5000.0 ; Move to side a little
G1 X0.4 Y20 Z0.3 F1500.0 E30 ; Draw the second line
G92 E0 ; Reset Extruder
G1 Z2.0 F3000 ; Move Z Axis up little to prevent scratching of Heat Bed
G1 X5 Y20 Z0.3 F5000.0 ; Move over to prevent blob squish
G92 E0
G92 E0
G1 F2700 E-5
;LAYER_COUNT:32
;LAYER:0
M117 Printing CE3_star - Layer 1 of 32
M107
M204 S500
M205 X12 Y12
G0 F6000 X108.163 Y91.705 Z0.2
G0 X105.773 Y97.27
;TYPE:SKIRT
G1 F2700 E0
G1 F1200 X106.106 Y95.894 E0.04697
G1 X106.372 Y94.992 E0.07817
G1 X106.713 Y94.116 E0.10936
G1 X107.127 Y93.272 E0.14055
G1 X107.612 Y92.467 E0.17173
G1 X108.163 Y91.705 E0.20292
G1 X108.777 Y90.994 E0.23409
G1 X109.449 Y90.337 E0.26527
G1 X110.175 Y89.739 E0.29648
G1 X110.949 Y89.205 E0.32767
G1 X111.765 Y88.739 E0.35885
G1 X112.618 Y88.344 E0.39004
G1 X113.501 Y88.023 E0.42121
G1 X114.409 Y87.778 E0.45241
G1 X115.334 Y87.612 E0.48359
G1 X116.615 Y87.512 E0.52622
G1 X117.49 Y87.495 E0.55525
G1 X118.434 Y87.502 E0.58657
G1 X119.373 Y87.555 E0.61778
G1 X120.304 Y87.688 E0.64898
G1 X121.22 Y87.899 E0.68016
G1 X122.114 Y88.187 E0.71132
G1 X122.981 Y88.55 E0.74251
G1 X123.814 Y88.986 E0.7737
G1 X124.607 Y89.491 E0.80489
G1 X125.354 Y90.061 E0.83607
G1 X126.05 Y90.693 E0.86726
G1 X126.69 Y91.382 E0.89846
G1 X127.269 Y92.123 E0.92966
G1 X127.783 Y92.91 E0.96084
G1 X128.228 Y93.738 E0.99203
G1 X128.601 Y94.601 E1.02322
G1 X129.013 Y95.919 E1.06903
G1 X129.672 Y98.605 E1.16079
G1 X130.376 Y101.153 E1.24849
G1 X130.746 Y102.419 E1.29225
G1 X131.513 Y104.908 E1.37866
G1 X132.322 Y107.293 E1.46222
G1 X133.2 Y109.659 E1.54594
G1 X134.147 Y112.008 E1.62997
G1 X135.136 Y114.272 E1.71194
G1 X136.227 Y116.586 E1.79681
G1 X136.971 Y118.076 E1.85207
G1 X137.49 Y119.091 E1.88989
G1 X137.882 Y119.945 E1.92106
G1 X138.2 Y120.83 E1.95226
G1 X138.442 Y121.738 E1.98344
G1 X138.606 Y122.663 E2.01461
G1 X138.691 Y123.6 E2.04582
G1 X138.695 Y124.54 E2.07701
G1 X138.62 Y125.477 E2.10819
G1 X138.465 Y126.404 E2.13938
G1 X138.233 Y127.315 E2.17057
G1 X137.923 Y128.202 E2.20174
G1 X137.54 Y129.06 E2.23291
G1 X137.084 Y129.883 E2.26413
G1 X136.561 Y130.663 E2.29528
G1 X135.792 Y131.599 E2.33548
G1 X135.269 Y132.167 E2.36109
G1 X134.318 Y133.17 E2.40695
G1 X132.648 Y135.038 E2.49008
G1 X131.031 Y136.951 E2.57318
G1 X129.459 Y138.92 E2.65677
G1 X127.953 Y140.92 E2.73983
G1 X127.418 Y141.681 E2.7707
G1 X127.311 Y141.82 E2.77652
G1 X126.547 Y142.885 E2.82
G1 X125.967 Y143.624 E2.85117
G1 X125.327 Y144.312 E2.88234
G1 X124.63 Y144.943 E2.91354
G1 X123.882 Y145.512 E2.94472
G1 X123.088 Y146.016 E2.97592
G1 X122.254 Y146.45 E3.00711
G1 X121.387 Y146.812 E3.03828
G1 X120.492 Y147.099 E3.06946
G1 X119.576 Y147.309 E3.10064
G1 X118.645 Y147.441 E3.13184
G1 X117.706 Y147.492 E3.16304
G1 X116.767 Y147.464 E3.19421
G1 X115.833 Y147.356 E3.2254
G1 X114.912 Y147.169 E3.25658
G1 X114.01 Y146.904 E3.28777
G1 X113.133 Y146.564 E3.31898
G1 X112.289 Y146.15 E3.35016
G1 X111.483 Y145.666 E3.38136
G1 X110.722 Y145.116 E3.41251
G1 X110.009 Y144.502 E3.44372
G1 X109.352 Y143.831 E3.47488
G1 X108.596 Y142.892 E3.51488
G1 X107.988 Y142.046 E3.54944
G1 X106.443 Y139.961 E3.63554
G1 X104.889 Y137.982 E3.71902
G1 X103.262 Y136.028 E3.80338
G1 X101.636 Y134.183 E3.88497
G1 X99.295 Y131.693 E3.99835
G1 X98.681 Y130.981 E4.02955
G1 X98.13 Y130.219 E4.06074
G1 X97.645 Y129.414 E4.09192
G1 X97.231 Y128.57 E4.12311
G1 X96.889 Y127.694 E4.15431
G1 X96.624 Y126.793 E4.18547
G1 X96.436 Y125.872 E4.21666
G1 X96.327 Y124.938 E4.24785
G1 X96.298 Y123.998 E4.27905
G1 X96.348 Y123.06 E4.31022
G1 X96.479 Y122.129 E4.34141
G1 X96.688 Y121.212 E4.37261
G1 X96.974 Y120.317 E4.40379
G1 X97.528 Y119.057 E4.44945
G1 X98.262 Y117.636 E4.50251
G1 X99.397 Y115.336 E4.58761
G1 X100.458 Y113.021 E4.67209
G1 X101.43 Y110.734 E4.75454
G1 X102.362 Y108.355 E4.83931
G1 X103.203 Y106.016 E4.92177
G1 X104 Y103.582 E5.00674
G1 X104.41 Y102.226 E5.05374
G1 X105.129 Y99.746 E5.13941
G1 X105.773 Y97.27 E5.22429
G1 F2700 E0.22429
G0 F6000 X104.403 Y103.701
G1 F2700 E5.22429
G1 F1200 X104.808 Y102.36 E5.27076
G1 X105.543 Y99.825 E5.35833
G1 X106.175 Y97.396 E5.4416
G1 X106.514 Y95.995 E5.48942
G1 X106.775 Y95.111 E5.52
G1 X107.112 Y94.253 E5.55059
G1 X107.522 Y93.427 E5.58118
G1 X108.001 Y92.639 E5.61178
G1 X108.548 Y91.897 E5.64236
G1 X109.156 Y91.204 E5.67295
G1 X109.822 Y90.567 E5.70352
G1 X110.541 Y89.99 E5.73411
G1 X111.308 Y89.477 E5.76472
G1 X112.115 Y89.033 E5.79528
G1 X112.959 Y88.66 E5.82589
G1 X113.831 Y88.362 E5.85647
G1 X114.726 Y88.14 E5.88706
G1 X115.637 Y87.997 E5.91765
G1 X116.624 Y87.932 E5.95047
G1 X117.499 Y87.915 E5.97951
G1 X118.429 Y87.922 E6.01036
G1 X119.349 Y87.975 E6.04094
G1 X120.261 Y88.107 E6.07151
G1 X121.159 Y88.318 E6.10211
G1 X122.035 Y88.606 E6.13271
G1 X122.882 Y88.969 E6.16328
G1 X123.695 Y89.403 E6.19385
G1 X124.468 Y89.907 E6.22447
G1 X125.194 Y90.475 E6.25505
G1 X125.867 Y91.105 E6.28564
G1 X126.484 Y91.79 E6.31622
G1 X127.039 Y92.526 E6.34681
G1 X127.528 Y93.308 E6.3774
G1 X127.948 Y94.129 E6.408
G1 X128.294 Y94.983 E6.43857
G1 X128.605 Y96.019 E6.47446
G1 X129.256 Y98.674 E6.56515
G1 X129.99 Y101.33 E6.65657
G1 X130.326 Y102.48 E6.69632
G1 X131.123 Y105.066 E6.7861
G1 X131.925 Y107.431 E6.86895
G1 X132.811 Y109.818 E6.95342
G1 X133.743 Y112.129 E7.0361
G1 X134.767 Y114.474 E7.12099
G1 X135.855 Y116.782 E7.20564
G1 X136.573 Y118.221 E7.259
G1 X137.116 Y119.282 E7.29854
G1 X137.5 Y120.12 E7.32912
G1 X137.81 Y120.989 E7.35973
G1 X138.043 Y121.88 E7.39029
G1 X138.199 Y122.789 E7.42089
G1 X138.275 Y123.708 E7.45148
G1 X138.271 Y124.63 E7.48207
G1 X138.187 Y125.548 E7.51266
G1 X138.024 Y126.456 E7.54326
G1 X137.783 Y127.345 E7.57382
G1 X137.466 Y128.211 E7.60442
G1 X137.075 Y129.046 E7.63501
G1 X136.613 Y129.844 E7.6656
G1 X136.084 Y130.599 E7.69618
G1 X135.482 Y131.315 E7.72722
G1 X134.964 Y131.878 E7.7526
G1 X134.014 Y132.88 E7.79841
G1 X132.327 Y134.766 E7.88236
G1 X130.713 Y136.676 E7.96532
G1 X129.109 Y138.685 E8.05061
G1 X127.613 Y140.672 E8.13313
G1 X127.074 Y141.439 E8.16423
G1 X126.206 Y142.64 E8.2134
G1 X125.637 Y143.365 E8.24397
G1 X125.006 Y144.038 E8.27458
G1 X124.32 Y144.654 E8.30517
G1 X123.583 Y145.208 E8.33576
G1 X122.801 Y145.696 E8.36634
G1 X121.98 Y146.115 E8.39692
G1 X121.125 Y146.46 E8.42751
G1 X120.244 Y146.731 E8.45809
G1 X119.342 Y146.924 E8.48869
G1 X118.428 Y147.038 E8.51925
G1 X117.506 Y147.073 E8.54986
G1 X116.585 Y147.027 E8.58046
G1 X115.672 Y146.902 E8.61103
G1 X114.773 Y146.699 E8.64161
G1 X113.895 Y146.418 E8.67219
G1 X113.044 Y146.062 E8.7028
G1 X112.228 Y145.634 E8.73337
G1 X111.451 Y145.136 E8.76399
G1 X110.721 Y144.573 E8.79457
G1 X110.042 Y143.95 E8.82514
G1 X109.42 Y143.269 E8.85574
G1 X108.937 Y142.646 E8.8819
G1 X108.33 Y141.801 E8.91641
G1 X106.767 Y139.692 E9.00351
G1 X105.228 Y137.733 E9.08616
G1 X103.601 Y135.779 E9.17052
G1 X101.93 Y133.883 E9.25436
G1 X99.601 Y131.405 E9.36719
G1 X98.999 Y130.706 E9.39779
G1 X98.46 Y129.958 E9.42838
G1 X97.988 Y129.166 E9.45897
G1 X97.587 Y128.336 E9.48955
G1 X97.259 Y127.475 E9.52012
G1 X97.006 Y126.588 E9.55072
G1 X96.832 Y125.683 E9.5813
G1 X96.736 Y124.766 E9.61189
G1 X96.721 Y123.844 E9.64248
G1 X96.785 Y122.924 E9.67308
G1 X96.929 Y122.014 E9.70364
G1 X97.151 Y121.119 E9.73424
G1 X97.45 Y120.247 E9.76482
G1 X97.901 Y119.249 E9.80115
G1 X98.635 Y117.826 E9.85428
G1 X99.786 Y115.495 E9.94053
G1 X100.837 Y113.204 E10.02415
G1 X101.82 Y110.89 E10.10756
G1 X102.754 Y108.507 E10.19248
G1 X103.599 Y106.156 E10.27536
G1 X104.403 Y103.701 E10.36107
G1 F2700 E5.36107
G0 F6000 X103.157 Y108.627
G1 F2700 E10.36107
G1 F1200 X103.988 Y106.317 E10.44252
G1 X104.805 Y103.821 E10.52965
G1 X105.198 Y102.521 E10.57471
G1 X105.945 Y99.946 E10.66366
G1 X106.599 Y97.432 E10.74984
G1 X106.922 Y96.096 E10.79544
G1 X107.178 Y95.23 E10.8254
G1 X107.51 Y94.39 E10.85537
G1 X107.916 Y93.582 E10.88537
G1 X108.391 Y92.814 E10.91533
G1 X108.932 Y92.09 E10.94532
G1 X109.535 Y91.417 E10.9753
G1 X110.195 Y90.8 E11.00527
G1 X110.907 Y90.244 E11.03524
G1 X111.665 Y89.753 E11.06521
G1 X112.464 Y89.331 E11.09518
G1 X113.297 Y88.981 E11.12516
G1 X114.158 Y88.706 E11.15515
G1 X115.04 Y88.508 E11.18514
G1 X115.935 Y88.389 E11.21509
G1 X116.632 Y88.352 E11.23825
G1 X117.507 Y88.335 E11.26729
G1 X118.423 Y88.342 E11.29768
G1 X119.325 Y88.394 E11.32765
G1 X120.219 Y88.527 E11.35764
G1 X121.097 Y88.737 E11.38759
G1 X121.954 Y89.025 E11.41758
G1 X122.782 Y89.387 E11.44757
G1 X123.574 Y89.82 E11.47751
G1 X124.326 Y90.323 E11.50753
G1 X125.029 Y90.889 E11.53747
G1 X125.68 Y91.516 E11.56746
G1 X126.273 Y92.197 E11.59742
G1 X126.804 Y92.929 E11.62742
G1 X127.267 Y93.704 E11.65737
G1 X127.661 Y94.518 E11.68737
G1 X127.981 Y95.363 E11.71735
G1 X128.197 Y96.119 E11.74344
G1 X128.851 Y98.784 E11.83448
G1 X129.581 Y101.427 E11.92545
G1 X129.947 Y102.68 E11.96876
G1 X130.718 Y105.181 E12.05558
G1 X131.528 Y107.568 E12.13921
G1 X132.41 Y109.947 E12.22339
G1 X133.363 Y112.31 E12.30792
G1 X134.384 Y114.648 E12.39257
G1 X135.484 Y116.979 E12.47808
G1 X136.199 Y118.412 E12.53121
G1 X136.742 Y119.473 E12.57075
G1 X137.118 Y120.295 E12.60074
G1 X137.419 Y121.147 E12.63072
G1 X137.644 Y122.022 E12.6607
G1 X137.791 Y122.914 E12.69069
G1 X137.858 Y123.815 E12.72066
G1 X137.846 Y124.718 E12.75063
G1 X137.753 Y125.617 E12.78061
G1 X137.582 Y126.504 E12.81058
G1 X137.333 Y127.373 E12.84057
G1 X137.008 Y128.216 E12.87055
G1 X136.609 Y129.027 E12.90053
G1 X136.141 Y129.799 E12.93048
G1 X135.606 Y130.528 E12.96049
G1 X135.173 Y131.031 E12.9825
G1 X134.659 Y131.589 E13.00767
G1 X133.71 Y132.59 E13.05344
G1 X132.025 Y134.473 E13.13727
G1 X130.36 Y136.444 E13.22287
G1 X128.807 Y138.389 E13.30545
G1 X127.274 Y140.426 E13.39003
G1 X126.731 Y141.198 E13.42134
G1 X126.629 Y141.33 E13.42688
G1 X125.865 Y142.395 E13.47036
G1 X125.306 Y143.105 E13.50034
G1 X124.687 Y143.763 E13.53031
G1 X124.012 Y144.364 E13.5603
G1 X123.286 Y144.902 E13.59028
G1 X122.516 Y145.374 E13.62024
G1 X121.707 Y145.777 E13.65023
G1 X120.866 Y146.106 E13.68019
G1 X119.998 Y146.36 E13.71019
G1 X119.112 Y146.536 E13.74016
G1 X118.214 Y146.633 E13.77013
G1 X117.31 Y146.65 E13.80013
G1 X116.409 Y146.587 E13.83009
G1 X115.517 Y146.445 E13.86006
G1 X114.641 Y146.224 E13.89003
G1 X113.787 Y145.927 E13.92003
G1 X112.964 Y145.555 E13.94999
G1 X112.176 Y145.112 E13.97999
G1 X111.431 Y144.602 E14.00994
G1 X110.733 Y144.027 E14.03994
G1 X110.09 Y143.393 E14.0699
G1 X109.278 Y142.401 E14.11243
G1 X108.681 Y141.57 E14.14638
G1 X107.103 Y139.44 E14.23433
G1 X105.536 Y137.446 E14.31847
G1 X103.925 Y135.511 E14.402
G1 X102.239 Y133.599 E14.48657
G1 X99.907 Y131.117 E14.59956
G1 X99.318 Y130.432 E14.62954
G1 X98.792 Y129.698 E14.6595
G1 X98.333 Y128.919 E14.68949
G1 X97.944 Y128.104 E14.71945
G1 X97.629 Y127.257 E14.74944
G1 X97.39 Y126.385 E14.77943
G1 X97.229 Y125.496 E14.80941
G1 X97.148 Y124.596 E14.83939
G1 X97.146 Y123.693 E14.86935
G1 X97.224 Y122.793 E14.89932
G1 X97.382 Y121.903 E14.92931
G1 X97.617 Y121.031 E14.95927
G1 X97.929 Y120.183 E14.98925
G1 X98.274 Y119.442 E15.01636
G1 X99.021 Y117.995 E15.07039
G1 X100.163 Y115.682 E15.15597
G1 X101.223 Y113.369 E15.24039
G1 X102.203 Y111.063 E15.32351
G1 X103.157 Y108.627 E15.41031
G1 F2700 E10.41031
;MESH:star.stl
G0 F6000 X112.656 Y117.34
G0 X117.559 Y134.797
;TYPE:WALL-INNER
G1 F2700 E15.41031
G1 F1200 X120.978 Y126.303 E15.71409
G1 X121.207 Y126.1 E15.72424
G1 X126.592 Y123.887 E15.9174
G1 X120.967 Y117.739 E16.19386
G1 X119.206 Y112.458 E16.37855
G1 X118.515 Y109.914 E16.46601
G1 X119.026 Y105.414 E16.61627
G1 X119.093 Y105.195 E16.62387
G1 X119.241 Y105.043 E16.63091
G1 X119.016 Y104.892 E16.6399
G1 X118.581 Y104.554 E16.65817
G1 X118.467 Y104.392 E16.66474
G1 X118.4 Y104.172 E16.67237
G1 X118.159 Y102.006 E16.74468
G1 X117.742 Y99.171 E16.83975
G1 X117.37 Y99.171 E16.85209
G1 X116.952 Y102.026 E16.94782
G1 X116.712 Y104.171 E17.01943
G1 X116.646 Y104.391 E17.02705
G1 X116.533 Y104.551 E17.03355
G1 X116.135 Y104.863 E17.05033
G1 X115.925 Y104.988 E17.05843
G1 X116.082 Y105.156 E17.06606
G1 X116.167 Y105.384 E17.07414
G1 X116.596 Y109.844 E17.22279
G1 X116.226 Y110.923 E17.26063
G1 X114.054 Y117.733 E17.49778
G1 X108.409 Y123.887 E17.77484
G1 X113.804 Y126.1 E17.9683
G1 X114.031 Y126.301 E17.97836
G1 X117.559 Y134.797 E18.28357
G0 F6000 X117.655 Y134.26
G0 X117.563 Y135.276
G0 X117.565 Y135.907
;TYPE:WALL-OUTER
G1 F1200 X121.336 Y126.546 E18.61839
G1 X121.393 Y126.477 E18.62136
G1 X127.308 Y124.047 E18.83352
G1 X121.328 Y117.51 E19.12745
G1 X119.612 Y112.348 E19.30793
G1 X118.946 Y109.878 E19.3928
G1 X119.45 Y105.405 E19.54214
G1 X119.55 Y105.302 E19.5469
G1 X119.714 Y105.276 E19.55241
G1 X119.714 Y104.854 E19.56641
G1 X119.238 Y104.534 E19.58544
G1 X118.872 Y104.245 E19.60091
G1 X118.818 Y104.126 E19.60525
G1 X118.575 Y101.945 E19.67806
G1 X118.105 Y98.751 E19.78516
G1 X117.007 Y98.751 E19.82159
G1 X116.535 Y101.979 E19.92983
G1 X116.295 Y104.124 E20.00144
G1 X116.241 Y104.243 E20.00577
G1 X115.876 Y104.532 E20.02122
G1 X115.678 Y104.644 E20.02876
G1 X115.402 Y104.833 E20.03986
G1 X115.401 Y105.276 E20.05456
G1 X115.612 Y105.286 E20.06157
G1 X115.746 Y105.394 E20.06728
G1 X116.169 Y109.792 E20.21386
G1 X115.831 Y110.777 E20.24841
G1 X113.684 Y117.511 E20.48291
G1 X107.692 Y124.047 E20.77709
G1 X113.619 Y126.478 E20.98963
G1 X113.676 Y126.547 E20.99259
G1 X117.565 Y135.907 E21.32887
G1 F2700 E16.32887
G0 F6000 X117.563 Y135.276
G0 X121.213 Y125.912
G0 X126.273 Y123.815
G0 X120.741 Y117.615
G0 X118.368 Y109.703
G0 X118.961 Y105.079
G0 X118.548 Y104.575
G0 X117.738 Y99.904
G1 F2700 E21.32887
G0 F6000 X117.557 Y99.93
;TYPE:SKIN
G1 F1200 X117.245 Y102.067 E21.40052
G1 X117.007 Y104.19 E21.4714
G1 X116.917 Y104.496 E21.48198
G1 X116.746 Y104.754 E21.49225
G1 X116.358 Y105.06 E21.50864
G1 X116.459 Y105.335 E21.51836
G1 X116.879 Y109.712 E21.66424
G1 X116.863 Y109.969 E21.67279
G1 X116.506 Y111.012 E21.70936
G1 X114.354 Y117.762 E21.94441
G1 X114.232 Y117.969 E21.95238
G1 X108.91 Y123.774 E22.21366
G1 X113.967 Y125.848 E22.395
G1 X114.3 Y126.189 E22.41082
G1 X117.553 Y134.019 E22.69212
G1 X120.687 Y126.236 E22.97048
G1 X120.839 Y126.022 E22.97919
G1 X121.061 Y125.843 E22.98865
G1 X126.091 Y123.775 E23.16909
G1 X120.78 Y117.969 E23.43015
G1 X120.661 Y117.774 E23.43773
G1 X118.921 Y112.533 E23.62094
G1 X118.22 Y109.939 E23.71009
G1 X118.739 Y105.358 E23.86304
G1 X118.811 Y105.11 E23.87161
G1 X118.369 Y104.759 E23.89034
G1 X118.194 Y104.494 E23.90087
G1 X118.106 Y104.192 E23.91131
G1 X117.867 Y102.041 E23.98311
G1 X117.557 Y99.93 E24.0539
G0 F6000 X117.738 Y99.904
G0 X117.589 Y99.353
G0 X117.074 Y101.962
G0 X117.462 Y102.019
G1 F1200 X117.676 Y102.232 E24.06392
G0 F6000 X117.4 Y102.551
G1 F1200 X117.75 Y102.901 E24.08034
G0 F6000 X117.341 Y103.086
G1 F1200 X117.824 Y103.569 E24.103
G0 F6000 X117.281 Y103.62
G1 F1200 X117.898 Y104.237 E24.13195
G0 F6000 X117.222 Y104.154
