;FLAVOR:Marlin
;TIME:384
;Filament used: 0.0636896m
;Layer height: 0.12
;MINX:103.936
;MINY:103.914
;MINZ:0.12
;MAXX:131.049
;MAXY:131.029
;MAXZ:16.2
;POSTPROCESSED
;Generated with Cura_SteamEngine main
M140 S60
M105
M190 S60
M104 S205
M105
M109 S205
M82 ;absolute extrusion mode
; Script based on an original created by tjjfvi (https://github.com/tjjfvi)
; An up-to-date version of the tjjfvi's original script can be found
; here:  https://csi.t6.fyi/
; Note - This script will only work in Cura V4.2 and above!
; --- Global Settings
; layer_height = 0.12
; smooth_spiralized_contours = True
; magic_mesh_surface_mode = normal
; machine_extruder_count = 1
; --- Single Extruder Settings
; speed_z_hop = 5
; retraction_amount = 5.0
; retraction_hop = 0.2
; retraction_hop_enabled = False
; retraction_enable = True
; retraction_speed = 45.0
; retraction_retract_speed = 45.0
; retraction_prime_speed = 45.0
; speed_travel = 150.0

; Ender 3 Custom Start G-code
G92 E0 ; Reset Extruder
G28 ; Home all axes
M501 ;load bed level data
M420 S1 ;enable bed leveling
G1 Z2.0 F3000 ; Move Z Axis up little to prevent scratching of Heat Bed
G1 X1.0 Y20 Z0.3 F5000.0 ; Move to start position
G1 X1.0 Y200.0 Z0.3 F1500.0 E15 ; Draw the first line
G1 X1.3 Y200.0 Z0.3 F5000.0 ; Move to side a little
G1 X0.4 Y20 Z0.3 F1500.0 E30 ; Draw the second line
G92 E0 ; Reset Extruder
G1 Z2.0 F3000 ; Move Z Axis up little to prevent scratching of Heat Bed
G1 X5 Y20 Z0.3 F5000.0 ; Move over to prevent blob squish
G92 E0
G92 E0
G1 F2700 E-5
;LAYER_COUNT:136
;LAYER:0
M117 Printing CE3_1xorange - Layer 1 of 136
M107
M204 S500
M205 X12 Y12
G0 F6000 X108.36 Y107.528 Z0.12
G0 X103.936 Y117.541
;TYPE:SKIRT
G1 F2700 E0
G1 F1200 X103.97 Y116.583 E0.01908
G1 X104.048 Y115.873 E0.0333
G1 X104.166 Y115.129 E0.0483
G1 X104.265 Y114.607 E0.05887
G1 X104.482 Y113.674 E0.07794
G1 X104.777 Y112.763 E0.097
G1 X105.147 Y111.879 E0.11608
G1 X105.589 Y111.03 E0.13513
G1 X106.1 Y110.22 E0.1542
G1 X106.519 Y109.652 E0.16825
G1 X106.993 Y109.065 E0.18327
G1 X107.707 Y108.23 E0.20514
G1 X108.36 Y107.528 E0.22422
G1 X109.068 Y106.884 E0.24327
G1 X109.828 Y106.301 E0.26234
G1 X110.634 Y105.783 E0.28141
G1 X111.48 Y105.335 E0.30047
G1 X112.36 Y104.958 E0.31953
G1 X113.189 Y104.68 E0.33693
G1 X113.927 Y104.463 E0.35224
G1 X114.677 Y104.264 E0.36769
G1 X115.615 Y104.069 E0.38676
G1 X116.565 Y103.951 E0.40582
G1 X117.522 Y103.914 E0.42488
G1 X118.479 Y103.957 E0.44395
G1 X119.429 Y104.079 E0.46302
G1 X120.365 Y104.28 E0.48207
G1 X121.281 Y104.558 E0.50113
G1 X122.22 Y104.934 E0.52126
G1 X123.201 Y105.378 E0.5427
G1 X124.069 Y105.793 E0.56185
G1 X124.914 Y106.245 E0.58093
G1 X125.718 Y106.765 E0.59999
G1 X126.476 Y107.351 E0.61906
G1 X127.182 Y107.998 E0.63812
G1 X127.832 Y108.701 E0.65718
G1 X128.42 Y109.457 E0.67625
G1 X128.944 Y110.258 E0.6953
G1 X129.399 Y111.101 E0.71437
G1 X129.805 Y112.037 E0.73468
G1 X130.069 Y112.729 E0.74942
G1 X130.415 Y113.71 E0.77013
G1 X130.691 Y114.627 E0.78919
G1 X130.889 Y115.564 E0.80826
G1 X131.009 Y116.514 E0.82732
G1 X131.049 Y117.471 E0.84638
G1 X131.009 Y118.428 E0.86545
G1 X130.889 Y119.378 E0.88451
G1 X130.691 Y120.315 E0.90358
G1 X130.419 Y121.22 E0.92239
G1 X130.065 Y122.229 E0.94367
G1 X129.817 Y122.883 E0.9576
G1 X129.44 Y123.763 E0.97665
G1 X128.991 Y124.609 E0.99572
G1 X128.474 Y125.415 E1.01478
G1 X127.89 Y126.175 E1.03386
G1 X127.246 Y126.883 E1.05291
G1 X126.544 Y127.535 E1.07198
G1 X125.791 Y128.126 E1.09104
G1 X124.991 Y128.653 E1.11011
G1 X124.099 Y129.136 E1.1303
G1 X123.526 Y129.414 E1.14298
G1 X122.228 Y130.006 E1.17138
G1 X121.34 Y130.365 E1.19044
G1 X120.425 Y130.648 E1.20951
G1 X119.49 Y130.854 E1.22857
G1 X118.54 Y130.981 E1.24765
G1 X117.584 Y131.029 E1.2667
G1 X116.627 Y130.996 E1.28576
G1 X115.676 Y130.884 E1.30482
G1 X114.763 Y130.699 E1.32337
G1 X113.956 Y130.494 E1.33994
G1 X113.308 Y130.31 E1.35335
G1 X112.398 Y130.01 E1.37242
G1 X111.517 Y129.635 E1.39148
G1 X110.67 Y129.188 E1.41055
G1 X109.863 Y128.672 E1.42962
G1 X109.102 Y128.091 E1.44868
G1 X108.392 Y127.448 E1.46774
G1 X107.739 Y126.748 E1.4868
G1 X107.146 Y125.996 E1.50586
G1 X106.59 Y125.151 E1.526
G1 X106.198 Y124.491 E1.54128
G1 X105.719 Y123.654 E1.56048
G1 X105.379 Y123.042 E1.57441
G1 X104.95 Y122.186 E1.59347
G1 X104.593 Y121.298 E1.61252
G1 X104.311 Y120.382 E1.6316
G1 X104.107 Y119.447 E1.65065
G1 X103.982 Y118.497 E1.66973
G1 X103.936 Y117.541 E1.68878
G0 F6000 X104.356 Y117.434
G1 F1200 X104.399 Y116.495 E1.70749
G1 X104.464 Y115.932 E1.71877
G1 X104.579 Y115.207 E1.73338
G1 X104.678 Y114.685 E1.74396
G1 X104.892 Y113.77 E1.76267
G1 X105.183 Y112.876 E1.78138
G1 X105.549 Y112.01 E1.8001
G1 X105.988 Y111.179 E1.81881
G1 X106.495 Y110.388 E1.83751
G1 X106.849 Y109.912 E1.84932
G1 X107.313 Y109.338 E1.86401
G1 X108.027 Y108.503 E1.88588
G1 X108.667 Y107.815 E1.90458
G1 X109.364 Y107.184 E1.9233
G1 X110.112 Y106.615 E1.94201
G1 X110.906 Y106.111 E1.96073
G1 X111.74 Y105.677 E1.97944
G1 X112.607 Y105.315 E1.99815
G1 X113.308 Y105.083 E2.01284
G1 X114.046 Y104.866 E2.02816
G1 X114.78 Y104.672 E2.04327
G1 X115.701 Y104.48 E2.062
G1 X116.634 Y104.367 E2.08071
G1 X117.573 Y104.334 E2.09941
G1 X118.512 Y104.381 E2.11813
G1 X119.443 Y104.508 E2.13683
G1 X120.361 Y104.713 E2.15555
G1 X121.257 Y104.996 E2.17426
G1 X122.047 Y105.317 E2.19123
G1 X123.028 Y105.761 E2.21267
G1 X123.887 Y106.172 E2.23162
G1 X124.716 Y106.615 E2.25033
G1 X125.503 Y107.128 E2.26903
G1 X126.245 Y107.706 E2.28776
G1 X126.935 Y108.345 E2.30648
G1 X127.567 Y109.04 E2.32518
G1 X128.139 Y109.786 E2.34389
G1 X128.645 Y110.578 E2.3626
G1 X129.082 Y111.41 E2.38131
G1 X129.412 Y112.186 E2.39809
G1 X129.676 Y112.878 E2.41284
G1 X130.018 Y113.848 E2.43331
G1 X130.288 Y114.748 E2.45201
G1 X130.481 Y115.668 E2.47073
G1 X130.595 Y116.601 E2.48944
G1 X130.629 Y117.541 E2.50816
G1 X130.583 Y118.479 E2.52686
G1 X130.457 Y119.411 E2.54558
G1 X130.253 Y120.329 E2.5643
G1 X130.022 Y121.083 E2.57999
G1 X129.783 Y121.774 E2.59455
G1 X129.424 Y122.734 E2.61495
G1 X129.054 Y123.598 E2.63366
G1 X128.611 Y124.427 E2.65237
G1 X128.1 Y125.216 E2.67108
G1 X127.523 Y125.958 E2.6898
G1 X126.886 Y126.649 E2.7085
G1 X126.192 Y127.283 E2.72721
G1 X125.447 Y127.856 E2.74592
G1 X124.655 Y128.363 E2.76464
G1 X123.915 Y128.758 E2.78134
G1 X123.08 Y129.159 E2.79978
G1 X122.054 Y129.624 E2.8222
G1 X121.183 Y129.975 E2.8409
G1 X120.284 Y130.251 E2.85962
G1 X119.365 Y130.449 E2.87833
G1 X118.433 Y130.569 E2.89704
G1 X117.494 Y130.609 E2.91575
G1 X116.554 Y130.569 E2.93447
G1 X115.622 Y130.449 E2.95318
G1 X114.863 Y130.291 E2.96861
G1 X114.071 Y130.09 E2.98488
G1 X113.423 Y129.906 E2.99829
G1 X112.53 Y129.611 E3.01701
G1 X111.666 Y129.241 E3.03572
G1 X110.836 Y128.799 E3.05444
G1 X110.047 Y128.288 E3.07315
G1 X109.304 Y127.712 E3.09186
G1 X108.613 Y127.075 E3.11057
G1 X107.979 Y126.382 E3.12927
G1 X107.405 Y125.637 E3.14799
G1 X106.95 Y124.936 E3.16463
G1 X106.562 Y124.282 E3.17976
G1 X106.161 Y123.583 E3.1958
G1 X105.747 Y122.838 E3.21277
G1 X105.325 Y121.998 E3.23148
G1 X104.977 Y121.125 E3.25019
G1 X104.705 Y120.225 E3.26891
G1 X104.509 Y119.306 E3.28761
G1 X104.393 Y118.373 E3.30633
G1 X104.356 Y117.434 E3.32503
G0 F6000 X104.777 Y117.329
G1 F1200 X104.88 Y115.99 E3.35177
G1 X104.991 Y115.285 E3.36597
G1 X105.09 Y114.763 E3.37655
G1 X105.301 Y113.866 E3.39489
G1 X105.589 Y112.99 E3.41325
G1 X105.952 Y112.142 E3.43161
G1 X106.386 Y111.329 E3.44996
G1 X106.89 Y110.557 E3.46831
G1 X107.179 Y110.172 E3.47789
G1 X107.632 Y109.611 E3.49225
G1 X108.346 Y108.776 E3.51412
G1 X108.975 Y108.102 E3.53247
G1 X109.66 Y107.485 E3.55082
G1 X110.396 Y106.929 E3.56918
G1 X111.177 Y106.44 E3.58752
G1 X111.998 Y106.02 E3.60588
G1 X112.852 Y105.672 E3.62424
G1 X113.426 Y105.486 E3.63625
G1 X114.164 Y105.269 E3.65156
G1 X114.883 Y105.079 E3.66637
G1 X115.786 Y104.892 E3.68472
G1 X116.702 Y104.783 E3.70308
G1 X117.623 Y104.755 E3.72143
G1 X118.544 Y104.806 E3.73979
G1 X119.456 Y104.937 E3.75813
G1 X120.354 Y105.147 E3.77649
G1 X121.23 Y105.433 E3.79483
G1 X121.874 Y105.7 E3.80871
G1 X123.089 Y106.253 E3.83528
G1 X123.705 Y106.55 E3.8489
G1 X124.517 Y106.986 E3.86724
G1 X125.288 Y107.491 E3.88559
G1 X126.013 Y108.06 E3.90393
G1 X126.686 Y108.691 E3.9223
G1 X127.302 Y109.377 E3.94065
G1 X127.855 Y110.114 E3.95899
G1 X128.343 Y110.897 E3.97736
G1 X128.761 Y111.718 E3.9957
G1 X129.02 Y112.336 E4.00904
G1 X129.284 Y113.028 E4.02378
G1 X129.621 Y113.985 E4.04398
G1 X129.886 Y114.869 E4.06235
G1 X130.072 Y115.771 E4.08068
G1 X130.18 Y116.687 E4.09904
G1 X130.208 Y117.609 E4.1174
G1 X130.156 Y118.529 E4.13575
G1 X130.025 Y119.442 E4.15411
G1 X129.815 Y120.339 E4.17245
G1 X129.625 Y120.946 E4.18511
G1 X129.386 Y121.637 E4.19966
G1 X129.031 Y122.585 E4.21981
G1 X128.667 Y123.432 E4.23816
G1 X128.231 Y124.244 E4.25651
G1 X127.727 Y125.016 E4.27486
G1 X127.157 Y125.741 E4.29322
G1 X126.527 Y126.414 E4.31157
G1 X125.84 Y127.029 E4.32993
G1 X125.103 Y127.583 E4.34828
G1 X124.321 Y128.071 E4.36663
G1 X123.732 Y128.38 E4.37987
G1 X122.907 Y128.776 E4.39809
G1 X121.881 Y129.241 E4.42051
G1 X121.026 Y129.585 E4.43886
G1 X120.144 Y129.853 E4.45721
G1 X119.242 Y130.044 E4.47556
G1 X118.327 Y130.156 E4.49391
G1 X117.405 Y130.189 E4.51227
G1 X116.484 Y130.141 E4.53063
G1 X115.571 Y130.014 E4.54898
G1 X114.963 Y129.884 E4.56136
G1 X114.185 Y129.686 E4.57734
G1 X113.537 Y129.502 E4.59075
G1 X112.662 Y129.212 E4.6091
G1 X111.816 Y128.847 E4.62744
G1 X111.004 Y128.41 E4.6458
G1 X110.233 Y127.905 E4.66414
G1 X109.508 Y127.334 E4.68251
G1 X108.836 Y126.703 E4.70086
G1 X108.221 Y126.016 E4.71922
G1 X107.668 Y125.279 E4.73756
G1 X107.311 Y124.721 E4.75075
G1 X107.017 Y124.228 E4.76217
G1 X106.526 Y123.374 E4.78178
G1 X106.114 Y122.634 E4.79864
G1 X105.701 Y121.81 E4.81699
G1 X105.362 Y120.953 E4.83533
G1 X105.098 Y120.069 E4.8537
G1 X104.912 Y119.166 E4.87205
G1 X104.805 Y118.251 E4.89039
G1 X104.777 Y117.329 E4.90875
G0 F6000 X105.199 Y117.226
G1 F1200 X105.296 Y116.049 E4.93226
G1 X105.404 Y115.364 E4.94607
G1 X105.503 Y114.842 E4.95664
G1 X105.71 Y113.962 E4.97464
G1 X105.995 Y113.105 E4.99262
G1 X106.354 Y112.275 E5.01062
G1 X106.785 Y111.481 E5.0286
G1 X107.509 Y110.431 E5.05399
G1 X107.951 Y109.884 E5.06799
G1 X108.665 Y109.049 E5.08986
G1 X109.282 Y108.389 E5.10784
G1 X109.955 Y107.786 E5.12583
G1 X110.679 Y107.245 E5.14382
G1 X111.447 Y106.77 E5.1618
G1 X112.255 Y106.364 E5.1798
G1 X113.095 Y106.032 E5.19778
G1 X113.545 Y105.889 E5.20718
G1 X114.283 Y105.672 E5.22249
G1 X114.986 Y105.486 E5.23697
G1 X115.871 Y105.303 E5.25496
G1 X116.769 Y105.2 E5.27295
G1 X117.672 Y105.176 E5.29093
G1 X118.574 Y105.232 E5.30892
G1 X119.467 Y105.367 E5.3269
G1 X120.345 Y105.581 E5.34489
G1 X121.201 Y105.872 E5.36289
G1 X121.701 Y106.082 E5.37368
G1 X122.682 Y106.526 E5.39512
G1 X123.522 Y106.928 E5.41365
G1 X124.318 Y107.356 E5.43164
G1 X125.073 Y107.853 E5.44964
G1 X125.781 Y108.414 E5.46762
G1 X126.436 Y109.036 E5.4856
G1 X127.034 Y109.714 E5.5036
G1 X127.57 Y110.441 E5.52158
G1 X128.039 Y111.213 E5.53956
G1 X128.438 Y112.024 E5.55755
G1 X128.627 Y112.486 E5.56748
G1 X128.997 Y113.469 E5.58839
G1 X129.224 Y114.123 E5.60217
G1 X129.483 Y114.989 E5.62017
G1 X129.663 Y115.874 E5.63814
G1 X129.765 Y116.772 E5.65613
G1 X129.787 Y117.675 E5.67412
G1 X129.729 Y118.577 E5.69211
G1 X129.591 Y119.47 E5.7101
G1 X129.375 Y120.347 E5.72807
G1 X129.228 Y120.808 E5.73771
G1 X128.887 Y121.782 E5.75825
G1 X128.639 Y122.436 E5.77217
G1 X128.281 Y123.266 E5.79017
G1 X127.852 Y124.061 E5.80815
G1 X127.354 Y124.815 E5.82614
G1 X126.791 Y125.522 E5.84413
G1 X126.168 Y126.176 E5.86211
G1 X125.49 Y126.773 E5.88009
G1 X124.761 Y127.307 E5.89808
G1 X123.988 Y127.775 E5.91607
G1 X123.549 Y128.002 E5.9259
G1 X122.976 Y128.28 E5.93858
G1 X121.708 Y128.858 E5.96632
G1 X120.869 Y129.195 E5.98432
G1 X120.004 Y129.455 E6.0023
G1 X119.119 Y129.639 E6.02029
G1 X118.222 Y129.743 E6.03827
G1 X117.318 Y129.768 E6.05627
G1 X116.417 Y129.712 E6.07424
G1 X115.523 Y129.577 E6.09224
G1 X115.063 Y129.476 E6.10161
G1 X114.3 Y129.282 E6.11729
G1 X113.652 Y129.098 E6.13069
G1 X112.795 Y128.813 E6.14867
G1 X111.966 Y128.453 E6.16666
G1 X111.172 Y128.021 E6.18466
G1 X110.419 Y127.521 E6.20265
G1 X109.714 Y126.957 E6.22062
G1 X109.061 Y126.332 E6.23862
G1 X108.466 Y125.652 E6.2566
G1 X107.934 Y124.922 E6.27458
G1 X107.672 Y124.505 E6.28439
G1 X107.291 Y123.864 E6.29923
G1 X106.89 Y123.165 E6.31527
G1 X106.481 Y122.43 E6.33202
G1 X106.077 Y121.622 E6.35
G1 X105.747 Y120.781 E6.36798
G1 X105.492 Y119.914 E6.38597
G1 X105.315 Y119.028 E6.40396
G1 X105.217 Y118.13 E6.42194
G1 X105.199 Y117.226 E6.43994
G1 F2700 E1.43994
;MESH:1xorange.stl
G0 F6000 X114.767 Y117.206
G0 X115.844 Y117.395
G0 X117.128 Y118.382
;TYPE:WALL-INNER
G1 F2700 E6.43994
G1 F1200 X117.399 Y118.455 E6.44552
G1 X118.263 Y118.055 E6.46448
G1 X118.473 Y117.473 E6.47679
G1 X118.261 Y116.89 E6.48914
G1 X117.397 Y116.489 E6.5081
G1 X117.023 Y116.59 E6.51582
G1 X116.512 Y117.199 E6.53164
G1 X116.497 Y117.281 E6.5333
G1 X117.128 Y118.382 E6.55856
G0 F6000 X116.851 Y118.743
G1 F1200 X117.437 Y118.901 E6.57064
G1 X118.598 Y118.362 E6.59612
G1 X118.92 Y117.472 E6.61496
G1 X118.596 Y116.581 E6.63384
G1 X117.434 Y116.043 E6.65933
G1 X116.785 Y116.219 E6.67271
G1 X116.117 Y117.015 E6.6934
G1 X116.057 Y117.358 E6.70033
G1 X116.851 Y118.743 E6.73211
G1 F2700 E1.73211
G0 F6000 X117.029 Y118.511
G0 X116.342 Y117.309
G1 F2700 E6.73211
G0 F6000 X115.617 Y117.435
;TYPE:WALL-OUTER
G1 F1200 X116.573 Y119.103 E6.77038
G1 X117.475 Y119.346 E6.78897
G1 X118.934 Y118.67 E6.82098
G1 X119.367 Y117.472 E6.84634
G1 X118.931 Y116.273 E6.87174
G1 X117.472 Y115.597 E6.90375
G1 X116.548 Y115.848 E6.92281
G1 X115.723 Y116.831 E6.94835
G1 X115.617 Y117.435 E6.96056
G0 F6000 X116.342 Y117.309
G0 X117.12 Y116.743
G0 X117.893 Y116.818
;TYPE:SKIN
G1 F1200 X118.279 Y117.205 E6.9704
G0 F6000 X118.279 Y117.742
G1 F1200 X117.178 Y116.641 E6.99845
G0 F6000 X116.888 Y116.888
G1 F1200 X118.052 Y118.052 E7.02809
G0 F6000 X117.685 Y118.222
G1 F1200 X116.642 Y117.18 E7.05465
G0 F6000 X117.132 Y118.207
G1 F1200 X117.244 Y118.319 E7.0575
G0 F6000 X117.267 Y118.235
;MESH:NONMESH
G0 F300 X117.267 Y118.235 Z0.24
G0 F6000 X117.129 Y118.382
;TIME_ELAPSED:24.429453
;LAYER:1
M117 Printing CE3_1xorange - Layer 2 of 136
M106 S85
;TYPE:WALL-INNER
;MESH:1xorange.stl
G1 F600 X117.4 Y118.455 E7.06309
G1 X118.263 Y118.052 E7.08205
G1 X118.473 Y117.47 E7.09436
G1 X118.26 Y116.888 E7.1067
G1 X117.396 Y116.489 E7.12564
G1 X117.022 Y116.591 E7.13336
G1 X116.512 Y117.2 E7.14917
G1 X116.497 Y117.282 E7.15083
G1 X117.129 Y118.382 E7.17609
G0 F7500 X116.852 Y118.743
G1 F600 X117.438 Y118.9 E7.18816
G1 X118.599 Y118.36 E7.21365
G1 X118.92 Y117.47 E7.23248
G1 X118.595 Y116.579 E7.25136
G1 X117.433 Y116.043 E7.27684
G1 X116.785 Y116.22 E7.29021
G1 X116.117 Y117.017 E7.31091
G1 X116.057 Y117.359 E7.31782
G1 X116.852 Y118.743 E7.34959
G1 F2700 E2.34959
G0 F7500 X117.031 Y118.511
G0 X116.342 Y117.31
G1 F2700 E7.34959
G0 F7500 X115.617 Y117.437
;TYPE:WALL-OUTER
G1 F600 X116.575 Y119.103 E7.38785
G1 X117.477 Y119.345 E7.40644
G1 X118.935 Y118.667 E7.43845
G1 X119.367 Y117.469 E7.4638
G1 X118.93 Y116.271 E7.48918
G1 X117.47 Y115.597 E7.52119
G1 X116.547 Y115.849 E7.54024
G1 X115.723 Y116.833 E7.56579
G1 X115.617 Y117.437 E7.578
G0 F7500 X116.342 Y117.31
G0 X116.934 Y116.835
;TYPE:SKIN
G1 F600 X117.109 Y116.659 E7.58247
G0 F7500 X117.617 Y116.689
G1 F600 X116.756 Y117.55 E7.6044
G0 F7500 X116.951 Y117.892
G1 F600 X117.985 Y116.859 E7.63072
G0 F7500 X118.251 Y117.13
G1 F600 X117.148 Y118.233 E7.65881
G0 F7500 X117.707 Y118.211
G1 F600 X118.335 Y117.584 E7.6748
G0 F7500 X118.251 Y117.555
;MESH:NONMESH
G0 F300 X118.251 Y117.555 Z0.36
G0 F7500 X118.316 Y117.579
G0 X118.144 Y117.89
G0 X117.132 Y118.381
;TIME_ELAPSED:28.629645
;LAYER:2
M117 Printing CE3_1xorange - Layer 3 of 136
M106 S170
;TYPE:WALL-INNER
;MESH:1xorange.stl
G1 F600 X117.401 Y118.453 E7.68034
G1 X118.262 Y118.051 E7.69925
G1 X118.472 Y117.469 E7.71157
G1 X118.259 Y116.887 E7.72391
G1 X117.395 Y116.489 E7.74284
G1 X117.021 Y116.591 E7.75056
G1 X116.512 Y117.2 E7.76636
