;FLAVOR:Marlin
;TIME:13003
;Filament used: 9.77183m
;Layer height: 0.2
;MINX:19.5
;MINY:39.5
;MINZ:0.2
;MAXX:215.5
;MAXY:195.5
;MAXZ:1
;POSTPROCESSED
;Generated with Cura_SteamEngine main
M140 S50
M105
M190 S50
M104 S200
M105
M109 S200
M82 ;absolute extrusion mode
; Script based on an original created by tjjfvi (https://github.com/tjjfvi)
; An up-to-date version of the tjjfvi's original script can be found
; here:  https://csi.t6.fyi/
; Note - This script will only work in Cura V4.2 and above!
; --- Global Settings
; layer_height = 0.2
; smooth_spiralized_contours = True
; magic_mesh_surface_mode = normal
; machine_extruder_count = 1
; --- Single Extruder Settings
; speed_z_hop = 5
; retraction_amount = 5
; retraction_hop = 0.2
; retraction_hop_enabled = False
; retraction_enable = True
; retraction_speed = 45
; retraction_retract_speed = 45
; retraction_prime_speed = 45
; speed_travel = 150.0

; Ender 3 Custom Start G-code
G92 E0 ; Reset Extruder
G28 ; Home all axes
M501 ;load bed level data
M420 S1 ;enable bed leveling
G1 Z2.0 F3000 ; Move Z Axis up little to prevent scratching of Heat Bed
G1 X1.0 Y20 Z0.3 F5000.0 ; Move to start position
G1 X1.0 Y200.0 Z0.3 F1500.0 E15 ; Draw the first line
G1 X1.3 Y200.0 Z0.3 F5000.0 ; Move to side a little
G1 X0.4 Y20 Z0.3 F1500.0 E30 ; Draw the second line
G92 E0 ; Reset Extruder
G1 Z2.0 F3000 ; Move Z Axis up little to prevent scratching of Heat Bed
G1 X5 Y20 Z0.3 F5000.0 ; Move over to prevent blob squish
G92 E0
G92 E0
G1 F2700 E-5
;LAYER_COUNT:5
;LAYER:0
M117 Printing CE3_back - Layer 1 of 5
M107
G0 F6000 X24.912 Y41.039 Z0.2
G0 X19.501 Y51.025
;TYPE:SKIRT
G1 F2700 E0
G1 F1200 X19.51 Y50.36 E0.02212
G1 X19.563 Y49.424 E0.0533
G1 X19.695 Y48.495 E0.08451
G1 X19.906 Y47.581 E0.11571
G1 X20.194 Y46.689 E0.14689
G1 X20.557 Y45.824 E0.17809
G1 X20.992 Y44.993 E0.20928
G1 X21.496 Y44.203 E0.24045
G1 X22.066 Y43.458 E0.27165
G1 X22.698 Y42.764 E0.30287
G1 X23.386 Y42.127 E0.33405
G1 X24.126 Y41.551 E0.36524
G1 X24.912 Y41.039 E0.39644
G1 X25.739 Y40.597 E0.42763
G1 X26.601 Y40.227 E0.45883
G1 X27.491 Y39.931 E0.49003
G1 X28.403 Y39.713 E0.52122
G1 X29.33 Y39.572 E0.5524
G1 X30.201 Y39.513 E0.58144
G1 X30.83 Y39.5 E0.60236
G1 X203.951 Y39.501 E6.36039
G1 X204.649 Y39.511 E6.38361
G1 X205.585 Y39.565 E6.41479
G1 X206.513 Y39.697 E6.44597
G1 X207.427 Y39.909 E6.47718
G1 X208.319 Y40.198 E6.50836
G1 X209.184 Y40.561 E6.53956
G1 X210.014 Y40.997 E6.57075
G1 X210.805 Y41.502 E6.60196
G1 X211.549 Y42.073 E6.63315
G1 X212.242 Y42.705 E6.66435
G1 X212.879 Y43.393 E6.69553
G1 X213.454 Y44.134 E6.72673
G1 X213.965 Y44.92 E6.75791
G1 X214.407 Y45.748 E6.78913
G1 X214.776 Y46.61 E6.82031
G1 X215.071 Y47.5 E6.8515
G1 X215.289 Y48.412 E6.88269
G1 X215.429 Y49.34 E6.9139
G1 X215.487 Y50.201 E6.9426
G1 X215.5 Y50.83 E6.96353
G1 X215.499 Y183.9 E11.38945
G1 X215.49 Y184.627 E11.41364
G1 X215.439 Y185.564 E11.44485
G1 X215.307 Y186.492 E11.47602
G1 X215.098 Y187.406 E11.50721
G1 X214.811 Y188.299 E11.53841
G1 X214.449 Y189.165 E11.56962
G1 X214.015 Y189.996 E11.60081
G1 X213.511 Y190.787 E11.632
G1 X212.942 Y191.532 E11.66318
G1 X212.311 Y192.227 E11.6944
G1 X211.624 Y192.865 E11.72558
G1 X210.885 Y193.442 E11.75677
G1 X210.099 Y193.954 E11.78797
G1 X209.273 Y194.397 E11.81914
G1 X208.411 Y194.769 E11.85037
G1 X207.522 Y195.065 E11.88153
G1 X206.61 Y195.285 E11.91274
G1 X205.683 Y195.426 E11.94392
G1 X204.799 Y195.487 E11.9734
G1 X204.17 Y195.5 E11.99432
G1 X31.065 Y195.499 E17.75182
G1 X30.367 Y195.49 E17.77503
G1 X29.431 Y195.438 E17.80621
G1 X28.502 Y195.306 E17.83742
G1 X27.588 Y195.096 E17.86861
G1 X26.695 Y194.809 E17.89981
G1 X25.83 Y194.446 E17.93101
G1 X24.999 Y194.012 E17.96219
G1 X24.208 Y193.508 E17.99339
G1 X23.463 Y192.938 E18.02459
G1 X22.769 Y192.307 E18.05579
G1 X22.132 Y191.62 E18.08695
G1 X21.555 Y190.88 E18.11816
G1 X21.043 Y190.094 E18.14936
G1 X20.6 Y189.267 E18.18056
G1 X20.229 Y188.406 E18.21174
G1 X19.933 Y187.516 E18.24294
G1 X19.714 Y186.604 E18.27413
G1 X19.573 Y185.677 E18.30532
G1 X19.513 Y184.788 E18.33496
G1 X19.5 Y184.158 E18.35591
G1 X19.501 Y51.025 E22.78394
G0 F6000 X19.901 Y51.031
G1 F1200 X19.91 Y50.366 E22.80606
G1 X19.962 Y49.446 E22.8367
G1 X20.094 Y48.535 E22.86732
G1 X20.305 Y47.639 E22.89794
G1 X20.592 Y46.764 E22.92857
G1 X20.955 Y45.918 E22.95918
G1 X21.389 Y45.106 E22.98981
G1 X21.892 Y44.335 E23.02043
G1 X22.461 Y43.611 E23.05105
G1 X23.089 Y42.939 E23.08164
G1 X23.774 Y42.323 E23.11228
G1 X24.51 Y41.77 E23.1429
G1 X25.291 Y41.282 E23.17353
G1 X26.111 Y40.864 E23.20415
G1 X26.965 Y40.519 E23.23478
G1 X27.845 Y40.249 E23.2654
G1 X28.745 Y40.057 E23.296
G1 X29.659 Y39.943 E23.32664
G1 X30.212 Y39.913 E23.34506
G1 X30.83 Y39.9 E23.36562
G1 X203.945 Y39.901 E29.12345
G1 X204.643 Y39.911 E29.14666
G1 X205.562 Y39.964 E29.17728
G1 X206.473 Y40.097 E29.2079
G1 X207.369 Y40.308 E29.23852
G1 X208.243 Y40.596 E29.26913
G1 X209.09 Y40.959 E29.29978
G1 X209.901 Y41.394 E29.33038
G1 X210.671 Y41.898 E29.36099
G1 X211.395 Y42.467 E29.39162
G1 X212.067 Y43.097 E29.42226
G1 X212.682 Y43.782 E29.45288
G1 X213.235 Y44.518 E29.48349
G1 X213.722 Y45.299 E29.51411
G1 X214.139 Y46.12 E29.54473
G1 X214.484 Y46.974 E29.57537
G1 X214.753 Y47.854 E29.60597
G1 X214.945 Y48.755 E29.63661
G1 X215.058 Y49.668 E29.66721
G1 X215.087 Y50.212 E29.68533
G1 X215.1 Y50.83 E29.70589
G1 X215.099 Y183.895 E34.13165
G1 X215.09 Y184.622 E34.15583
G1 X215.039 Y185.541 E34.18645
G1 X214.908 Y186.453 E34.21709
G1 X214.698 Y187.349 E34.2477
G1 X214.412 Y188.224 E34.27832
G1 X214.051 Y189.071 E34.30894
G1 X213.617 Y189.883 E34.33956
G1 X213.115 Y190.655 E34.37019
G1 X212.547 Y191.38 E34.40082
G1 X211.919 Y192.053 E34.43144
G1 X211.235 Y192.669 E34.46206
G1 X210.5 Y193.223 E34.49267
G1 X209.72 Y193.712 E34.52329
G1 X208.9 Y194.131 E34.55392
G1 X208.047 Y194.477 E34.58453
G1 X207.167 Y194.748 E34.61516
G1 X206.267 Y194.941 E34.64577
G1 X205.353 Y195.056 E34.67641
G1 X204.788 Y195.087 E34.69523
G1 X204.17 Y195.1 E34.71579
G1 X31.07 Y195.099 E40.47312
G1 X30.372 Y195.09 E40.49634
G1 X29.453 Y195.038 E40.52695
G1 X28.542 Y194.907 E40.55756
G1 X27.646 Y194.697 E40.58817
G1 X26.771 Y194.41 E40.6188
G1 X25.924 Y194.048 E40.64944
G1 X25.112 Y193.614 E40.68006
G1 X24.341 Y193.112 E40.71066
G1 X23.616 Y192.544 E40.74129
G1 X22.943 Y191.915 E40.77193
G1 X22.328 Y191.231 E40.80253
G1 X21.774 Y190.496 E40.83314
G1 X21.286 Y189.715 E40.86377
G1 X20.867 Y188.895 E40.8944
G1 X20.521 Y188.042 E40.92501
G1 X20.251 Y187.162 E40.95563
G1 X20.058 Y186.261 E40.98627
G1 X19.944 Y185.348 E41.01688
G1 X19.913 Y184.777 E41.0359
G1 X19.9 Y184.158 E41.05649
G1 X19.901 Y51.031 E45.48431
G0 F6000 X20.301 Y51.036
G1 F1200 X20.31 Y50.371 E45.50643
G1 X20.362 Y49.469 E45.53648
G1 X20.494 Y48.576 E45.56651
G1 X20.704 Y47.698 E45.59653
G1 X20.991 Y46.841 E45.62659
G1 X21.353 Y46.014 E45.65662
G1 X21.786 Y45.222 E45.68664
G1 X22.288 Y44.471 E45.71668
G1 X22.855 Y43.767 E45.74675
G1 X23.481 Y43.117 E45.77676
G1 X24.162 Y42.524 E45.8068
G1 X24.894 Y41.994 E45.83686
G1 X25.669 Y41.531 E45.86688
G1 X26.482 Y41.138 E45.89692
G1 X27.327 Y40.818 E45.92697
G1 X28.196 Y40.575 E45.95698
G1 X29.084 Y40.409 E45.98703
G1 X30.223 Y40.313 E46.02504
G1 X30.83 Y40.3 E46.04524
G1 X203.939 Y40.301 E51.80287
G1 X204.637 Y40.311 E51.82608
G1 X205.539 Y40.364 E51.85614
G1 X206.432 Y40.496 E51.88616
G1 X207.31 Y40.707 E51.9162
G1 X208.166 Y40.995 E51.94623
G1 X208.993 Y41.357 E51.97626
G1 X209.785 Y41.792 E52.00631
G1 X210.536 Y42.294 E52.03636
G1 X211.239 Y42.861 E52.0664
G1 X211.889 Y43.488 E52.09644
G1 X212.481 Y44.17 E52.12647
G1 X213.011 Y44.901 E52.1565
G1 X213.473 Y45.677 E52.18654
G1 X213.866 Y46.49 E52.21658
G1 X214.184 Y47.335 E52.24661
G1 X214.427 Y48.205 E52.27665
G1 X214.592 Y49.093 E52.30669
G1 X214.687 Y50.223 E52.34441
G1 X214.7 Y50.83 E52.3646
G1 X214.699 Y183.89 E56.79019
G1 X214.69 Y184.617 E56.81438
G1 X214.639 Y185.519 E56.84442
G1 X214.508 Y186.413 E56.87448
G1 X214.299 Y187.291 E56.90449
G1 X214.013 Y188.148 E56.93454
G1 X213.652 Y188.976 E56.96459
G1 X213.22 Y189.768 E56.99459
G1 X212.719 Y190.52 E57.02465
G1 X212.153 Y191.224 E57.05469
G1 X211.528 Y191.875 E57.08471
G1 X210.847 Y192.469 E57.11476
G1 X210.116 Y193 E57.14481
G1 X209.342 Y193.464 E57.17483
G1 X208.529 Y193.858 E57.20488
G1 X207.685 Y194.178 E57.2349
G1 X206.815 Y194.423 E57.26496
G1 X205.928 Y194.589 E57.29497
G1 X204.777 Y194.687 E57.33339
G1 X204.17 Y194.7 E57.35359
G1 X31.075 Y194.699 E63.11075
G1 X30.377 Y194.69 E63.13397
G1 X29.476 Y194.639 E63.16398
G1 X28.582 Y194.507 E63.19404
G1 X27.704 Y194.298 E63.22406
G1 X26.847 Y194.011 E63.25412
G1 X26.02 Y193.65 E63.28413
G1 X25.227 Y193.217 E63.31418
G1 X24.476 Y192.716 E63.34421
G1 X23.772 Y192.15 E63.37425
G1 X23.121 Y191.524 E63.40429
G1 X22.528 Y190.843 E63.43433
G1 X21.998 Y190.112 E63.46436
G1 X21.534 Y189.337 E63.4944
G1 X21.14 Y188.524 E63.52445
G1 X20.82 Y187.68 E63.55447
G1 X20.576 Y186.81 E63.58452
G1 X20.41 Y185.922 E63.61457
G1 X20.313 Y184.767 E63.65312
G1 X20.3 Y184.158 E63.67338
G1 X20.301 Y51.036 E68.10104
G1 F2700 E63.10104
;MESH:back.stl
G0 F6000 X29.835 Y51.036
G0 X31.1 Y183.9
;TYPE:WALL-INNER
G1 F2700 E68.10104
G1 F1200 X203.9 Y183.9 E73.84839
G1 X203.9 Y51.1 E78.26533
G1 X31.1 Y51.1 E84.01269
G1 X31.1 Y117.5 E86.22116
G1 X31.1 Y183.9 E88.42963
G0 F6000 X30.7 Y184.3
;TYPE:WALL-OUTER
G1 F1200 X204.3 Y184.3 E94.20359
G1 X204.3 Y50.7 E98.64714
G1 X30.7 Y50.7 E104.4211
G1 X30.7 Y117.5 E106.64288
G1 X30.7 Y184.3 E108.86466
G0 F6000 X30.97 Y184.03
G0 X31.2 Y183.54
G0 X31.46 Y183.54
;TYPE:SKIN
G1 F1200 X203.54 Y183.54 E114.58806
G1 X203.54 Y51.46 E118.98106
G1 X31.46 Y51.46 E124.70446
G1 X31.46 Y183.54 E129.09746
G0 F6000 X31.734 Y183.338
G1 F1200 X31.659 Y183.263 E129.10099
G0 F6000 X31.659 Y182.698
G1 F1200 X32.3 Y183.338 E129.13112
G0 F6000 X32.866 Y183.338
G1 F1200 X31.659 Y182.132 E129.18787
G0 F6000 X31.659 Y181.566
G1 F1200 X33.432 Y183.338 E129.27124
G0 F6000 X33.997 Y183.338
G1 F1200 X31.659 Y181 E129.38121
G0 F6000 X31.659 Y180.435
G1 F1200 X34.563 Y183.338 E129.51779
G0 F6000 X35.129 Y183.338
G1 F1200 X31.659 Y179.869 E129.68098
G0 F6000 X31.659 Y179.303
G1 F1200 X35.694 Y183.338 E129.87077
G0 F6000 X36.26 Y183.338
G1 F1200 X31.659 Y178.738 E130.08717
G0 F6000 X31.659 Y178.172
G1 F1200 X36.826 Y183.338 E130.33018
G0 F6000 X37.391 Y183.338
G1 F1200 X31.659 Y177.606 E130.5998
G0 F6000 X31.659 Y177.041
G1 F1200 X37.957 Y183.338 E130.89601
G0 F6000 X38.523 Y183.338
G1 F1200 X31.659 Y176.475 E131.21885
G0 F6000 X31.659 Y175.909
G1 F1200 X39.088 Y183.338 E131.56829
G0 F6000 X39.654 Y183.338
G1 F1200 X31.659 Y175.344 E131.94433
G0 F6000 X31.659 Y174.778
G1 F1200 X40.22 Y183.338 E132.34699
G0 F6000 X40.785 Y183.338
G1 F1200 X31.659 Y174.212 E132.77625
G0 F6000 X31.659 Y173.647
G1 F1200 X41.351 Y183.338 E133.2321
G0 F6000 X41.917 Y183.338
G1 F1200 X31.659 Y173.081 E133.71459
G0 F6000 X31.659 Y172.515
G1 F1200 X42.482 Y183.338 E134.22367
G0 F6000 X43.048 Y183.338
G1 F1200 X31.659 Y171.949 E134.75937
G0 F6000 X31.659 Y171.384
G1 F1200 X43.614 Y183.338 E135.32167
G0 F6000 X44.18 Y183.338
G1 F1200 X31.659 Y170.818 E135.9106
G0 F6000 X31.659 Y170.252
G1 F1200 X44.745 Y183.338 E136.52612
G0 F6000 X45.311 Y183.338
G1 F1200 X31.659 Y169.687 E137.16825
G0 F6000 X31.659 Y169.121
G1 F1200 X45.877 Y183.338 E137.837
G0 F6000 X46.442 Y183.338
G1 F1200 X31.659 Y168.555 E138.53234
G0 F6000 X31.659 Y167.99
G1 F1200 X47.008 Y183.338 E139.25429
G0 F6000 X47.574 Y183.338
G1 F1200 X31.659 Y167.424 E140.00286
G0 F6000 X31.659 Y166.858
G1 F1200 X48.139 Y183.338 E140.77803
G0 F6000 X48.705 Y183.338
G1 F1200 X31.659 Y166.293 E141.5798
G0 F6000 X31.659 Y165.727
G1 F1200 X49.271 Y183.338 E142.40819
G0 F6000 X49.836 Y183.338
G1 F1200 X31.659 Y165.161 E143.26318
G0 F6000 X31.659 Y164.596
G1 F1200 X50.402 Y183.338 E144.14477
G0 F6000 X50.968 Y183.338
G1 F1200 X31.659 Y164.03 E145.05298
G0 F6000 X31.659 Y163.464
G1 F1200 X51.533 Y183.338 E145.98779
G0 F6000 X52.099 Y183.338
G1 F1200 X31.659 Y162.899 E146.9492
G0 F6000 X31.659 Y162.333
G1 F1200 X52.665 Y183.338 E147.93724
G0 F6000 X53.23 Y183.338
G1 F1200 X31.659 Y161.767 E148.95187
G0 F6000 X31.659 Y161.201
G1 F1200 X53.796 Y183.338 E149.99313
G0 F6000 X54.362 Y183.338
G1 F1200 X31.659 Y160.636 E151.06098
G0 F6000 X31.659 Y160.07
G1 F1200 X54.928 Y183.338 E152.15546
G0 F6000 X55.493 Y183.338
G1 F1200 X31.659 Y159.504 E153.27654
G0 F6000 X31.659 Y158.939
G1 F1200 X56.059 Y183.338 E154.42422
G0 F6000 X56.625 Y183.338
G1 F1200 X31.659 Y158.373 E155.59852
G0 F6000 X31.659 Y157.807
G1 F1200 X57.19 Y183.338 E156.79942
G0 F6000 X57.756 Y183.338
G1 F1200 X31.659 Y157.242 E158.02692
G0 F6000 X31.659 Y156.676
G1 F1200 X58.322 Y183.338 E159.28104
G0 F6000 X58.887 Y183.338
G1 F1200 X31.659 Y156.11 E160.56176
G0 F6000 X31.659 Y155.545
G1 F1200 X59.453 Y183.338 E161.86908
G0 F6000 X60.019 Y183.338
G1 F1200 X31.659 Y154.979 E163.20303
G0 F6000 X31.659 Y154.413
G1 F1200 X60.584 Y183.338 E164.56357
G0 F6000 X61.15 Y183.338
G1 F1200 X31.659 Y153.848 E165.95071
G0 F6000 X31.659 Y153.282
G1 F1200 X61.716 Y183.338 E167.36448
G0 F6000 X62.281 Y183.338
G1 F1200 X31.659 Y152.716 E168.80484
G0 F6000 X31.659 Y152.15
G1 F1200 X62.847 Y183.338 E170.27183
G0 F6000 X63.413 Y183.338
G1 F1200 X31.659 Y151.585 E171.76542
G0 F6000 X31.659 Y151.019
G1 F1200 X63.979 Y183.338 E173.28563
G0 F6000 X64.544 Y183.338
G1 F1200 X31.659 Y150.453 E174.83244
G0 F6000 X31.659 Y149.888
G1 F1200 X65.11 Y183.338 E176.40585
G0 F6000 X65.676 Y183.338
G1 F1200 X31.659 Y149.322 E178.00588
G0 F6000 X31.659 Y148.756
G1 F1200 X66.241 Y183.338 E179.63251
G0 F6000 X66.807 Y183.338
G1 F1200 X31.659 Y148.191 E181.28574
G0 F6000 X31.659 Y147.625
G1 F1200 X67.373 Y183.338 E182.96559
G0 F6000 X67.938 Y183.338
G1 F1200 X31.659 Y147.059 E184.67205
G0 F6000 X31.659 Y146.494
G1 F1200 X68.504 Y183.338 E186.4051
G0 F6000 X69.07 Y183.338
G1 F1200 X31.659 Y145.928 E188.16478
G0 F6000 X31.659 Y145.362
G1 F1200 X69.635 Y183.338 E189.95105
G0 F6000 X70.201 Y183.338
G1 F1200 X31.659 Y144.797 E191.76392
G0 F6000 X31.659 Y144.231
G1 F1200 X70.767 Y183.338 E193.60342
G0 F6000 X71.332 Y183.338
G1 F1200 X31.659 Y143.665 E195.46952
G0 F6000 X31.659 Y143.1
G1 F1200 X71.898 Y183.338 E197.36221
G0 F6000 X72.464 Y183.338
G1 F1200 X31.659 Y142.534 E199.28153
G0 F6000 X31.659 Y141.968
G1 F1200 X73.029 Y183.338 E201.22745
G0 F6000 X73.595 Y183.338
G1 F1200 X31.659 Y141.402 E203.19999
G0 F6000 X31.659 Y140.837
G1 F1200 X74.161 Y183.338 E205.19913
G0 F6000 X74.727 Y183.338
G1 F1200 X31.659 Y140.271 E207.22489
G0 F6000 X31.659 Y139.705
G1 F1200 X75.292 Y183.338 E209.27726
G0 F6000 X75.858 Y183.338
G1 F1200 X31.659 Y139.14 E211.35622
G0 F6000 X31.659 Y138.574
G1 F1200 X76.424 Y183.338 E213.4618
G0 F6000 X76.989 Y183.338
G1 F1200 X31.659 Y138.008 E215.59399
G0 F6000 X31.659 Y137.443
G1 F1200 X77.555 Y183.338 E217.75277
G0 F6000 X78.121 Y183.338
G1 F1200 X31.659 Y136.877 E219.93818
G0 F6000 X31.659 Y136.311
G1 F1200 X78.686 Y183.338 E222.15018
G0 F6000 X79.252 Y183.338
G1 F1200 X31.659 Y135.746 E224.38879
G0 F6000 X31.659 Y135.18
G1 F1200 X79.818 Y183.338 E226.65402
G0 F6000 X80.383 Y183.338
G1 F1200 X31.659 Y134.614 E228.94584
G0 F6000 X31.659 Y134.049
G1 F1200 X80.949 Y183.338 E231.26427
G0 F6000 X81.515 Y183.338
G1 F1200 X31.659 Y133.483 E233.60932
G0 F6000 X31.659 Y132.917
G1 F1200 X82.08 Y183.338 E235.98097
G0 F6000 X82.646 Y183.338
G1 F1200 X31.659 Y132.352 E238.37922
G0 F6000 X31.659 Y131.786
G1 F1200 X83.212 Y183.338 E240.80409
G0 F6000 X83.778 Y183.338
G1 F1200 X31.659 Y131.22 E243.25558
G0 F6000 X31.659 Y130.654
G1 F1200 X84.343 Y183.338 E245.73368
G0 F6000 X84.909 Y183.338
G1 F1200 X31.659 Y130.089 E248.23837
G0 F6000 X31.659 Y129.523
G1 F1200 X85.475 Y183.338 E250.76969
G0 F6000 X86.04 Y183.338
G1 F1200 X31.659 Y128.957 E253.3276
G0 F6000 X31.659 Y128.392
G1 F1200 X86.606 Y183.338 E255.91212
G0 F6000 X87.172 Y183.338
G1 F1200 X31.659 Y127.826 E258.52326
G0 F6000 X31.659 Y127.26
G1 F1200 X87.737 Y183.338 E261.16099
G0 F6000 X88.303 Y183.338
G1 F1200 X31.659 Y126.695 E263.82533
G0 F6000 X31.659 Y126.129
G1 F1200 X88.869 Y183.338 E266.51629
