;FLAVOR:Marlin
;TIME:3123
;Filament used: 0.885799m
;Layer height: 0.12
;MINX:98.42
;MINY:94.266
;MINZ:0.12
;MAXX:162.741
;MAXY:147.015
;MAXZ:11.28
;POSTPROCESSED
;Generated with Cura_SteamEngine main
M140 S60
M105
M190 S60
M104 S205
M105
M109 S205
M82 ;absolute extrusion mode
; Script based on an original created by tjjfvi (https://github.com/tjjfvi)
; An up-to-date version of the tjjfvi's original script can be found
; here:  https://csi.t6.fyi/
; Note - This script will only work in Cura V4.2 and above!
; --- Global Settings
; layer_height = 0.12
; smooth_spiralized_contours = True
; magic_mesh_surface_mode = normal
; machine_extruder_count = 1
; --- Single Extruder Settings
; speed_z_hop = 5
; retraction_amount = 5.0
; retraction_hop = 0.2
; retraction_hop_enabled = False
; retraction_enable = True
; retraction_speed = 45.0
; retraction_retract_speed = 45.0
; retraction_prime_speed = 45.0
; speed_travel = 150.0

; Ender 3 Custom Start G-code
G92 E0 ; Reset Extruder
G28 ; Home all axes
M501 ;load bed level data
M420 S1 ;enable bed leveling
G1 Z2.0 F3000 ; Move Z Axis up little to prevent scratching of Heat Bed
G1 X1.0 Y20 Z0.3 F5000.0 ; Move to start position
G1 X1.0 Y200.0 Z0.3 F1500.0 E15 ; Draw the first line
G1 X1.3 Y200.0 Z0.3 F5000.0 ; Move to side a little
G1 X0.4 Y20 Z0.3 F1500.0 E30 ; Draw the second line
G92 E0 ; Reset Extruder
G1 Z2.0 F3000 ; Move Z Axis up little to prevent scratching of Heat Bed
G1 X5 Y20 Z0.3 F5000.0 ; Move over to prevent blob squish
G92 E0
G92 E0
G1 F2700 E-5
;LAYER_COUNT:94
;LAYER:0
M117 Printing CE3_5xblack - Layer 1 of 94
M107
M204 S500
M205 X12 Y12
G0 F6000 X107.28 Y102.906 Z0.12
G0 X104.713 Y105.777
;TYPE:SKIRT
G1 F2700 E0
G1 F1200 X106.406 Y103.904 E0.05026
G1 X107.28 Y102.906 E0.07667
G1 X107.934 Y102.231 E0.09537
G1 X108.644 Y101.614 E0.1141
G1 X109.403 Y101.06 E0.1328
G1 X110.206 Y100.572 E0.15151
G1 X111.048 Y100.154 E0.17022
G1 X111.922 Y99.809 E0.18893
G1 X112.823 Y99.54 E0.20764
G1 X114.026 Y99.305 E0.23204
G1 X114.904 Y99.184 E0.24969
G1 X115.823 Y99.072 E0.26812
G1 X118.308 Y98.697 E0.31814
G1 X120.795 Y98.249 E0.36845
G1 X123.237 Y97.738 E0.41811
G1 X125.671 Y97.158 E0.46792
G1 X128.133 Y96.495 E0.51867
G1 X130.503 Y95.785 E0.56792
G1 X132.204 Y95.251 E0.60341
G1 X133.244 Y94.96 E0.62491
G1 X133.941 Y94.794 E0.63917
G1 X134.658 Y94.648 E0.65374
G1 X135.184 Y94.554 E0.66438
G1 X135.659 Y94.481 E0.67394
G1 X136.352 Y94.393 E0.68785
G1 X137.215 Y94.319 E0.70509
G1 X138.157 Y94.274 E0.72386
G1 X138.9 Y94.266 E0.73865
G1 X139.843 Y94.294 E0.75743
G1 X140.703 Y94.353 E0.77459
G1 X141.449 Y94.431 E0.78952
G1 X141.88 Y94.489 E0.79818
G1 X142.706 Y94.625 E0.81485
G1 X143.291 Y94.738 E0.82671
G1 X144.021 Y94.905 E0.84161
G1 X144.811 Y95.114 E0.85788
G1 X145.299 Y95.255 E0.86799
G1 X145.919 Y95.456 E0.88097
G1 X146.686 Y95.735 E0.89721
G1 X147.237 Y95.953 E0.90901
G1 X147.875 Y96.229 E0.92284
G1 X148.583 Y96.562 E0.93842
G1 X149.019 Y96.779 E0.94811
G1 X149.617 Y97.1 E0.96162
G1 X150.332 Y97.515 E0.97808
G1 X150.781 Y97.791 E0.98857
G1 X151.31 Y98.135 E1.00113
G1 X152.026 Y98.638 E1.01855
G1 X152.68 Y99.13 E1.03484
G1 X153.299 Y99.63 E1.05068
G1 X153.581 Y99.868 E1.05803
G1 X154.058 Y100.292 E1.07073
G1 X154.717 Y100.913 E1.08876
G1 X155.205 Y101.403 E1.10252
G1 X155.791 Y102.029 E1.11959
G1 X156.264 Y102.569 E1.13388
G1 X156.81 Y103.232 E1.15098
G1 X157.242 Y103.789 E1.16501
G1 X157.62 Y104.308 E1.17779
G1 X158.189 Y105.137 E1.19781
G1 X158.555 Y105.707 E1.21129
G1 X158.994 Y106.439 E1.22828
G1 X159.258 Y106.903 E1.23891
G1 X159.587 Y107.517 E1.25278
G1 X159.817 Y107.972 E1.26293
G1 X160.151 Y108.671 E1.27835
G1 X160.329 Y109.062 E1.2869
G1 X160.654 Y109.827 E1.30344
G1 X160.913 Y110.487 E1.31756
G1 X161.177 Y111.219 E1.33305
G1 X161.346 Y111.724 E1.34365
G1 X161.553 Y112.391 E1.35755
G1 X161.785 Y113.221 E1.37471
G1 X161.893 Y113.645 E1.38342
G1 X162.074 Y114.421 E1.39928
G1 X162.173 Y114.891 E1.40884
G1 X162.303 Y115.583 E1.42285
G1 X162.401 Y116.173 E1.43476
G1 X162.539 Y117.189 E1.45517
G1 X162.594 Y117.693 E1.46526
G1 X162.669 Y118.578 E1.48294
G1 X162.696 Y118.995 E1.49126
G1 X162.731 Y119.818 E1.50766
G1 X162.741 Y120.5 E1.52124
G1 X162.73 Y121.49 E1.54094
G1 X162.702 Y122.19 E1.55489
G1 X162.67 Y122.707 E1.5652
G1 X162.601 Y123.523 E1.5815
G1 X162.516 Y124.285 E1.59677
G1 X162.403 Y125.094 E1.61303
G1 X162.216 Y126.178 E1.63492
G1 X162.076 Y126.857 E1.64872
G1 X161.93 Y127.494 E1.66173
G1 X161.805 Y127.986 E1.67184
G1 X161.575 Y128.813 E1.68893
G1 X161.295 Y129.715 E1.70773
G1 X160.946 Y130.712 E1.72875
G1 X160.677 Y131.401 E1.74348
G1 X160.472 Y131.894 E1.7541
G1 X160.203 Y132.505 E1.76739
G1 X159.686 Y133.579 E1.79112
G1 X159.332 Y134.251 E1.80624
G1 X159.006 Y134.83 E1.81947
G1 X158.586 Y135.532 E1.83575
G1 X158.312 Y135.965 E1.84595
G1 X157.91 Y136.568 E1.86038
G1 X157.23 Y137.513 E1.88355
G1 X156.85 Y138.002 E1.89588
G1 X156.264 Y138.715 E1.91425
G1 X155.804 Y139.24 E1.92815
G1 X155.289 Y139.793 E1.94319
G1 X154.655 Y140.432 E1.96111
G1 X154.226 Y140.836 E1.97284
G1 X153.733 Y141.28 E1.98605
G1 X153.306 Y141.649 E1.99728
G1 X153.007 Y141.894 E2.00498
G1 X152.369 Y142.391 E2.02107
G1 X151.631 Y142.929 E2.03925
G1 X151.122 Y143.273 E2.05148
G1 X150.383 Y143.739 E2.06888
G1 X149.931 Y144.007 E2.07934
G1 X149.379 Y144.316 E2.09193
G1 X149.009 Y144.51 E2.10024
G1 X148.213 Y144.902 E2.11791
G1 X147.825 Y145.08 E2.1264
G1 X147.216 Y145.341 E2.13959
G1 X146.82 Y145.498 E2.14807
G1 X145.971 Y145.808 E2.16607
G1 X145.083 Y146.096 E2.18465
G1 X144.408 Y146.286 E2.19861
G1 X143.698 Y146.458 E2.21315
G1 X142.713 Y146.66 E2.23317
G1 X142.241 Y146.741 E2.2427
G1 X141.65 Y146.828 E2.25459
G1 X141.179 Y146.883 E2.26403
G1 X140.406 Y146.956 E2.27948
G1 X139.58 Y147.003 E2.29595
G1 X138.959 Y147.015 E2.30832
G1 X138.438 Y147.013 E2.31869
G1 X137.721 Y146.993 E2.33297
G1 X136.971 Y146.946 E2.34793
G1 X136.285 Y146.88 E2.36165
G1 X135.838 Y146.828 E2.3706
G1 X135.251 Y146.741 E2.38242
G1 X134.759 Y146.656 E2.39235
G1 X133.8 Y146.459 E2.41184
G1 X133.185 Y146.309 E2.42444
G1 X132.542 Y146.132 E2.43772
G1 X131.981 Y145.961 E2.4494
G1 X131.15 Y145.677 E2.46688
G1 X130.686 Y145.504 E2.47673
G1 X130.251 Y145.331 E2.48605
G1 X129.692 Y145.09 E2.49817
G1 X129.244 Y144.885 E2.50798
G1 X128.481 Y144.509 E2.52491
G1 X127.924 Y144.213 E2.53747
G1 X127.081 Y143.721 E2.5569
G1 X126.15 Y143.131 E2.57884
G1 X123.963 Y141.771 E2.6301
G1 X121.748 Y140.48 E2.68114
G1 X119.583 Y139.297 E2.73025
G1 X117.298 Y138.133 E2.7813
G1 X115.052 Y137.067 E2.83079
G1 X112.746 Y136.052 E2.88094
G1 X110.59 Y135.166 E2.92734
G1 X109.737 Y134.772 E2.94604
G1 X108.92 Y134.307 E2.96476
G1 X108.145 Y133.774 E2.98348
G1 X107.419 Y133.178 E3.00218
G1 X106.746 Y132.522 E3.02089
G1 X106 Y131.642 E3.04385
G1 X105.485 Y130.965 E3.06078
G1 X104.754 Y129.978 E3.08523
G1 X103.181 Y127.975 E3.13593
G1 X101.69 Y126.178 E3.18241
G1 X101.075 Y125.456 E3.20129
G1 X100.497 Y124.715 E3.22
G1 X99.983 Y123.928 E3.23871
G1 X99.538 Y123.1 E3.25742
G1 X99.166 Y122.237 E3.27613
G1 X98.868 Y121.346 E3.29483
G1 X98.646 Y120.432 E3.31355
G1 X98.504 Y119.503 E3.33226
G1 X98.439 Y118.511 E3.35205
G1 X98.42 Y117.557 E3.37105
G1 X98.428 Y116.56 E3.39089
G1 X98.482 Y115.622 E3.4096
G1 X98.615 Y114.691 E3.42832
G1 X98.827 Y113.776 E3.44701
G1 X99.116 Y112.881 E3.46574
G1 X99.48 Y112.014 E3.48445
G1 X99.916 Y111.182 E3.50315
G1 X100.422 Y110.389 E3.52188
G1 X100.993 Y109.643 E3.54058
G1 X101.604 Y108.968 E3.5587
G1 X102.361 Y108.201 E3.58015
G1 X102.976 Y107.593 E3.59737
G1 X104.713 Y105.777 E3.64739
G1 F2700 E-1.35261
G0 F6000 X99.26 Y117.54
G1 F2700 E3.64739
G1 F1200 X99.268 Y116.573 E3.66664
G1 X99.321 Y115.671 E3.68463
G1 X99.454 Y114.777 E3.70262
G1 X99.665 Y113.898 E3.72062
G1 X99.953 Y113.042 E3.73859
G1 X100.316 Y112.214 E3.75659
G1 X100.75 Y111.422 E3.77457
G1 X101.253 Y110.671 E3.79256
G1 X101.82 Y109.968 E3.81054
G1 X102.203 Y109.557 E3.82172
G1 X102.952 Y108.798 E3.84295
G1 X103.58 Y108.177 E3.86053
G1 X105.315 Y106.363 E3.9105
G1 X107.052 Y104.443 E3.96204
G1 X107.39 Y104.049 E3.97237
G1 X107.908 Y103.465 E3.98791
G1 X108.538 Y102.817 E4.0059
G1 X109.222 Y102.227 E4.02388
G1 X109.956 Y101.701 E4.04186
G1 X110.734 Y101.241 E4.05985
G1 X111.55 Y100.852 E4.07784
G1 X112.396 Y100.536 E4.09582
G1 X113.268 Y100.297 E4.11382
G1 X114.141 Y100.138 E4.13148
G1 X115.182 Y99.995 E4.1524
G1 X115.95 Y99.902 E4.1678
G1 X118.473 Y99.521 E4.21859
G1 X120.938 Y99.077 E4.26845
G1 X123.426 Y98.556 E4.31905
G1 X125.881 Y97.971 E4.36929
G1 X128.371 Y97.3 E4.42062
G1 X130.775 Y96.581 E4.47057
G1 X132.456 Y96.053 E4.50565
G1 X132.833 Y95.942 E4.51347
G1 X133.465 Y95.77 E4.52651
G1 X134.109 Y95.617 E4.53969
G1 X134.826 Y95.471 E4.55425
G1 X135.312 Y95.384 E4.56408
G1 X135.787 Y95.311 E4.57365
G1 X136.449 Y95.228 E4.58693
G1 X137.279 Y95.156 E4.60351
G1 X138.19 Y95.114 E4.62166
G1 X138.9 Y95.106 E4.6358
G1 X139.299 Y95.114 E4.64374
G1 X140.199 Y95.156 E4.66168
G1 X140.638 Y95.19 E4.67044
G1 X141.354 Y95.266 E4.68478
G1 X141.752 Y95.319 E4.69277
G1 X142.546 Y95.449 E4.70878
G1 X143.131 Y95.562 E4.72064
G1 X143.806 Y95.717 E4.73443
G1 X144.596 Y95.926 E4.7507
G1 X145.047 Y96.056 E4.76004
G1 X145.64 Y96.249 E4.77246
G1 X146.377 Y96.516 E4.78806
G1 X146.928 Y96.734 E4.79985
G1 X147.518 Y96.989 E4.81265
G1 X148.226 Y97.322 E4.82822
G1 X148.628 Y97.522 E4.83716
G1 X149.2 Y97.83 E4.85009
G1 X149.892 Y98.231 E4.86601
G1 X150.648 Y98.703 E4.88376
G1 X151.114 Y99.02 E4.89498
G1 X151.823 Y99.532 E4.91238
G1 X152.169 Y99.797 E4.92106
G1 X152.767 Y100.28 E4.93636
G1 X153.261 Y100.704 E4.94932
G1 X153.883 Y101.277 E4.96616
G1 X154.397 Y101.779 E4.98046
G1 X154.918 Y102.321 E4.99542
G1 X155.431 Y102.888 E5.01064
G1 X155.904 Y103.447 E5.02522
G1 X156.578 Y104.304 E5.04692
G1 X156.928 Y104.783 E5.05873
G1 X157.497 Y105.612 E5.07875
G1 X157.835 Y106.139 E5.09121
G1 X158.274 Y106.871 E5.1082
G1 X158.517 Y107.3 E5.11802
G1 X158.846 Y107.914 E5.13188
G1 X159.059 Y108.334 E5.14126
G1 X159.393 Y109.033 E5.15668
G1 X159.557 Y109.394 E5.16457
G1 X159.873 Y110.138 E5.18066
G1 X160.124 Y110.777 E5.19433
G1 X160.38 Y111.486 E5.20933
G1 X160.636 Y112.263 E5.22562
G1 X160.824 Y112.892 E5.23869
G1 X160.976 Y113.444 E5.25008
G1 X161.256 Y114.612 E5.27399
G1 X161.347 Y115.046 E5.28282
G1 X161.477 Y115.738 E5.29684
G1 X161.572 Y116.305 E5.30828
G1 X161.706 Y117.298 E5.32823
G1 X161.757 Y117.764 E5.33756
G1 X161.832 Y118.649 E5.35524
G1 X161.882 Y119.569 E5.37358
G1 X161.899 Y120.224 E5.38662
G1 X161.897 Y121.166 E5.40537
G1 X161.877 Y121.862 E5.41923
G1 X161.81 Y122.934 E5.44062
G1 X161.736 Y123.726 E5.45645
G1 X161.646 Y124.462 E5.47121
G1 X161.527 Y125.256 E5.48719
G1 X161.439 Y125.763 E5.49744
G1 X161.318 Y126.385 E5.51005
G1 X161.111 Y127.306 E5.52884
G1 X160.996 Y127.761 E5.53818
G1 X160.766 Y128.588 E5.55527
G1 X160.495 Y129.459 E5.57343
G1 X160.161 Y130.411 E5.59351
G1 X159.901 Y131.078 E5.60776
G1 X159.591 Y131.815 E5.62368
G1 X159.317 Y132.419 E5.63688
G1 X158.94 Y133.192 E5.654
G1 X158.597 Y133.843 E5.66865
G1 X158.283 Y134.403 E5.68143
G1 X157.876 Y135.083 E5.6972
G1 X157.433 Y135.774 E5.71354
G1 X157.042 Y136.345 E5.72732
G1 X156.744 Y136.759 E5.73747
G1 X156.37 Y137.254 E5.74982
G1 X155.847 Y137.905 E5.76645
G1 X155.37 Y138.465 E5.78109
G1 X154.925 Y138.956 E5.79428
G1 X154.311 Y139.592 E5.81188
G1 X153.664 Y140.212 E5.82972
G1 X153.171 Y140.656 E5.84292
G1 X152.486 Y141.235 E5.86078
G1 X151.869 Y141.716 E5.87635
G1 X151.155 Y142.237 E5.89394
G1 X150.668 Y142.566 E5.90564
G1 X150.263 Y142.826 E5.91522
G1 X149.502 Y143.284 E5.9329
G1 X148.975 Y143.58 E5.94494
G1 X148.171 Y143.99 E5.9629
G1 X147.474 Y144.316 E5.97822
G1 X146.892 Y144.566 E5.99083
G1 X146.525 Y144.712 E5.99869
G1 X145.706 Y145.011 E6.01605
G1 X144.847 Y145.289 E6.03402
G1 X144.201 Y145.472 E6.04738
G1 X143.522 Y145.637 E6.06129
G1 X142.986 Y145.752 E6.07221
G1 X142.099 Y145.913 E6.09015
G1 X141.535 Y145.996 E6.1015
G1 X141.1 Y146.047 E6.11022
G1 X140.327 Y146.12 E6.12567
G1 X139.564 Y146.163 E6.14089
G1 X138.943 Y146.175 E6.15325
G1 X138.461 Y146.173 E6.16285
G1 X137.744 Y146.153 E6.17712
G1 X137.051 Y146.11 E6.19095
G1 X136.365 Y146.044 E6.20466
G1 X135.953 Y145.996 E6.21292
G1 X135.394 Y145.913 E6.22417
G1 X134.498 Y145.75 E6.2423
G1 X133.976 Y145.638 E6.25293
G1 X133.408 Y145.499 E6.26457
G1 X132.765 Y145.322 E6.27784
G1 X132.246 Y145.164 E6.28864
G1 X131.443 Y144.89 E6.30553
G1 X130.979 Y144.717 E6.31539
G1 X130.577 Y144.557 E6.324
G1 X130.042 Y144.326 E6.3356
G1 X129.248 Y143.955 E6.35305
G1 X128.581 Y143.614 E6.36796
G1 X127.969 Y143.272 E6.38192
G1 X127.234 Y142.828 E6.39901
G1 X126.581 Y142.41 E6.41444
G1 X124.388 Y141.046 E6.46585
G1 X122.184 Y139.761 E6.51664
G1 X119.935 Y138.533 E6.56765
G1 X117.692 Y137.39 E6.61776
G1 X115.403 Y136.304 E6.66819
G1 X113.078 Y135.28 E6.71876
G1 X110.909 Y134.389 E6.76544
G1 X110.09 Y134.009 E6.78341
G1 X109.307 Y133.558 E6.8014
G1 X108.566 Y133.039 E6.81941
G1 X107.875 Y132.458 E6.83738
G1 X107.238 Y131.817 E6.85537
G1 X106.668 Y131.133 E6.87309
G1 X106.16 Y130.465 E6.8898
G1 X105.414 Y129.457 E6.91476
G1 X103.84 Y127.454 E6.96547
G1 X102.346 Y125.653 E7.01205
G1 X101.715 Y124.912 E7.03143
G1 X101.16 Y124.199 E7.04941
G1 X100.67 Y123.439 E7.06741
G1 X100.249 Y122.64 E7.08539
G1 X99.901 Y121.806 E7.10338
G1 X99.628 Y120.945 E7.12136
G1 X99.432 Y120.063 E7.13935
G1 X99.315 Y119.167 E7.15733
G1 X99.279 Y118.494 E7.17075
G1 X99.26 Y117.54 E7.18974
G0 F6000 X98.84 Y117.549
G1 F1200 X98.848 Y116.566 E7.20931
G1 X98.902 Y115.646 E7.22766
G1 X99.035 Y114.734 E7.246
G1 X99.246 Y113.836 E7.26437
G1 X99.535 Y112.961 E7.28271
G1 X99.898 Y112.113 E7.30107
G1 X100.333 Y111.301 E7.31941
G1 X100.837 Y110.529 E7.33776
G1 X101.407 Y109.803 E7.35614
G1 X101.904 Y109.263 E7.37075
G1 X102.657 Y108.499 E7.3921
G1 X103.278 Y107.885 E7.40948
G1 X104.997 Y106.088 E7.45899
G1 X106.737 Y104.163 E7.51064
G1 X107.594 Y103.185 E7.53652
G1 X108.236 Y102.524 E7.55487
G1 X108.933 Y101.921 E7.57321
G1 X109.68 Y101.38 E7.59157
G1 X110.471 Y100.906 E7.60993
G1 X111.3 Y100.502 E7.62829
G1 X112.16 Y100.172 E7.64662
G1 X113.046 Y99.917 E7.66498
G1 X114.084 Y99.722 E7.686
G1 X115.132 Y99.578 E7.70706
G1 X115.902 Y99.485 E7.7225
G1 X118.377 Y99.111 E7.77232
G1 X120.88 Y98.66 E7.82295
G1 X123.345 Y98.144 E7.87308
G1 X125.784 Y97.563 E7.92299
G1 X128.219 Y96.907 E7.97319
G1 X130.663 Y96.175 E8.02398
G1 X132.33 Y95.652 E8.05876
G1 X133.355 Y95.365 E8.07995
G1 X134.025 Y95.206 E8.09365
G1 X134.742 Y95.06 E8.10822
G1 X135.248 Y94.969 E8.11845
G1 X135.723 Y94.896 E8.12802
G1 X136.4 Y94.811 E8.1416
G1 X137.247 Y94.737 E8.15853
G1 X138.174 Y94.694 E8.177
G1 X138.583 Y94.686 E8.18514
G1 X139.316 Y94.694 E8.19974
G1 X140.232 Y94.738 E8.21799
G1 X141.061 Y94.809 E8.23455
G1 X141.816 Y94.904 E8.2497
G1 X142.626 Y95.037 E8.26604
G1 X143.211 Y95.15 E8.2779
G1 X143.914 Y95.311 E8.29226
G1 X144.704 Y95.52 E8.30852
G1 X145.173 Y95.655 E8.31824
G1 X145.78 Y95.853 E8.33095
G1 X146.532 Y96.126 E8.34687
G1 X147.083 Y96.344 E8.35867
G1 X147.696 Y96.609 E8.37196
G1 X148.404 Y96.942 E8.38754
G1 X148.823 Y97.15 E8.39685
G1 X149.409 Y97.465 E8.41009
G1 X150.112 Y97.873 E8.42627
G1 X150.88 Y98.353 E8.4443
G1 X151.358 Y98.678 E8.45581
G1 X152.079 Y99.199 E8.47352
G1 X152.425 Y99.464 E8.48219
G1 X153.033 Y99.955 E8.49775
G1 X153.304 Y100.184 E8.50481
G1 X153.772 Y100.6 E8.51728
G1 X154.421 Y101.211 E8.53502
G1 X154.901 Y101.693 E8.54856
G1 X155.477 Y102.307 E8.56532
G1 X155.745 Y102.609 E8.57336
G1 X156.226 Y103.178 E8.58819
G1 X156.478 Y103.489 E8.59616
G1 X156.91 Y104.046 E8.61019
G1 X157.274 Y104.546 E8.6225
G1 X157.843 Y105.375 E8.64251
G1 X158.195 Y105.923 E8.65548
G1 X158.634 Y106.655 E8.67247
G1 X158.888 Y107.101 E8.68269
G1 X159.217 Y107.715 E8.69655
G1 X159.438 Y108.153 E8.70632
G1 X159.772 Y108.852 E8.72174
G1 X159.943 Y109.228 E8.72996
G1 X160.264 Y109.982 E8.74628
G1 X160.42 Y110.374 E8.75467
G1 X160.779 Y111.353 E8.77543
G1 X161.038 Y112.141 E8.79194
G1 X161.229 Y112.781 E8.80524
G1 X161.381 Y113.333 E8.81664
G1 X161.484 Y113.74 E8.82499
G1 X161.665 Y114.516 E8.84086
G1 X161.76 Y114.968 E8.85005
