;FLAVOR:Marlin
;TIME:7294
;Filament used: 5.62164m
;Layer height: 0.2
;MINX:61.459
;MINY:66.923
;MINZ:0.2
;MAXX:173.541
;MAXY:168.077
;MAXZ:6
;POSTPROCESSED
;Generated with Cura_SteamEngine main
M140 S60
M105
M190 S60
M104 S205
M105
M109 S205
M82 ;absolute extrusion mode
; Script based on an original created by tjjfvi (https://github.com/tjjfvi)
; An up-to-date version of the tjjfvi's original script can be found
; here:  https://csi.t6.fyi/
; Note - This script will only work in Cura V4.2 and above!
; --- Global Settings
; layer_height = 0.2
; smooth_spiralized_contours = True
; magic_mesh_surface_mode = normal
; machine_extruder_count = 1
; --- Single Extruder Settings
; speed_z_hop = 5
; retraction_amount = 5.0
; retraction_hop = 0.2
; retraction_hop_enabled = False
; retraction_enable = True
; retraction_speed = 45.0
; retraction_retract_speed = 45.0
; retraction_prime_speed = 45.0
; speed_travel = 150.0

; Ender 3 Custom Start G-code
G92 E0 ; Reset Extruder
G28 ; Home all axes
M501 ;load bed level data
M420 S1 ;enable bed leveling
G1 Z2.0 F3000 ; Move Z Axis up little to prevent scratching of Heat Bed
G1 X1.0 Y20 Z0.3 F5000.0 ; Move to start position
G1 X1.0 Y200.0 Z0.3 F1500.0 E15 ; Draw the first line
G1 X1.3 Y200.0 Z0.3 F5000.0 ; Move to side a little
G1 X0.4 Y20 Z0.3 F1500.0 E30 ; Draw the second line
G92 E0 ; Reset Extruder
G1 Z2.0 F3000 ; Move Z Axis up little to prevent scratching of Heat Bed
G1 X5 Y20 Z0.3 F5000.0 ; Move over to prevent blob squish
G92 E0
G92 E0
G1 F2700 E-5
;LAYER_COUNT:30
;LAYER:0
M117 Printing sides_clamps_top - Layer 1 of 30
M107
M204 S500
M205 X12 Y12
G0 F6000 X85.353 Y72.254 Z0.2
G0 X83.393 Y75.824
;TYPE:SKIRT
G1 F2700 E0
G1 F1200 X83.897 Y74.662 E0.04202
G1 X84.314 Y73.819 E0.07322
G1 X84.8 Y73.014 E0.10442
G1 X85.353 Y72.254 E0.1356
G1 X85.968 Y71.544 E0.16677
G1 X86.642 Y70.888 E0.19797
G1 X87.369 Y70.293 E0.22914
G1 X88.302 Y69.664 E0.26647
G1 X88.971 Y69.263 E0.29235
G1 X89.883 Y68.737 E0.32728
G1 X90.618 Y68.326 E0.35522
G1 X91.458 Y67.903 E0.38642
G1 X92.33 Y67.553 E0.41759
G1 X93.229 Y67.279 E0.44877
G1 X94.149 Y67.082 E0.47999
G1 X95.081 Y66.964 E0.51116
G1 X96.02 Y66.926 E0.54234
G1 X97.226 Y66.994 E0.58241
G1 X98.949 Y67.186 E0.63993
G1 X101.465 Y67.42 E0.72376
G1 X103.978 Y67.582 E0.80731
G1 X106.54 Y67.675 E0.89236
G1 X108.483 Y67.696 E0.95683
G1 X126.416 Y67.697 E1.55179
G1 X129.022 Y67.66 E1.63826
G1 X131.518 Y67.554 E1.72115
G1 X134.043 Y67.376 E1.80513
G1 X136.611 Y67.121 E1.89074
G1 X137.693 Y66.993 E1.92689
G1 X138.631 Y66.923 E1.9581
G1 X139.571 Y66.932 E1.98929
G1 X140.506 Y67.022 E2.02045
G1 X141.431 Y67.191 E2.05165
G1 X142.338 Y67.437 E2.08283
G1 X143.221 Y67.76 E2.11402
G1 X144.169 Y68.207 E2.14879
G1 X144.686 Y68.489 E2.16833
G1 X145.84 Y69.152 E2.21248
G1 X146.611 Y69.608 E2.2422
G1 X147.398 Y70.121 E2.27337
G1 X148.14 Y70.699 E2.30458
G1 X148.829 Y71.338 E2.33575
G1 X149.461 Y72.033 E2.36692
G1 X150.032 Y72.78 E2.39811
G1 X150.538 Y73.573 E2.42932
G1 X151.098 Y74.678 E2.47042
G1 X152.132 Y77.037 E2.55587
G1 X153.221 Y79.346 E2.64057
G1 X154.328 Y81.53 E2.72181
G1 X156.161 Y84.859 E2.84789
G1 X165.053 Y100.259 E3.43787
G1 X166.433 Y102.572 E3.52723
G1 X167.768 Y104.673 E3.60981
G1 X169.183 Y106.768 E3.69369
G1 X170.678 Y108.85 E3.77873
G1 X171.343 Y109.742 E3.81564
G1 X171.872 Y110.519 E3.84682
G1 X172.333 Y111.338 E3.878
G1 X172.723 Y112.193 E3.90918
G1 X173.039 Y113.079 E3.94039
G1 X173.278 Y113.988 E3.97157
G1 X173.439 Y114.914 E4.00276
G1 X173.526 Y115.981 E4.03827
G1 X173.539 Y116.533 E4.05659
G1 X173.541 Y118.111 E4.10895
G1 X173.531 Y118.815 E4.13231
G1 X173.478 Y119.753 E4.16348
G1 X173.345 Y120.684 E4.19468
G1 X173.133 Y121.6 E4.22587
G1 X172.845 Y122.494 E4.25703
G1 X172.481 Y123.361 E4.28823
G1 X172.045 Y124.194 E4.31942
G1 X171.369 Y125.225 E4.36032
G1 X170.647 Y126.202 E4.40063
G1 X169.148 Y128.291 E4.48593
G1 X167.721 Y130.405 E4.57055
G1 X166.367 Y132.538 E4.65437
G1 X165.112 Y134.643 E4.73568
G1 X156.167 Y150.137 E5.32924
G1 X154.921 Y152.367 E5.41399
G1 X153.763 Y154.585 E5.497
G1 X152.662 Y156.847 E5.58046
G1 X151.595 Y159.208 E5.66642
G1 X151.122 Y160.292 E5.70566
G1 X150.709 Y161.136 E5.73684
G1 X150.227 Y161.943 E5.76802
G1 X149.677 Y162.706 E5.79923
G1 X149.065 Y163.419 E5.8304
G1 X148.395 Y164.078 E5.86158
G1 X147.67 Y164.677 E5.89278
G1 X146.684 Y165.344 E5.93228
G1 X145.944 Y165.786 E5.96087
G1 X144.477 Y166.623 E6.01691
G1 X143.641 Y167.053 E6.0481
G1 X142.772 Y167.412 E6.07929
G1 X141.876 Y167.694 E6.11046
G1 X140.959 Y167.9 E6.14164
G1 X140.027 Y168.027 E6.17284
G1 X139.089 Y168.075 E6.20401
G1 X137.865 Y168.016 E6.24466
G1 X136.948 Y167.921 E6.27525
G1 X135.602 Y167.764 E6.32021
G1 X133.118 Y167.546 E6.40293
G1 X130.643 Y167.398 E6.48519
G1 X128.06 Y167.317 E6.57093
G1 X126.496 Y167.304 E6.62282
G1 X108.584 Y167.303 E7.21709
G1 X105.979 Y167.34 E7.30352
G1 X103.485 Y167.446 E7.38634
G1 X100.955 Y167.624 E7.47049
G1 X98.375 Y167.881 E7.55651
G1 X97.303 Y168.007 E7.59232
G1 X96.365 Y168.077 E7.62352
G1 X95.425 Y168.067 E7.65471
G1 X94.49 Y167.978 E7.68587
G1 X93.565 Y167.809 E7.71707
G1 X92.658 Y167.562 E7.74826
G1 X91.775 Y167.239 E7.77945
G1 X90.796 Y166.775 E7.81539
G1 X90.309 Y166.509 E7.83381
G1 X89.16 Y165.849 E7.87777
G1 X88.377 Y165.385 E7.90796
G1 X87.59 Y164.871 E7.93915
G1 X86.85 Y164.291 E7.97034
G1 X86.161 Y163.651 E8.00154
G1 X85.53 Y162.955 E8.03271
G1 X84.96 Y162.208 E8.06388
G1 X84.455 Y161.414 E8.0951
G1 X83.904 Y160.326 E8.13556
G1 X82.858 Y157.942 E8.22194
G1 X81.779 Y155.654 E8.30586
G1 X80.672 Y153.47 E8.3871
G1 X78.839 Y150.141 E8.51318
G1 X69.925 Y134.704 E9.10459
G1 X68.578 Y132.447 E9.19179
G1 X67.221 Y130.31 E9.27578
G1 X65.826 Y128.246 E9.35843
G1 X64.339 Y126.175 E9.44301
G1 X63.578 Y125.149 E9.48539
G1 X63.059 Y124.366 E9.51656
G1 X62.608 Y123.541 E9.54775
G1 X62.228 Y122.681 E9.57895
G1 X61.923 Y121.792 E9.61013
G1 X61.695 Y120.88 E9.64132
G1 X61.545 Y119.952 E9.67251
G1 X61.474 Y119.02 E9.70352
G1 X61.461 Y118.467 E9.72187
G1 X61.459 Y116.889 E9.77422
G1 X61.469 Y116.184 E9.79761
G1 X61.522 Y115.246 E9.82878
G1 X61.655 Y114.315 E9.85998
G1 X61.867 Y113.399 E9.89118
G1 X62.155 Y112.505 E9.92234
G1 X62.519 Y111.638 E9.95354
G1 X62.955 Y110.805 E9.98473
G1 X63.634 Y109.77 E10.0258
G1 X64.368 Y108.777 E10.06676
G1 X65.852 Y106.709 E10.15121
G1 X67.279 Y104.595 E10.23583
G1 X68.616 Y102.489 E10.31859
G1 X69.964 Y100.227 E10.40596
G1 X78.787 Y84.946 E10.99137
G1 X80.095 Y82.607 E11.08028
G1 X81.234 Y80.424 E11.16197
G1 X82.352 Y78.127 E11.24673
G1 X83.393 Y75.824 E11.33058
G1 F2700 E6.33058
G0 F6000 X81.623 Y80.587
G1 F2700 E11.33058
G1 F1200 X82.73 Y78.31 E11.41458
G1 X83.773 Y76.004 E11.49854
G1 X84.281 Y74.831 E11.54095
G1 X84.69 Y74.005 E11.57153
G1 X85.169 Y73.217 E11.60213
G1 X85.715 Y72.474 E11.63272
G1 X86.323 Y71.781 E11.6633
G1 X86.988 Y71.143 E11.69388
G1 X87.707 Y70.565 E11.72449
G1 X88.518 Y70.024 E11.75683
G1 X89.181 Y69.627 E11.78247
G1 X90.093 Y69.101 E11.8174
G1 X90.823 Y68.693 E11.84514
G1 X91.647 Y68.279 E11.87574
G1 X92.503 Y67.938 E11.90631
G1 X93.386 Y67.673 E11.93689
G1 X94.289 Y67.485 E11.96749
G1 X95.204 Y67.376 E11.99806
G1 X96.126 Y67.347 E12.02867
G1 X97.179 Y67.412 E12.06367
G1 X98.862 Y67.6 E12.11986
G1 X101.434 Y67.839 E12.20555
G1 X103.971 Y68.003 E12.2899
G1 X106.521 Y68.095 E12.37456
G1 X108.478 Y68.116 E12.43949
G1 X126.422 Y68.117 E13.03481
G1 X129.046 Y68.08 E13.12188
G1 X131.528 Y67.974 E13.2043
G1 X134.079 Y67.795 E13.28914
G1 X136.649 Y67.539 E13.37483
G1 X137.742 Y67.41 E13.41134
G1 X138.662 Y67.342 E13.44195
G1 X139.584 Y67.354 E13.47254
G1 X140.501 Y67.445 E13.50311
G1 X141.407 Y67.616 E13.5337
G1 X142.295 Y67.865 E13.5643
G1 X143.158 Y68.189 E13.59488
G1 X143.972 Y68.578 E13.62482
G1 X144.476 Y68.853 E13.64386
G1 X145.754 Y69.588 E13.69278
G1 X146.397 Y69.969 E13.71757
G1 X147.169 Y70.473 E13.74816
G1 X147.894 Y71.042 E13.77874
G1 X148.568 Y71.671 E13.80932
G1 X149.184 Y72.357 E13.83991
G1 X149.739 Y73.094 E13.87052
G1 X150.227 Y73.875 E13.90107
G1 X150.714 Y74.846 E13.93711
G1 X151.764 Y77.241 E14.02387
G1 X152.835 Y79.513 E14.10721
G1 X153.968 Y81.746 E14.19028
G1 X155.774 Y85.026 E14.31451
G1 X164.729 Y100.536 E14.90869
G1 X166.062 Y102.77 E14.995
G1 X167.426 Y104.917 E15.07939
G1 X168.838 Y107.007 E15.16307
G1 X170.346 Y109.107 E15.24885
G1 X171.006 Y109.993 E15.2855
G1 X171.524 Y110.755 E15.31607
G1 X171.975 Y111.56 E15.34668
G1 X172.353 Y112.4 E15.37724
G1 X172.658 Y113.271 E15.40786
G1 X172.886 Y114.164 E15.43844
G1 X173.036 Y115.074 E15.46904
G1 X173.106 Y115.995 E15.49968
G1 X173.119 Y116.534 E15.51757
G1 X173.121 Y118.105 E15.56969
G1 X173.111 Y118.809 E15.59305
G1 X173.058 Y119.729 E15.62362
G1 X172.925 Y120.642 E15.65423
G1 X172.714 Y121.539 E15.68481
G1 X172.426 Y122.415 E15.7154
G1 X172.063 Y123.262 E15.74597
G1 X171.628 Y124.075 E15.77656
G1 X171.031 Y124.975 E15.81239
G1 X170.329 Y125.924 E15.85156
G1 X168.786 Y128.076 E15.93941
G1 X167.378 Y130.162 E16.02291
G1 X166.028 Y132.288 E16.10646
G1 X164.708 Y134.502 E16.19198
G1 X155.831 Y149.879 E16.78105
G1 X154.555 Y152.162 E16.86782
G1 X153.374 Y154.423 E16.95245
G1 X152.284 Y156.664 E17.03513
G1 X151.231 Y158.992 E17.1199
G1 X150.737 Y160.124 E17.16087
G1 X150.332 Y160.952 E17.19145
G1 X149.856 Y161.742 E17.22205
G1 X149.314 Y162.488 E17.25265
G1 X148.71 Y163.184 E17.28322
G1 X148.047 Y163.825 E17.31382
G1 X147.332 Y164.406 E17.34438
G1 X146.468 Y164.984 E17.37887
G1 X145.736 Y165.421 E17.40715
G1 X144.269 Y166.258 E17.46319
G1 X143.449 Y166.68 E17.49378
G1 X142.596 Y167.029 E17.52436
G1 X141.715 Y167.303 E17.55497
G1 X140.815 Y167.499 E17.58553
G1 X139.9 Y167.617 E17.61614
G1 X138.979 Y167.655 E17.64672
G1 X137.908 Y167.599 E17.6823
G1 X136.997 Y167.504 E17.71269
G1 X135.653 Y167.347 E17.75758
G1 X133.145 Y167.127 E17.84111
G1 X130.646 Y166.978 E17.92417
G1 X128.076 Y166.897 E18.00947
G1 X126.499 Y166.884 E18.0618
G1 X108.578 Y166.883 E18.65636
G1 X105.955 Y166.92 E18.74339
G1 X103.472 Y167.026 E18.82585
G1 X100.919 Y167.206 E18.91076
G1 X98.342 Y167.462 E18.99668
G1 X97.254 Y167.59 E19.03302
G1 X96.334 Y167.658 E19.06363
G1 X95.412 Y167.646 E19.09422
G1 X94.495 Y167.554 E19.1248
G1 X93.589 Y167.383 E19.15538
G1 X92.701 Y167.135 E19.18597
G1 X91.838 Y166.81 E19.21657
G1 X90.994 Y166.405 E19.24763
G1 X90.518 Y166.145 E19.26562
G1 X89.369 Y165.485 E19.30958
G1 X88.592 Y165.024 E19.33956
G1 X87.82 Y164.519 E19.37016
G1 X87.096 Y163.949 E19.40073
G1 X86.423 Y163.318 E19.43134
G1 X85.808 Y162.632 E19.46191
G1 X85.254 Y161.894 E19.49252
G1 X84.766 Y161.112 E19.5231
G1 X84.289 Y160.157 E19.55852
G1 X83.247 Y157.781 E19.6446
G1 X82.165 Y155.487 E19.72875
G1 X81.032 Y153.254 E19.81182
G1 X79.217 Y149.958 E19.93666
G1 X70.253 Y134.433 E20.53142
G1 X68.934 Y132.223 E20.61681
G1 X67.579 Y130.091 E20.70062
G1 X66.171 Y128.007 E20.78406
G1 X64.68 Y125.929 E20.86891
G1 X64.312 Y125.442 E20.88916
G1 X63.918 Y124.902 E20.91134
G1 X63.409 Y124.134 E20.94191
G1 X62.969 Y123.324 E20.97249
G1 X62.6 Y122.479 E21.00308
G1 X62.306 Y121.605 E21.03368
G1 X62.089 Y120.709 E21.06426
G1 X61.95 Y119.797 E21.09487
G1 X61.894 Y119.006 E21.12118
G1 X61.881 Y118.466 E21.1391
G1 X61.879 Y116.895 E21.19122
G1 X61.889 Y116.19 E21.21461
G1 X61.942 Y115.27 E21.24518
G1 X62.075 Y114.357 E21.27579
G1 X62.286 Y113.46 E21.30637
G1 X62.574 Y112.584 E21.33696
G1 X62.937 Y111.737 E21.36753
G1 X63.372 Y110.924 E21.39812
G1 X63.972 Y110.02 E21.43412
G1 X64.671 Y109.075 E21.47312
G1 X66.214 Y106.924 E21.56094
G1 X67.622 Y104.838 E21.64444
G1 X68.972 Y102.713 E21.72797
G1 X70.29 Y100.501 E21.81339
G1 X79.188 Y85.09 E22.40379
G1 X80.45 Y82.832 E22.48961
G1 X81.623 Y80.587 E22.57365
G1 F2700 E17.57365
G0 F6000 X79.558 Y85.289
G1 F2700 E22.57365
G1 F1200 X80.806 Y83.057 E22.65849
G1 X82.011 Y80.749 E22.74487
G1 X83.094 Y78.523 E22.82699
G1 X84.173 Y76.138 E22.91384
G1 X84.666 Y75.001 E22.95496
G1 X85.067 Y74.192 E22.98492
G1 X85.539 Y73.421 E23.01491
G1 X86.076 Y72.695 E23.04487
G1 X86.676 Y72.019 E23.07485
G1 X87.334 Y71.399 E23.10485
G1 X88.043 Y70.84 E23.1348
G1 X88.735 Y70.383 E23.16232
G1 X89.223 Y70.089 E23.18122
G1 X90.43 Y69.392 E23.22746
G1 X91.027 Y69.059 E23.25014
G1 X91.835 Y68.655 E23.28011
G1 X92.676 Y68.323 E23.31011
G1 X93.542 Y68.067 E23.34007
G1 X94.428 Y67.888 E23.37006
G1 X95.326 Y67.788 E23.40003
G1 X96.229 Y67.769 E23.43
G1 X97.133 Y67.829 E23.46006
G1 X98.834 Y68.019 E23.51684
G1 X101.403 Y68.258 E23.60244
G1 X103.965 Y68.423 E23.68762
G1 X106.5 Y68.514 E23.77178
G1 X108.474 Y68.536 E23.83727
G1 X126.428 Y68.537 E24.43293
G1 X129.035 Y68.5 E24.51943
G1 X131.576 Y68.392 E24.60381
G1 X134.116 Y68.213 E24.68829
G1 X136.688 Y67.957 E24.77404
G1 X137.792 Y67.827 E24.81092
G1 X138.693 Y67.761 E24.84089
G1 X139.596 Y67.775 E24.87086
G1 X140.495 Y67.869 E24.90085
G1 X141.382 Y68.042 E24.93083
G1 X142.25 Y68.292 E24.9608
G1 X143.092 Y68.619 E24.99076
G1 X143.775 Y68.949 E25.01593
G1 X144.267 Y69.217 E25.03452
G1 X145.54 Y69.949 E25.08324
G1 X146.183 Y70.33 E25.10803
G1 X146.939 Y70.825 E25.13801
G1 X147.648 Y71.384 E25.16797
G1 X148.306 Y72.004 E25.19796
G1 X148.906 Y72.68 E25.22795
G1 X149.443 Y73.406 E25.25791
G1 X149.915 Y74.177 E25.2879
G1 X150.329 Y75.015 E25.31891
G1 X151.375 Y77.401 E25.40535
G1 X152.463 Y79.708 E25.48997
G1 X153.595 Y81.94 E25.573
G1 X155.407 Y85.23 E25.69761
G1 X164.382 Y100.776 E26.29316
G1 X165.697 Y102.978 E26.37825
G1 X167.067 Y105.136 E26.46306
G1 X168.493 Y107.246 E26.54755
G1 X170.004 Y109.351 E26.63352
G1 X170.669 Y110.244 E26.67046
G1 X171.177 Y110.992 E26.70046
G1 X171.616 Y111.781 E26.73041
G1 X171.983 Y112.607 E26.7604
G1 X172.277 Y113.461 E26.79036
G1 X172.493 Y114.338 E26.82033
G1 X172.631 Y115.231 E26.85031
G1 X172.686 Y116.009 E26.87618
G1 X172.699 Y116.535 E26.89364
G1 X172.701 Y118.099 E26.94553
G1 X172.691 Y118.803 E26.96889
G1 X172.638 Y119.705 E26.99887
G1 X172.506 Y120.599 E27.02885
G1 X172.295 Y121.477 E27.05881
G1 X172.007 Y122.334 E27.0888
G1 X171.645 Y123.162 E27.11878
G1 X171.211 Y123.954 E27.14875
G1 X170.693 Y124.726 E27.17959
G1 X169.977 Y125.695 E27.21956
G1 X168.445 Y127.83 E27.30674
G1 X167.019 Y129.943 E27.39132
G1 X165.673 Y132.064 E27.47466
G1 X164.343 Y134.293 E27.56078
G1 X155.457 Y149.686 E28.15045
G1 X154.195 Y151.944 E28.23627
G1 X153.007 Y154.219 E28.32142
G1 X151.892 Y156.511 E28.40599
G1 X150.827 Y158.868 E28.4918
G1 X150.352 Y159.956 E28.53118
G1 X149.954 Y160.767 E28.56115
G1 X149.486 Y161.54 E28.59113
G1 X148.952 Y162.269 E28.62111
G1 X148.355 Y162.947 E28.65109
G1 X147.701 Y163.57 E28.68105
G1 X146.994 Y164.133 E28.71104
G1 X146.252 Y164.624 E28.74056
G1 X145.528 Y165.056 E28.76853
G1 X144.061 Y165.893 E28.82456
G1 X143.257 Y166.306 E28.85455
G1 X142.42 Y166.646 E28.88452
G1 X141.556 Y166.91 E28.9145
G1 X140.672 Y167.097 E28.94447
G1 X139.775 Y167.206 E28.97445
G1 X138.872 Y167.234 E29.00443
G1 X137.951 Y167.181 E29.03503
G1 X137.177 Y167.101 E29.06085
G1 X135.735 Y166.933 E29.10901
G1 X133.172 Y166.708 E29.19437
G1 X130.648 Y166.558 E29.27826
G1 X128.094 Y166.477 E29.36304
G1 X126.503 Y166.464 E29.41582
G1 X108.572 Y166.463 E30.01072
G1 X105.966 Y166.5 E30.09719
G1 X103.424 Y166.608 E30.1816
G1 X100.885 Y166.787 E30.26604
G1 X98.298 Y167.044 E30.3523
G1 X97.204 Y167.173 E30.38884
G1 X96.303 Y167.239 E30.41882
G1 X95.4 Y167.225 E30.44878
G1 X94.501 Y167.131 E30.47877
G1 X93.614 Y166.958 E30.50875
G1 X92.746 Y166.707 E30.53873
G1 X91.904 Y166.38 E30.56869
G1 X91.192 Y166.034 E30.59496
G1 X90.728 Y165.78 E30.61251
G1 X89.447 Y165.044 E30.66152
G1 X88.806 Y164.663 E30.68626
G1 X88.051 Y164.167 E30.71623
G1 X87.342 Y163.607 E30.74621
G1 X86.686 Y162.986 E30.77618
G1 X86.087 Y162.309 E30.80617
G1 X85.55 Y161.582 E30.83615
G1 X85.079 Y160.811 E30.86613
G1 X84.673 Y159.988 E30.89657
G1 X83.621 Y157.59 E30.98345
G1 X82.537 Y155.292 E31.06775
G1 X81.405 Y153.06 E31.15078
G1 X79.593 Y149.77 E31.27539
G1 X70.636 Y134.255 E31.86975
G1 X69.298 Y132.015 E31.95632
G1 X67.922 Y129.847 E32.04151
G1 X66.516 Y127.767 E32.12481
G1 X65.02 Y125.683 E32.20992
G1 X64.647 Y125.189 E32.23045
G1 X64.258 Y124.655 E32.25237
G1 X63.76 Y123.902 E32.28232
