;FLAVOR:Marlin
;TIME:16072
;Filament used: 9.02144m
;Layer height: 0.2
;MINX:30.012
;MINY:27.534
;MINZ:0.2
;MAXX:205
;MAXY:205.105
;MAXZ:6.6
;POSTPROCESSED
;Generated with Cura_SteamEngine main
M140 S60
M105
M190 S60
M104 S205
M105
M109 S205
M82 ;absolute extrusion mode
; Script based on an original created by tjjfvi (https://github.com/tjjfvi)
; An up-to-date version of the tjjfvi's original script can be found
; here:  https://csi.t6.fyi/
; Note - This script will only work in Cura V4.2 and above!
; --- Global Settings
; layer_height = 0.2
; smooth_spiralized_contours = True
; magic_mesh_surface_mode = normal
; machine_extruder_count = 1
; --- Single Extruder Settings
; speed_z_hop = 5
; retraction_amount = 5.0
; retraction_hop = 0.2
; retraction_hop_enabled = False
; retraction_enable = True
; retraction_speed = 45.0
; retraction_retract_speed = 45.0
; retraction_prime_speed = 45.0
; speed_travel = 150.0

; Ender 3 Custom Start G-code
G92 E0 ; Reset Extruder
G28 ; Home all axes
M501 ;load bed level data
M420 S1 ;enable bed leveling
G1 Z2.0 F3000 ; Move Z Axis up little to prevent scratching of Heat Bed
G1 X1.0 Y20 Z0.3 F5000.0 ; Move to start position
G1 X1.0 Y200.0 Z0.3 F1500.0 E15 ; Draw the first line
G1 X1.3 Y200.0 Z0.3 F5000.0 ; Move to side a little
G1 X0.4 Y20 Z0.3 F1500.0 E30 ; Draw the second line
G92 E0 ; Reset Extruder
G1 Z2.0 F3000 ; Move Z Axis up little to prevent scratching of Heat Bed
G1 X5 Y20 Z0.3 F5000.0 ; Move over to prevent blob squish
G92 E0
G92 E0
G1 F2700 E-5
;LAYER_COUNT:33
;LAYER:0
M117 Printing CE3_4star_hanging - Layer 1 of 33
M107
M204 S500
M205 X12 Y12
G0 F6000 X60.516 Y33.1 Z0.2
G0 X58.934 Y38.712
;TYPE:SKIRT
G1 F2700 E0
G1 F1200 X58.986 Y37.774 E0.03117
G1 X59.117 Y36.843 E0.06236
G1 X59.327 Y35.927 E0.09354
G1 X59.671 Y34.869 E0.13045
G1 X60.074 Y33.929 E0.16438
G1 X60.516 Y33.1 E0.19555
G1 X61.026 Y32.31 E0.22675
G1 X61.602 Y31.568 E0.25791
G1 X62.24 Y30.876 E0.28914
G1 X62.933 Y30.242 E0.3203
G1 X63.678 Y29.669 E0.35148
G1 X64.671 Y29.039 E0.3905
G1 X65.623 Y28.549 E0.42602
G1 X66.493 Y28.192 E0.45722
G1 X67.39 Y27.911 E0.4884
G1 X68.307 Y27.706 E0.51958
G1 X69.239 Y27.58 E0.55078
G1 X70.178 Y27.534 E0.58197
G1 X71.117 Y27.568 E0.61315
G1 X72.05 Y27.682 E0.64433
G1 X72.97 Y27.874 E0.67551
G1 X73.871 Y28.144 E0.70672
G1 X74.745 Y28.49 E0.7379
G1 X75.282 Y28.746 E0.75764
G1 X76.33 Y29.283 E0.79671
G1 X77.033 Y29.655 E0.82309
G1 X79.297 Y30.771 E0.90684
G1 X81.6 Y31.827 E0.99089
G1 X83.885 Y32.796 E1.07324
G1 X86.259 Y33.726 E1.15783
G1 X88.603 Y34.568 E1.24046
G1 X90.991 Y35.35 E1.32383
G1 X93.42 Y36.071 E1.40789
G1 X95.834 Y36.713 E1.49076
G1 X98.292 Y37.294 E1.57456
G1 X100.765 Y37.803 E1.65832
G1 X103.251 Y38.243 E1.74208
G1 X105.691 Y38.605 E1.82392
G1 X108.215 Y38.905 E1.90825
G1 X110.726 Y39.133 E1.9919
G1 X113.225 Y39.288 E2.07497
G1 X115.753 Y39.374 E2.15889
G1 X118.273 Y39.387 E2.2425
G1 X120.761 Y39.331 E2.32506
G1 X123.299 Y39.202 E2.40937
G1 X125.812 Y39.001 E2.49301
G1 X128.276 Y38.736 E2.57523
G1 X130.785 Y38.392 E2.65925
G1 X133.285 Y37.978 E2.74332
G1 X135.754 Y37.497 E2.82678
G1 X138.194 Y36.949 E2.90975
G1 X140.604 Y36.337 E2.99224
G1 X143.058 Y35.638 E3.0769
G1 X145.475 Y34.874 E3.161
G1 X147.824 Y34.06 E3.24347
G1 X150.171 Y33.173 E3.32672
G1 X152.499 Y32.214 E3.41025
G1 X154.813 Y31.184 E3.49428
G1 X157.045 Y30.114 E3.5764
G1 X158.294 Y29.462 E3.62315
G1 X158.529 Y29.352 E3.63176
G1 X159.704 Y28.751 E3.67554
G1 X160.559 Y28.359 E3.70675
G1 X161.443 Y28.041 E3.73792
G1 X162.352 Y27.799 E3.76912
G1 X163.277 Y27.636 E3.80029
G1 X164.214 Y27.551 E3.8315
G1 X165.154 Y27.547 E3.86269
G1 X166.091 Y27.622 E3.89387
G1 X167.018 Y27.777 E3.92506
G1 X167.928 Y28.01 E3.95622
G1 X168.816 Y28.32 E3.98743
G1 X169.589 Y28.659 E4.01543
G1 X170.424 Y29.09 E4.0466
G1 X171.22 Y29.59 E4.07779
G1 X171.971 Y30.156 E4.10899
G1 X172.67 Y30.783 E4.14014
G1 X173.314 Y31.468 E4.17134
G1 X173.898 Y32.205 E4.20253
G1 X174.416 Y32.989 E4.23371
G1 X174.866 Y33.815 E4.26492
G1 X175.245 Y34.675 E4.2961
G1 X175.654 Y35.926 E4.33976
G1 X175.884 Y36.961 E4.37494
G1 X176.009 Y37.893 E4.40614
G1 X176.054 Y38.832 E4.43733
G1 X176.019 Y39.771 E4.4685
G1 X175.908 Y40.685 E4.49905
G1 X175.432 Y43.581 E4.59642
G1 X175.099 Y46.066 E4.6796
G1 X174.832 Y48.59 E4.7638
G1 X174.642 Y51.065 E4.84616
G1 X174.52 Y53.58 E4.9297
G1 X174.469 Y56.102 E5.01339
G1 X174.49 Y58.623 E5.09703
G1 X174.582 Y61.152 E5.18099
G1 X174.743 Y63.646 E5.2639
G1 X174.976 Y66.145 E5.34717
G1 X175.28 Y68.641 E5.43059
G1 X175.658 Y71.147 E5.51468
G1 X176.099 Y73.607 E5.59759
G1 X176.607 Y76.039 E5.68002
G1 X177.205 Y78.541 E5.76537
G1 X177.856 Y80.964 E5.84861
G1 X178.566 Y83.338 E5.93082
G1 X179.366 Y85.754 E6.01525
G1 X180.223 Y88.122 E6.0988
G1 X181.147 Y90.463 E6.1823
G1 X182.125 Y92.752 E6.26488
G1 X183.187 Y95.051 E6.3489
G1 X184.314 Y97.325 E6.4331
G1 X185.487 Y99.53 E6.51597
G1 X186.73 Y101.715 E6.59937
G1 X188.021 Y103.841 E6.68189
G1 X189.418 Y106.002 E6.76726
G1 X190.813 Y108.032 E6.84898
G1 X192.301 Y110.073 E6.93278
G1 X193.86 Y112.087 E7.01728
G1 X195.44 Y114.015 E7.09998
G1 X197.096 Y115.919 E7.1837
G1 X198.79 Y117.763 E7.26677
G1 X200.592 Y119.616 E7.35252
G1 X201.718 Y120.732 E7.40512
G1 X202.357 Y121.422 E7.43632
G1 X202.934 Y122.163 E7.46748
G1 X203.447 Y122.951 E7.49868
G1 X203.891 Y123.78 E7.52988
G1 X204.263 Y124.643 E7.56105
G1 X204.56 Y125.535 E7.59224
G1 X204.78 Y126.449 E7.62343
G1 X204.969 Y127.862 E7.67073
G1 X205 Y128.916 E7.70571
G1 X204.948 Y129.855 E7.73692
G1 X204.816 Y130.785 E7.76808
G1 X204.606 Y131.702 E7.79929
G1 X204.318 Y132.597 E7.83048
G1 X203.955 Y133.464 E7.86167
G1 X203.52 Y134.297 E7.89285
G1 X203.016 Y135.09 E7.92402
G1 X202.446 Y135.838 E7.95522
G1 X201.815 Y136.535 E7.98641
G1 X201.195 Y137.12 E8.01469
G1 X200.472 Y137.722 E8.04591
G1 X199.702 Y138.26 E8.07707
G1 X198.888 Y138.731 E8.10827
G1 X198.038 Y139.131 E8.13944
G1 X197.156 Y139.457 E8.17064
G1 X196.158 Y139.728 E8.20495
G1 X195.535 Y139.865 E8.22611
G1 X193.825 Y140.214 E8.28401
G1 X191.369 Y140.789 E8.3677
G1 X188.971 Y141.423 E8.44999
G1 X186.524 Y142.143 E8.53461
G1 X184.147 Y142.918 E8.61756
G1 X181.795 Y143.757 E8.70041
G1 X179.431 Y144.677 E8.78457
G1 X177.115 Y145.655 E8.86798
G1 X174.86 Y146.685 E8.95023
G1 X172.547 Y147.819 E9.03569
G1 X170.364 Y148.968 E9.11754
G1 X168.153 Y150.213 E9.20172
G1 X165.962 Y151.529 E9.28652
G1 X163.89 Y152.855 E9.36813
G1 X161.795 Y154.282 E9.45223
G1 X159.753 Y155.756 E9.53578
G1 X157.745 Y157.298 E9.61978
G1 X155.825 Y158.857 E9.70183
G1 X153.895 Y160.518 E9.78631
G1 X152.055 Y162.195 E9.86891
G1 X150.216 Y163.968 E9.95366
G1 X148.476 Y165.745 E10.03617
G1 X146.756 Y167.601 E10.12012
G1 X145.096 Y169.501 E10.20383
G1 X143.51 Y171.421 E10.28645
G1 X141.958 Y173.414 E10.37026
G1 X140.473 Y175.433 E10.45341
G1 X139.033 Y177.514 E10.53737
G1 X137.648 Y179.639 E10.62152
G1 X136.347 Y181.767 E10.70427
G1 X135.098 Y183.946 E10.7876
G1 X133.913 Y186.155 E10.87077
G1 X132.778 Y188.422 E10.95488
G1 X131.72 Y190.695 E11.03806
G1 X130.733 Y192.985 E11.12079
G1 X129.8 Y195.325 E11.20437
G1 X129.38 Y196.49 E11.24545
G1 X129.28 Y196.735 E11.25423
G1 X128.858 Y197.876 E11.29459
G1 X128.495 Y198.743 E11.32578
G1 X128.059 Y199.576 E11.35697
G1 X127.554 Y200.369 E11.38816
G1 X126.984 Y201.116 E11.41934
G1 X126.352 Y201.812 E11.45053
G1 X125.664 Y202.452 E11.4817
G1 X124.923 Y203.031 E11.5129
G1 X124.136 Y203.545 E11.54409
G1 X123.308 Y203.991 E11.57529
G1 X122.446 Y204.364 E11.60645
G1 X121.554 Y204.662 E11.63765
G1 X120.641 Y204.884 E11.66882
G1 X119.712 Y205.028 E11.70001
G1 X118.835 Y205.09 E11.72918
G1 X118.17 Y205.105 E11.75125
G1 X117.049 Y205.104 E11.78844
G1 X116.35 Y205.094 E11.81164
G1 X115.411 Y205.04 E11.84284
G1 X114.481 Y204.907 E11.87401
G1 X113.565 Y204.696 E11.9052
G1 X112.67 Y204.407 E11.9364
G1 X111.804 Y204.044 E11.96755
G1 X110.971 Y203.608 E11.99874
G1 X110.178 Y203.102 E12.02995
G1 X109.431 Y202.532 E12.06113
G1 X108.736 Y201.899 E12.09232
G1 X108.096 Y201.21 E12.12352
G1 X107.518 Y200.47 E12.15467
G1 X107.004 Y199.682 E12.18588
G1 X106.559 Y198.854 E12.21707
G1 X106.139 Y197.865 E12.25272
G1 X105.107 Y195.064 E12.35175
G1 X104.184 Y192.771 E12.43376
G1 X103.164 Y190.429 E12.51851
G1 X102.106 Y188.174 E12.60115
G1 X100.966 Y185.916 E12.68507
G1 X99.776 Y183.716 E12.76805
G1 X98.508 Y181.519 E12.85221
G1 X97.193 Y179.385 E12.93537
G1 X95.828 Y177.303 E13.01797
G1 X94.36 Y175.198 E13.10311
G1 X92.893 Y173.215 E13.18495
G1 X91.317 Y171.207 E13.26963
G1 X89.713 Y169.277 E13.35289
G1 X88.059 Y167.399 E13.43592
G1 X86.349 Y165.562 E13.51918
G1 X84.58 Y163.769 E13.60275
G1 X82.749 Y162.016 E13.68685
G1 X80.886 Y160.329 E13.77023
G1 X78.969 Y158.69 E13.85391
G1 X77.028 Y157.122 E13.93669
G1 X75.023 Y155.596 E14.02029
G1 X72.974 Y154.125 E14.10397
G1 X70.893 Y152.718 E14.18731
G1 X68.777 Y151.374 E14.27048
G1 X66.6 Y150.076 E14.35457
G1 X64.41 Y148.852 E14.43781
G1 X62.191 Y147.693 E14.52086
G1 X59.931 Y146.593 E14.60425
G1 X57.636 Y145.556 E14.68781
G1 X55.295 Y144.576 E14.772
G1 X52.935 Y143.666 E14.85592
G1 X50.574 Y142.832 E14.93899
G1 X48.21 Y142.071 E15.02139
G1 X45.764 Y141.359 E15.10591
G1 X43.361 Y140.733 E15.18829
G1 X40.898 Y140.164 E15.27216
G1 X39.85 Y139.954 E15.30762
G1 X38.877 Y139.745 E15.34064
G1 X37.967 Y139.508 E15.37184
G1 X37.081 Y139.195 E15.40301
G1 X36.225 Y138.808 E15.43418
G1 X35.404 Y138.349 E15.46538
G1 X34.243 Y137.529 E15.51254
G1 X33.468 Y136.853 E15.54666
G1 X32.816 Y136.176 E15.57784
G1 X32.223 Y135.447 E15.60902
G1 X31.694 Y134.669 E15.64023
G1 X31.234 Y133.85 E15.6714
G1 X30.845 Y132.994 E15.70259
G1 X30.529 Y132.109 E15.73377
G1 X30.291 Y131.199 E15.76498
G1 X30.113 Y130.134 E15.8008
G1 X30.082 Y129.869 E15.80965
G1 X30.012 Y128.931 E15.84086
G1 X30.023 Y127.992 E15.87201
G1 X30.113 Y127.056 E15.90321
G1 X30.283 Y126.131 E15.93441
G1 X30.53 Y125.224 E15.9656
G1 X30.854 Y124.342 E15.99678
G1 X31.252 Y123.49 E16.02797
G1 X31.72 Y122.675 E16.05915
G1 X32.256 Y121.903 E16.09034
G1 X32.856 Y121.179 E16.12153
G1 X33.239 Y120.775 E16.14
G1 X34.222 Y119.791 E16.18615
G1 X34.65 Y119.373 E16.20599
G1 X36.405 Y117.557 E16.28978
G1 X38.093 Y115.709 E16.37282
G1 X39.752 Y113.787 E16.45706
G1 X41.322 Y111.86 E16.53952
G1 X42.869 Y109.844 E16.62383
G1 X44.345 Y107.807 E16.70729
G1 X45.757 Y105.738 E16.79039
G1 X47.107 Y103.633 E16.87336
G1 X48.415 Y101.461 E16.95747
G1 X49.648 Y99.277 E17.04068
G1 X50.827 Y97.042 E17.12452
G1 X51.931 Y94.799 E17.20746
G1 X52.971 Y92.525 E17.29042
G1 X53.965 Y90.177 E17.37501
G1 X54.878 Y87.841 E17.45822
G1 X55.727 Y85.472 E17.54171
G1 X56.508 Y83.083 E17.6251
G1 X57.217 Y80.683 E17.70813
G1 X57.863 Y78.248 E17.79171
G1 X58.451 Y75.749 E17.87688
G1 X58.948 Y73.328 E17.95888
G1 X59.381 Y70.87 E18.04168
G1 X59.753 Y68.34 E18.12652
G1 X60.044 Y65.881 E18.20868
G1 X60.273 Y63.334 E18.29352
G1 X60.425 Y60.855 E18.37592
G1 X60.508 Y58.336 E18.45954
G1 X60.52 Y55.813 E18.54324
G1 X60.461 Y53.294 E18.62684
G1 X60.331 Y50.802 E18.70963
G1 X60.127 Y48.26 E18.79424
G1 X59.86 Y45.804 E18.8762
G1 X59.516 Y43.306 E18.95986
G1 X59.313 Y42.115 E18.99994
G1 X59.07 Y40.586 E19.0513
G1 X58.962 Y39.652 E19.0825
G1 X58.934 Y38.712 E19.1137
G0 F6000 X59.354 Y38.682
G1 F1200 X59.409 Y37.762 E19.14428
G1 X59.543 Y36.85 E19.17486
G1 X59.756 Y35.953 E19.20545
G1 X60.066 Y35.014 E19.23825
G1 X60.46 Y34.095 E19.27143
G1 X60.896 Y33.282 E19.30203
G1 X61.4 Y32.51 E19.33262
G1 X61.969 Y31.785 E19.3632
G1 X62.599 Y31.112 E19.39378
G1 X63.285 Y30.496 E19.42437
G1 X64.021 Y29.941 E19.45495
G1 X64.888 Y29.399 E19.48888
G1 X65.815 Y28.923 E19.52345
G1 X66.669 Y28.575 E19.55404
G1 X67.55 Y28.303 E19.58463
G1 X68.451 Y28.107 E19.61523
G1 X69.365 Y27.991 E19.64579
G1 X70.287 Y27.954 E19.67641
G1 X71.208 Y27.997 E19.707
G1 X72.121 Y28.12 E19.73756
G1 X73.021 Y28.322 E19.76816
G1 X73.9 Y28.6 E19.79875
G1 X75.09 Y29.12 E19.84183
G1 X76.134 Y29.655 E19.88075
G1 X76.839 Y30.028 E19.90721
G1 X79.109 Y31.147 E19.99118
G1 X81.405 Y32.2 E20.07498
G1 X83.742 Y33.191 E20.1592
G1 X86.107 Y34.117 E20.24346
G1 X88.473 Y34.968 E20.32688
G1 X90.875 Y35.753 E20.41072
G1 X93.304 Y36.475 E20.49479
G1 X95.739 Y37.122 E20.57838
G1 X98.179 Y37.699 E20.66157
G1 X100.71 Y38.22 E20.7473
G1 X103.151 Y38.652 E20.82954
G1 X105.653 Y39.023 E20.91346
G1 X108.198 Y39.326 E20.99849
G1 X110.663 Y39.55 E21.08061
G1 X113.22 Y39.708 E21.16561
G1 X115.737 Y39.794 E21.24916
G1 X118.28 Y39.807 E21.33353
G1 X120.792 Y39.75 E21.41689
G1 X123.318 Y39.622 E21.50081
G1 X125.819 Y39.422 E21.58405
G1 X128.343 Y39.15 E21.66827
G1 X130.877 Y38.803 E21.75312
G1 X133.332 Y38.397 E21.83568
G1 X135.851 Y37.906 E21.92083
G1 X138.279 Y37.361 E22.00338
G1 X140.73 Y36.739 E22.08728
G1 X143.179 Y36.041 E22.17176
G1 X145.595 Y35.277 E22.25583
G1 X147.966 Y34.455 E22.33909
G1 X150.317 Y33.566 E22.42248
G1 X152.673 Y32.597 E22.507
G1 X155.005 Y31.558 E22.5917
G1 X157.209 Y30.501 E22.67279
G1 X158.488 Y29.834 E22.72065
G1 X158.735 Y29.718 E22.7297
G1 X159.896 Y29.125 E22.77295
G1 X160.734 Y28.741 E22.80354
G1 X161.602 Y28.431 E22.83412
G1 X162.494 Y28.198 E22.8647
G1 X163.403 Y28.043 E22.8953
G1 X164.322 Y27.967 E22.92589
G1 X165.244 Y27.971 E22.95648
G1 X166.162 Y28.055 E22.98706
G1 X167.069 Y28.218 E23.01764
G1 X167.959 Y28.46 E23.04824
G1 X169.288 Y28.976 E23.09554
G1 X170.231 Y29.463 E23.13075
G1 X171.011 Y29.956 E23.16136
G1 X171.745 Y30.514 E23.19195
G1 X172.427 Y31.133 E23.22251
G1 X173.054 Y31.81 E23.25312
G1 X173.619 Y32.538 E23.28369
G1 X174.12 Y33.312 E23.31428
G1 X174.551 Y34.127 E23.34487
G1 X174.91 Y34.976 E23.37545
G1 X175.25 Y36.043 E23.41261
G1 X175.473 Y37.052 E23.44689
G1 X175.593 Y37.966 E23.47747
G1 X175.634 Y38.887 E23.50806
G1 X175.595 Y39.808 E23.53864
G1 X175.493 Y40.617 E23.5657
G1 X175.021 Y43.493 E23.66239
G1 X174.68 Y46.036 E23.74751
G1 X174.418 Y48.514 E23.83018
G1 X174.223 Y51.047 E23.91447
G1 X174.1 Y53.587 E23.99884
G1 X174.049 Y56.097 E24.08213
G1 X174.07 Y58.641 E24.16654
G1 X174.162 Y61.159 E24.25013
G1 X174.324 Y63.68 E24.33394
G1 X174.559 Y66.197 E24.41781
G1 X174.867 Y68.72 E24.50214
G1 X175.237 Y71.18 E24.58467
G1 X175.688 Y73.692 E24.66935
G1 X176.202 Y76.154 E24.75279
G1 X176.795 Y78.637 E24.83748
G1 X177.444 Y81.05 E24.92038
G1 X178.174 Y83.489 E25.00485
G1 X178.967 Y85.886 E25.08861
G1 X179.832 Y88.275 E25.17291
G1 X180.752 Y90.608 E25.25611
G1 X181.753 Y92.949 E25.34058
G1 X182.811 Y95.241 E25.42433
G1 X183.928 Y97.494 E25.50776
G1 X185.113 Y99.721 E25.59146
G1 X186.375 Y101.939 E25.67612
G1 X187.669 Y104.071 E25.75886
G1 X189.052 Y106.211 E25.8434
G1 X190.484 Y108.294 E25.92726
G1 X191.978 Y110.342 E26.01137
G1 X193.517 Y112.331 E26.0948
G1 X195.113 Y114.277 E26.1783
G1 X196.801 Y116.22 E26.26369
G1 X198.476 Y118.042 E26.3458
G1 X200.293 Y119.91 E26.43226
G1 X201.422 Y121.03 E26.48502
G1 X202.048 Y121.707 E26.51561
G1 X202.613 Y122.436 E26.54621
G1 X203.112 Y123.211 E26.5768
G1 X203.543 Y124.026 E26.60738
G1 X203.901 Y124.875 E26.63795
G1 X204.185 Y125.753 E26.66857
G1 X204.391 Y126.651 E26.69913
G1 X204.55 Y127.898 E26.74084
G1 X204.58 Y128.928 E26.77503
G1 X204.526 Y129.849 E26.80564
G1 X204.393 Y130.761 E26.83621
G1 X204.182 Y131.658 E26.86679
G1 X203.893 Y132.534 E26.89739
G1 X203.53 Y133.381 E26.92796
G1 X203.094 Y134.194 E26.95857
G1 X202.59 Y134.966 E26.98916
G1 X202.021 Y135.691 E27.01973
G1 X201.026 Y136.714 E27.06708
G1 X200.204 Y137.399 E27.10258
G1 X199.446 Y137.925 E27.13319
G1 X198.646 Y138.383 E27.16377
G1 X197.81 Y138.771 E27.19435
G1 X196.943 Y139.084 E27.22493
G1 X196.067 Y139.318 E27.25501
G1 X195.451 Y139.453 E27.27594
G1 X193.747 Y139.801 E27.33364
G1 X191.277 Y140.38 E27.4178
G1 X188.856 Y141.019 E27.50088
G1 X186.409 Y141.739 E27.5855
G1 X184.019 Y142.518 E27.6689
G1 X181.602 Y143.381 E27.75405
G1 X179.301 Y144.276 E27.83596
G1 X176.951 Y145.268 E27.92059
G1 X174.674 Y146.308 E28.00364
G1 X172.355 Y147.446 E28.08934
G1 X170.164 Y148.599 E28.17148
G1 X167.904 Y149.871 E28.25752
G1 X165.802 Y151.134 E28.33888
G1 X163.62 Y152.53 E28.42482
G1 X161.578 Y153.921 E28.50679
G1 X159.492 Y155.427 E28.59215
G1 X157.482 Y156.97 E28.67622
