;FLAVOR:Marlin
;TIME:19024
;Filament used: 16.678m
;Layer height: 0.2
;MINX:5.953
;MINY:25.486
;MINZ:0.2
;MAXX:229.05
;MAXY:209.514
;MAXZ:4
;POSTPROCESSED
;Generated with Cura_SteamEngine main
M140 S60
M105
M190 S60
M104 S205
M105
M109 S205
M82 ;absolute extrusion mode
; Script based on an original created by tjjfvi (https://github.com/tjjfvi)
; An up-to-date version of the tjjfvi's original script can be found
; here:  https://csi.t6.fyi/
; Note - This script will only work in Cura V4.2 and above!
; --- Global Settings
; layer_height = 0.2
; smooth_spiralized_contours = True
; magic_mesh_surface_mode = normal
; machine_extruder_count = 1
; --- Single Extruder Settings
; speed_z_hop = 5
; retraction_amount = 5.0
; retraction_hop = 0.2
; retraction_hop_enabled = False
; retraction_enable = True
; retraction_speed = 45.0
; retraction_retract_speed = 45.0
; retraction_prime_speed = 45.0
; speed_travel = 150.0

; Ender 3 Custom Start G-code
G92 E0 ; Reset Extruder
G28 ; Home all axes
M501 ;load bed level data
M420 S1 ;enable bed leveling
G1 Z2.0 F3000 ; Move Z Axis up little to prevent scratching of Heat Bed
G1 X1.0 Y20 Z0.3 F5000.0 ; Move to start position
G1 X1.0 Y200.0 Z0.3 F1500.0 E15 ; Draw the first line
G1 X1.3 Y200.0 Z0.3 F5000.0 ; Move to side a little
G1 X0.4 Y20 Z0.3 F1500.0 E30 ; Draw the second line
G92 E0 ; Reset Extruder
G1 Z2.0 F3000 ; Move Z Axis up little to prevent scratching of Heat Bed
G1 X5 Y20 Z0.3 F5000.0 ; Move over to prevent blob squish
G92 E0
G92 E0
G1 F2700 E-5
;LAYER_COUNT:20
;LAYER:0
M117 Printing bottom - Layer 1 of 20
M107
M204 S500
M205 X12 Y12
G0 F6000 X51.281 Y31.813 Z0.2
G0 X49.368 Y38.758
;TYPE:SKIRT
G1 F2700 E0
G1 F1200 X49.37 Y37.971 E0.02611
G1 X49.448 Y36.933 E0.06065
G1 X49.598 Y36.005 E0.09183
G1 X49.779 Y35.244 E0.11779
G1 X50.05 Y34.343 E0.149
G1 X50.396 Y33.47 E0.18016
G1 X50.686 Y32.87 E0.20227
G1 X50.812 Y32.628 E0.21132
G1 X51.281 Y31.813 E0.24251
G1 X51.818 Y31.042 E0.27369
G1 X52.333 Y30.414 E0.30063
G1 X52.523 Y30.199 E0.31015
G1 X53.175 Y29.521 E0.34136
G1 X53.882 Y28.902 E0.37253
G1 X54.437 Y28.484 E0.39559
G1 X54.647 Y28.336 E0.40411
G1 X55.438 Y27.827 E0.43532
G1 X56.269 Y27.388 E0.4665
G1 X56.997 Y27.074 E0.4928
G1 X57.261 Y26.971 E0.5022
G1 X58.15 Y26.667 E0.53337
G1 X59.062 Y26.439 E0.56456
G1 X59.708 Y26.327 E0.58631
G1 X59.959 Y26.291 E0.59473
G1 X61.333 Y26.181 E0.64046
G1 X62.435 Y26.163 E0.67702
G1 X132.641 Y26.164 E3.00625
G1 X135.246 Y26.127 E3.09268
G1 X137.765 Y26.02 E3.17633
G1 X140.258 Y25.844 E3.25925
G1 X142.247 Y25.653 E3.32554
G1 X143.075 Y25.565 E3.35316
G1 X144.044 Y25.505 E3.38537
G1 X145.183 Y25.486 E3.42317
G1 X177.525 Y25.49 E4.49618
G1 X179.35 Y25.516 E4.55673
G1 X181.958 Y25.516 E4.64326
G1 X183.164 Y25.491 E4.68328
G1 X216.315 Y25.488 E5.78313
G1 X216.997 Y25.498 E5.80576
G1 X218.072 Y25.56 E5.84148
G1 X219.125 Y25.713 E5.87678
G1 X220.041 Y25.925 E5.90798
G1 X220.683 Y26.125 E5.93029
G1 X220.976 Y26.226 E5.94057
G1 X221.851 Y26.57 E5.97176
G1 X222.693 Y26.987 E6.00293
G1 X223.373 Y27.393 E6.02921
G1 X223.619 Y27.552 E6.03893
G1 X224.386 Y28.095 E6.07011
G1 X225.104 Y28.702 E6.1013
G1 X225.868 Y29.468 E6.13719
G1 X226.546 Y30.279 E6.17226
G1 X227.327 Y31.446 E6.21885
G1 X227.459 Y31.673 E6.22756
G1 X227.897 Y32.505 E6.25876
G1 X228.262 Y33.371 E6.28994
G1 X228.51 Y34.116 E6.31599
G1 X228.596 Y34.409 E6.32612
G1 X228.822 Y35.321 E6.35729
G1 X228.97 Y36.25 E6.3885
G1 X229.029 Y36.961 E6.41217
G1 X229.043 Y37.237 E6.42134
G1 X229.05 Y38.177 E6.45253
G1 X228.978 Y39.114 E6.4837
G1 X228.821 Y40.069 E6.51581
G1 X228.767 Y40.326 E6.52453
G1 X228.535 Y41.237 E6.55572
G1 X228.277 Y41.993 E6.58222
G1 X228.015 Y42.679 E6.60658
G1 X227.112 Y45.145 E6.69371
G1 X226.31 Y47.542 E6.77757
G1 X225.584 Y49.935 E6.86053
G1 X224.923 Y52.357 E6.94383
G1 X224.332 Y54.794 E7.02702
G1 X223.799 Y57.303 E7.11212
G1 X223.349 Y59.753 E7.19476
G1 X222.966 Y62.232 E7.27798
G1 X222.65 Y64.758 E7.36244
G1 X222.4 Y67.232 E7.44494
G1 X222.314 Y67.916 E7.46781
G1 X222.157 Y68.843 E7.49901
G1 X221.922 Y69.753 E7.53019
G1 X221.746 Y70.282 E7.54868
G1 X220.908 Y72.609 E7.63074
G1 X220.123 Y74.994 E7.71404
G1 X219.399 Y77.425 E7.7982
G1 X218.756 Y79.831 E7.88082
G1 X218.164 Y82.328 E7.96596
G1 X217.664 Y84.736 E8.04756
G1 X217.219 Y87.232 E8.13167
G1 X216.848 Y89.72 E8.21513
G1 X216.52 Y92.462 E8.30675
G1 X216.371 Y93.884 E8.35418
G1 X216.234 Y94.814 E8.38537
G1 X216.018 Y95.729 E8.41656
G1 X215.767 Y96.509 E8.44375
G1 X215.055 Y98.468 E8.5129
G1 X214.268 Y100.82 E8.59519
G1 X213.536 Y103.24 E8.67907
G1 X212.868 Y105.69 E8.76332
G1 X212.273 Y108.145 E8.84713
G1 X211.759 Y110.563 E8.92914
G1 X211.302 Y113.051 E9.01306
G1 X210.918 Y115.542 E9.09668
G1 X210.631 Y117.773 E9.17131
G1 X210.527 Y118.422 E9.19312
G1 X210.442 Y118.87 E9.20825
G1 X210.228 Y119.785 E9.23942
G1 X209.937 Y120.679 E9.27062
G1 X209.597 Y121.487 E9.2997
G1 X208.318 Y124.224 E9.39993
G1 X207.315 Y126.529 E9.48333
G1 X206.363 Y128.901 E9.56813
G1 X205.511 Y131.208 E9.64972
G1 X204.688 Y133.645 E9.73506
G1 X203.971 Y135.987 E9.81632
G1 X203.284 Y138.478 E9.90205
G1 X202.7 Y140.859 E9.98338
G1 X202.157 Y143.379 E10.06891
G1 X201.7 Y145.83 E10.15163
G1 X201.313 Y148.299 E10.23454
G1 X200.97 Y150.984 E10.32434
G1 X200.831 Y152.208 E10.36521
G1 X200.685 Y153.136 E10.39638
G1 X200.461 Y154.049 E10.42757
G1 X200.161 Y154.94 E10.45876
G1 X199.785 Y155.802 E10.48996
G1 X199.356 Y156.599 E10.51999
G1 X198.693 Y157.716 E10.56309
G1 X197.411 Y159.947 E10.64845
G1 X196.224 Y162.155 E10.73162
G1 X195.101 Y164.393 E10.8147
G1 X194.033 Y166.68 E10.89844
G1 X193.031 Y168.997 E10.98219
G1 X192.086 Y171.362 E11.06669
G1 X191.227 Y173.701 E11.14935
G1 X190.425 Y176.093 E11.23306
G1 X189.704 Y178.461 E11.31518
G1 X189.031 Y180.921 E11.39979
G1 X188.44 Y183.348 E11.48267
G1 X187.904 Y185.862 E11.56795
G1 X187.46 Y188.266 E11.64906
G1 X187.073 Y190.769 E11.73308
G1 X186.755 Y193.277 E11.81696
G1 X186.51 Y195.786 E11.90059
G1 X186.334 Y198.237 E11.98212
G1 X186.226 Y199.171 E12.01331
G1 X186.014 Y200.194 E12.04798
G1 X185.949 Y200.447 E12.05664
G1 X185.677 Y201.346 E12.0878
G1 X185.329 Y202.22 E12.11901
G1 X185.041 Y202.813 E12.14089
G1 X184.901 Y203.081 E12.15092
G1 X184.431 Y203.895 E12.1821
G1 X183.893 Y204.666 E12.21329
G1 X183.411 Y205.255 E12.23854
G1 X183.224 Y205.468 E12.24795
G1 X182.574 Y206.148 E12.27916
G1 X181.869 Y206.769 E12.31033
G1 X181.004 Y207.409 E12.34603
G1 X180.103 Y207.962 E12.3811
G1 X179.263 Y208.384 E12.41229
G1 X178.465 Y208.71 E12.44089
G1 X177.575 Y209.013 E12.47208
G1 X176.663 Y209.239 E12.50325
G1 X176.035 Y209.348 E12.5244
G1 X175.778 Y209.385 E12.53301
G1 X174.398 Y209.496 E12.57894
G1 X173.296 Y209.514 E12.61551
G1 X140.955 Y209.51 E13.68849
G1 X139.13 Y209.484 E13.74904
G1 X136.522 Y209.484 E13.83557
G1 X135.316 Y209.509 E13.87559
G1 X102.164 Y209.512 E14.97547
G1 X101.482 Y209.502 E14.9981
G1 X100.407 Y209.44 E15.03382
G1 X99.354 Y209.287 E15.06913
G1 X98.438 Y209.075 E15.10032
G1 X97.775 Y208.867 E15.12337
G1 X97.085 Y208.625 E15.14763
G1 X94.642 Y207.718 E15.23409
G1 X92.249 Y206.906 E15.31793
G1 X89.858 Y206.168 E15.40095
G1 X87.418 Y205.492 E15.48495
G1 X84.929 Y204.879 E15.56999
G1 X82.523 Y204.355 E15.65169
G1 X80.063 Y203.893 E15.73473
G1 X77.551 Y203.495 E15.81911
G1 X75.071 Y203.173 E15.90208
G1 X72.557 Y202.918 E15.98591
G1 X70.042 Y202.736 E16.06957
G1 X67.56 Y202.626 E16.152
G1 X64.767 Y202.584 E16.24467
G1 X18.68 Y202.582 E17.7737
G1 X18.008 Y202.572 E17.796
G1 X17.06 Y202.517 E17.8275
G1 X16.793 Y202.49 E17.83641
G1 X15.863 Y202.356 E17.86758
G1 X14.947 Y202.143 E17.89878
G1 X14.314 Y201.946 E17.92078
G1 X14.055 Y201.857 E17.92986
G1 X13.18 Y201.514 E17.96104
G1 X12.337 Y201.098 E17.99223
G1 X11.689 Y200.714 E18.01722
G1 X11.414 Y200.538 E18.02805
G1 X10.645 Y199.998 E18.05923
G1 X9.924 Y199.395 E18.09041
G1 X9.112 Y198.581 E18.12856
G1 X8.438 Y197.77 E18.16354
G1 X7.665 Y196.611 E18.20976
G1 X7.534 Y196.385 E18.21843
G1 X7.098 Y195.553 E18.24959
G1 X6.734 Y194.686 E18.28079
G1 X6.492 Y193.958 E18.30624
G1 X6.403 Y193.655 E18.31672
G1 X6.177 Y192.743 E18.34789
G1 X6.029 Y191.815 E18.37907
G1 X5.964 Y190.975 E18.40702
G1 X5.953 Y190.695 E18.41632
G1 X5.956 Y189.755 E18.4475
G1 X6.039 Y188.818 E18.47871
G1 X6.194 Y187.925 E18.50878
G1 X6.247 Y187.68 E18.5171
G1 X6.484 Y186.77 E18.5483
G1 X6.723 Y186.077 E18.57262
G1 X6.985 Y185.391 E18.59698
G1 X7.888 Y182.925 E18.68411
G1 X8.69 Y180.528 E18.76797
G1 X9.416 Y178.135 E18.85093
G1 X10.08 Y175.701 E18.93464
G1 X10.668 Y173.276 E19.01742
G1 X11.201 Y170.767 E19.10252
G1 X11.651 Y168.317 E19.18516
G1 X12.034 Y165.838 E19.26838
G1 X12.35 Y163.312 E19.35284
G1 X12.6 Y160.838 E19.43534
G1 X12.686 Y160.154 E19.45821
G1 X12.843 Y159.227 E19.48941
G1 X13.078 Y158.317 E19.52059
G1 X13.254 Y157.788 E19.53908
G1 X14.092 Y155.461 E19.62114
G1 X14.877 Y153.076 E19.70444
G1 X15.601 Y150.645 E19.7886
G1 X16.244 Y148.239 E19.87122
G1 X16.836 Y145.742 E19.95636
G1 X17.336 Y143.334 E20.03796
G1 X17.781 Y140.838 E20.12207
G1 X18.152 Y138.349 E20.20556
G1 X18.476 Y135.648 E20.29581
G1 X18.629 Y134.184 E20.34465
G1 X18.767 Y133.255 E20.37581
G1 X18.983 Y132.34 E20.407
G1 X19.235 Y131.557 E20.43429
G1 X19.923 Y129.666 E20.50105
G1 X20.722 Y127.28 E20.58453
G1 X21.452 Y124.878 E20.66782
G1 X22.12 Y122.43 E20.75201
G1 X22.714 Y119.985 E20.83549
G1 X23.24 Y117.519 E20.91914
G1 X23.691 Y115.061 E21.00205
G1 X24.073 Y112.589 E21.08504
G1 X24.372 Y110.282 E21.16222
G1 X24.476 Y109.635 E21.18396
G1 X24.574 Y109.12 E21.20135
G1 X24.789 Y108.205 E21.23254
G1 X25.08 Y107.312 E21.2637
G1 X25.447 Y106.446 E21.2949
G1 X25.953 Y105.502 E21.33044
G1 X26.638 Y104.363 E21.37453
G1 X35.878 Y89.578 E21.95297
G1 X37.22 Y87.361 E22.03895
G1 X38.456 Y85.184 E22.122
G1 X39.643 Y82.947 E22.20602
G1 X40.741 Y80.726 E22.28822
G1 X41.803 Y78.421 E22.37242
G1 X42.785 Y76.114 E22.4556
G1 X43.713 Y73.756 E22.53967
G1 X44.569 Y71.384 E22.62334
G1 X45.353 Y69.005 E22.70644
G1 X46.061 Y66.628 E22.78873
G1 X46.725 Y64.153 E22.87374
G1 X47.311 Y61.68 E22.95806
G1 X47.812 Y59.273 E23.03963
G1 X48.258 Y56.772 E23.12392
G1 X48.631 Y54.285 E23.20735
G1 X48.928 Y51.823 E23.28962
G1 X49.161 Y49.287 E23.37412
G1 X49.322 Y46.76 E23.45812
G1 X49.41 Y44.277 E23.54055
G1 X49.427 Y41.725 E23.62522
G1 X49.4 Y40.014 E23.682
G1 X49.368 Y38.758 E23.72368
G0 F6000 X49.787 Y38.748
G1 F1200 X49.798 Y37.884 E23.75235
G1 X49.867 Y36.965 E23.78292
G1 X50.017 Y36.055 E23.81352
G1 X50.186 Y35.347 E23.83767
G1 X50.453 Y34.465 E23.86824
G1 X50.794 Y33.608 E23.89884
G1 X51.058 Y33.064 E23.91891
G1 X51.184 Y32.822 E23.92796
G1 X51.645 Y32.023 E23.95856
G1 X52.174 Y31.268 E23.98915
G1 X52.648 Y30.692 E24.0139
G1 X52.838 Y30.477 E24.02341
G1 X53.478 Y29.813 E24.05401
G1 X54.173 Y29.207 E24.0846
G1 X54.679 Y28.827 E24.1056
G1 X54.889 Y28.679 E24.11412
G1 X55.665 Y28.181 E24.14471
G1 X56.481 Y27.752 E24.1753
G1 X57.149 Y27.465 E24.19942
G1 X57.413 Y27.362 E24.20882
G1 X58.286 Y27.064 E24.23943
G1 X59.181 Y26.844 E24.27
G1 X60.019 Y26.707 E24.29817
G1 X61.341 Y26.601 E24.34218
G1 X62.435 Y26.583 E24.37848
G1 X132.647 Y26.584 E26.7079
G1 X135.27 Y26.547 E26.79493
G1 X137.778 Y26.44 E26.87821
G1 X140.286 Y26.263 E26.96163
G1 X142.319 Y26.068 E27.02939
G1 X143.12 Y25.983 E27.05611
G1 X144.051 Y25.925 E27.08706
G1 X145.183 Y25.906 E27.12462
G1 X177.519 Y25.91 E28.19743
G1 X179.344 Y25.936 E28.25799
G1 X181.967 Y25.936 E28.34501
G1 X183.173 Y25.911 E28.38503
G1 X216.309 Y25.908 E29.48438
G1 X216.991 Y25.918 E29.50701
G1 X218.03 Y25.978 E29.54154
G1 X219.065 Y26.129 E29.57624
G1 X219.962 Y26.34 E29.60681
G1 X220.546 Y26.522 E29.62711
G1 X220.839 Y26.623 E29.63739
G1 X221.697 Y26.961 E29.66798
G1 X222.522 Y27.372 E29.69856
G1 X223.145 Y27.745 E29.72265
G1 X223.391 Y27.904 E29.73237
G1 X224.143 Y28.438 E29.76297
G1 X224.846 Y29.035 E29.79357
G1 X225.559 Y29.754 E29.82716
G1 X226.223 Y30.549 E29.86153
G1 X226.964 Y31.657 E29.90575
G1 X227.096 Y31.884 E29.91447
G1 X227.525 Y32.701 E29.94508
G1 X227.881 Y33.551 E29.97565
G1 X228.107 Y34.234 E29.99952
G1 X228.193 Y34.527 E30.00965
G1 X228.414 Y35.422 E30.04024
G1 X228.556 Y36.333 E30.07083
G1 X228.609 Y36.982 E30.09243
G1 X228.623 Y37.258 E30.1016
G1 X228.63 Y38.18 E30.13219
G1 X228.557 Y39.099 E30.16278
G1 X228.41 Y39.983 E30.19251
G1 X228.356 Y40.24 E30.20122
G1 X228.127 Y41.133 E30.23181
G1 X227.885 Y41.844 E30.25672
G1 X227.587 Y42.625 E30.28446
G1 X226.713 Y45.011 E30.36876
G1 X225.915 Y47.398 E30.45226
G1 X225.182 Y49.813 E30.53599
G1 X224.514 Y52.261 E30.62018
G1 X223.921 Y54.71 E30.70378
G1 X223.388 Y57.216 E30.78878
G1 X222.935 Y59.682 E30.87196
G1 X222.549 Y62.185 E30.95599
G1 X222.238 Y64.664 E31.03888
G1 X222.014 Y66.909 E31.11373
G1 X221.897 Y67.864 E31.14565
G1 X221.742 Y68.773 E31.17624
G1 X221.51 Y69.665 E31.20682
G1 X221.351 Y70.14 E31.22344
G1 X220.508 Y72.479 E31.30593
G1 X219.716 Y74.886 E31.39
G1 X219.005 Y77.274 E31.47266
G1 X218.341 Y79.76 E31.55803
G1 X217.757 Y82.221 E31.64195
G1 X217.247 Y84.679 E31.72523
G1 X216.804 Y87.165 E31.80901
G1 X216.434 Y89.644 E31.89217
G1 X216.101 Y92.429 E31.98522
G1 X215.953 Y93.841 E32.03232
G1 X215.818 Y94.753 E32.06291
G1 X215.604 Y95.649 E32.09347
G1 X215.372 Y96.365 E32.11845
G1 X214.669 Y98.301 E32.18678
G1 X213.867 Y100.699 E32.27067
G1 X213.124 Y103.152 E32.3557
G1 X212.47 Y105.55 E32.43817
G1 X211.867 Y108.036 E32.52304
G1 X211.343 Y110.503 E32.60671
G1 X210.887 Y112.987 E32.6905
G1 X210.5 Y115.501 E32.77489
G1 X210.214 Y117.72 E32.84912
G1 X210.115 Y118.344 E32.87008
G1 X210.03 Y118.792 E32.88521
G1 X209.819 Y119.689 E32.91578
G1 X209.531 Y120.565 E32.94637
G1 X209.217 Y121.31 E32.9732
G1 X207.929 Y124.067 E33.07415
G1 X206.93 Y126.361 E33.15717
G1 X205.962 Y128.774 E33.24342
G1 X205.117 Y131.06 E33.32428
G1 X204.294 Y133.499 E33.40968
G1 X203.56 Y135.896 E33.49285
G1 X202.888 Y138.335 E33.57679
G1 X202.279 Y140.813 E33.66145
G1 X201.748 Y143.281 E33.7452
G1 X201.286 Y145.763 E33.82896
G1 X200.895 Y148.249 E33.91245
G1 X200.553 Y150.928 E34.00205
G1 X200.413 Y152.16 E34.04319
G1 X200.27 Y153.071 E34.07379
G1 X200.048 Y153.966 E34.10438
G1 X199.749 Y154.838 E34.13496
G1 X199.376 Y155.681 E34.16555
G1 X198.995 Y156.384 E34.19207
G1 X198.347 Y157.477 E34.23423
G1 X197.038 Y159.755 E34.3214
G1 X195.859 Y161.946 E34.40394
G1 X194.714 Y164.23 E34.48871
G1 X193.643 Y166.523 E34.57267
G1 X192.65 Y168.818 E34.65564
G1 X191.696 Y171.205 E34.74092
G1 X190.829 Y173.566 E34.82437
G1 X190.035 Y175.937 E34.90732
G1 X189.291 Y178.377 E34.99195
G1 X188.626 Y180.81 E35.07563
G1 X188.029 Y183.262 E35.15936
G1 X187.495 Y185.767 E35.24434
G1 X187.047 Y188.195 E35.32625
G1 X186.655 Y190.722 E35.41109
G1 X186.339 Y193.222 E35.49469
G1 X186.092 Y195.753 E35.57906
G1 X185.915 Y198.207 E35.66069
G1 X185.809 Y199.123 E35.69128
G1 X185.608 Y200.089 E35.72402
G1 X185.543 Y200.342 E35.73269
G1 X185.275 Y201.224 E35.76327
G1 X184.931 Y202.08 E35.79388
G1 X184.669 Y202.619 E35.81376
G1 X184.529 Y202.887 E35.82379
G1 X184.067 Y203.685 E35.85438
G1 X183.538 Y204.44 E35.88497
G1 X183.095 Y204.978 E35.90809
G1 X182.908 Y205.191 E35.91749
G1 X182.271 Y205.857 E35.94807
G1 X181.578 Y206.465 E35.97865
G1 X180.765 Y207.063 E36.01214
G1 X179.883 Y207.604 E36.04647
G1 X179.058 Y208.015 E36.07705
G1 X178.313 Y208.318 E36.10373
G1 X177.44 Y208.615 E36.13432
G1 X176.544 Y208.835 E36.16493
G1 X175.718 Y208.97 E36.1927
G1 X174.391 Y209.076 E36.23687
G1 X173.296 Y209.094 E36.2732
G1 X140.961 Y209.09 E37.34598
G1 X139.136 Y209.064 E37.40653
G1 X136.513 Y209.064 E37.49355
G1 X135.307 Y209.089 E37.53357
G1 X102.17 Y209.092 E38.63296
G1 X101.488 Y209.082 E38.65559
G1 X100.449 Y209.022 E38.69012
G1 X99.414 Y208.871 E38.72482
G1 X98.517 Y208.66 E38.75539
G1 X97.912 Y208.471 E38.77642
G1 X97.232 Y208.232 E38.80033
G1 X94.76 Y207.314 E38.88782
G1 X92.364 Y206.502 E38.97175
G1 X89.992 Y205.77 E39.05411
G1 X87.529 Y205.087 E39.13891
G1 X85.043 Y204.474 E39.22386
G1 X82.587 Y203.94 E39.30724
G1 X80.137 Y203.48 E39.38995
G1 X77.627 Y203.082 E39.47426
G1 X75.102 Y202.754 E39.55874
G1 X72.592 Y202.5 E39.64244
G1 X70.093 Y202.318 E39.72557
