;FLAVOR:Marlin
;TIME:23134
;Filament used: 18.7392m
;Layer height: 0.2
;MINX:8.846
;MINY:25.941
;MINZ:0.2
;MAXX:226.161
;MAXY:208.742
;MAXZ:4
;POSTPROCESSED
;Generated with Cura_SteamEngine main
M140 S60
M105
M190 S60
M104 S205
M105
M109 S205
M82 ;absolute extrusion mode
; Script based on an original created by tjjfvi (https://github.com/tjjfvi)
; An up-to-date version of the tjjfvi's original script can be found
; here:  https://csi.t6.fyi/
; Note - This script will only work in Cura V4.2 and above!
; --- Global Settings
; layer_height = 0.2
; smooth_spiralized_contours = True
; magic_mesh_surface_mode = normal
; machine_extruder_count = 1
; --- Single Extruder Settings
; speed_z_hop = 5
; retraction_amount = 5.0
; retraction_hop = 0.2
; retraction_hop_enabled = False
; retraction_enable = True
; retraction_speed = 45.0
; retraction_retract_speed = 45.0
; retraction_prime_speed = 45.0
; speed_travel = 150.0

; Ender 3 Custom Start G-code
G92 E0 ; Reset Extruder
G28 ; Home all axes
M501 ;load bed level data
M420 S1 ;enable bed leveling
G1 Z2.0 F3000 ; Move Z Axis up little to prevent scratching of Heat Bed
G1 X1.0 Y20 Z0.3 F5000.0 ; Move to start position
G1 X1.0 Y200.0 Z0.3 F1500.0 E15 ; Draw the first line
G1 X1.3 Y200.0 Z0.3 F5000.0 ; Move to side a little
G1 X0.4 Y20 Z0.3 F1500.0 E30 ; Draw the second line
G92 E0 ; Reset Extruder
G1 Z2.0 F3000 ; Move Z Axis up little to prevent scratching of Heat Bed
G1 X5 Y20 Z0.3 F5000.0 ; Move over to prevent blob squish
G92 E0
G92 E0
G1 F2700 E-5
;LAYER_COUNT:20
;LAYER:0
M117 Printing bottom - Layer 1 of 20
M107
M204 S500
M205 X12 Y12
G0 F6000 X15.481 Y29.46 Z0.2
G0 X8.846 Y39.746
;TYPE:SKIRT
G1 F2700 E0
G1 F1200 X8.926 Y38.768 E0.03256
G1 X8.975 Y38.383 E0.04543
G1 X9.134 Y37.456 E0.07664
G1 X9.37 Y36.547 E0.10779
G1 X9.683 Y35.66 E0.139
G1 X10.07 Y34.804 E0.17017
G1 X10.529 Y33.983 E0.20137
G1 X10.965 Y33.328 E0.22748
G1 X11.185 Y33.022 E0.23998
G1 X11.766 Y32.282 E0.2712
G1 X12.407 Y31.595 E0.30237
G1 X13.105 Y30.965 E0.33356
G1 X13.853 Y30.396 E0.36474
G1 X14.647 Y29.894 E0.39591
G1 X15.481 Y29.46 E0.4271
G1 X16.349 Y29.099 E0.45829
G1 X17.555 Y28.733 E0.5001
G1 X17.881 Y28.654 E0.51123
G1 X18.803 Y28.472 E0.54241
G1 X19.737 Y28.368 E0.57359
G1 X20.262 Y28.345 E0.59103
G1 X21.535 Y28.322 E0.63327
G1 X68.352 Y28.324 E2.18651
G1 X70.27 Y28.351 E2.25015
G1 X70.554 Y28.349 E2.25958
G1 X71.074 Y28.36 E2.27683
G1 X73.632 Y28.343 E2.3617
G1 X76.117 Y28.256 E2.4442
G1 X78.647 Y28.095 E2.5283
G1 X81.155 Y27.866 E2.61186
G1 X83.643 Y27.565 E2.695
G1 X86.116 Y27.197 E2.77795
G1 X88.632 Y26.748 E2.86275
G1 X90.553 Y26.36 E2.92777
G1 X91.482 Y26.213 E2.95897
G1 X92.53 Y26.143 E2.99382
G1 X93.26 Y26.131 E3.01804
G1 X140.798 Y26.133 E4.59521
G1 X141.511 Y26.144 E4.61887
G1 X142.431 Y26.197 E4.64944
G1 X143.325 Y26.286 E4.67925
G1 X145.881 Y26.502 E4.76435
G1 X148.373 Y26.644 E4.84716
G1 X150.964 Y26.717 E4.93316
G1 X152.1 Y26.734 E4.97085
G1 X154.669 Y26.736 E5.05608
G1 X157.197 Y26.665 E5.13999
G1 X159.73 Y26.524 E5.22415
G1 X162.166 Y26.317 E5.30526
G1 X163.405 Y26.169 E5.34666
G1 X163.804 Y26.138 E5.35994
G1 X164.767 Y26.031 E5.39209
G1 X165.772 Y25.965 E5.4255
G1 X167.102 Y25.941 E5.46963
G1 X213.912 Y25.943 E7.02265
G1 X214.579 Y25.952 E7.04478
G1 X215.518 Y26.005 E7.07598
G1 X216.822 Y26.213 E7.11979
G1 X217.237 Y26.305 E7.13389
G1 X218.145 Y26.547 E7.16507
G1 X219.029 Y26.866 E7.19625
G1 X219.883 Y27.258 E7.22742
G1 X220.701 Y27.722 E7.25863
G1 X221.476 Y28.254 E7.28981
G1 X222.203 Y28.849 E7.32098
G1 X222.877 Y29.505 E7.35219
G1 X223.493 Y30.215 E7.38337
G1 X223.827 Y30.657 E7.40175
G1 X224.052 Y30.971 E7.41457
G1 X224.567 Y31.757 E7.44574
G1 X225.012 Y32.585 E7.47693
G1 X225.386 Y33.448 E7.50813
G1 X225.685 Y34.339 E7.53931
G1 X225.908 Y35.252 E7.5705
G1 X226.046 Y36.097 E7.5989
G1 X226.143 Y37.032 E7.63009
G1 X226.161 Y37.972 E7.66128
G1 X226.098 Y38.91 E7.69247
G1 X225.922 Y40.032 E7.73015
G1 X225.608 Y41.24 E7.77156
G1 X225.261 Y42.333 E7.80961
G1 X225.021 Y43.059 E7.83498
G1 X224.305 Y45.44 E7.91746
G1 X223.641 Y47.895 E8.00184
G1 X223.049 Y50.362 E8.08601
G1 X222.543 Y52.773 E8.16774
G1 X222.086 Y55.298 E8.25288
G1 X221.697 Y57.863 E8.33895
G1 X221.626 Y58.383 E8.35636
G1 X221.459 Y59.308 E8.38755
G1 X221.21 Y60.23 E8.41923
G1 X221.075 Y60.656 E8.43406
G1 X220.31 Y63.186 E8.52175
G1 X219.656 Y65.59 E8.6044
G1 X219.066 Y68.031 E8.68772
G1 X218.539 Y70.519 E8.7721
G1 X218.091 Y72.975 E8.85492
G1 X217.713 Y75.434 E8.93746
G1 X217.397 Y77.977 E9.02248
G1 X217.159 Y80.455 E9.10507
G1 X216.988 Y82.985 E9.1892
G1 X216.89 Y85.479 E9.27201
G1 X216.864 Y87.997 E9.35555
G1 X216.907 Y90.521 E9.4393
G1 X217.021 Y93.001 E9.52167
G1 X217.21 Y95.55 E9.60647
G1 X217.465 Y98.038 E9.68945
G1 X217.793 Y100.54 E9.77317
G1 X218.19 Y103.01 E9.85617
G1 X218.658 Y105.486 E9.93977
G1 X219.195 Y107.936 E10.02298
G1 X219.789 Y110.332 E10.10488
G1 X220.791 Y113.85 E10.22624
G1 X221.002 Y114.542 E10.25024
G1 X221.238 Y115.452 E10.28143
G1 X221.364 Y116.147 E10.30486
G1 X221.409 Y116.45 E10.31502
G1 X221.508 Y117.385 E10.34622
G1 X221.526 Y118.324 E10.37738
G1 X221.465 Y119.262 E10.40856
G1 X221.324 Y120.192 E10.43977
G1 X220.993 Y121.474 E10.4837
G1 X220.675 Y122.457 E10.51798
G1 X219.921 Y124.88 E10.60217
G1 X219.234 Y127.332 E10.68665
G1 X218.632 Y129.743 E10.76909
G1 X218.087 Y132.214 E10.85304
G1 X217.625 Y134.635 E10.93482
G1 X216.997 Y138.708 E11.07154
G1 X216.814 Y139.63 E11.10273
G1 X216.66 Y140.2 E11.12232
G1 X216.23 Y141.633 E11.17195
G1 X216.048 Y142.208 E11.19196
G1 X215.356 Y144.609 E11.27486
G1 X214.725 Y147.062 E11.3589
G1 X214.173 Y149.485 E11.44134
G1 X213.679 Y151.976 E11.5256
G1 X213.258 Y154.473 E11.60961
G1 X213.039 Y155.983 E11.66023
G1 X212.861 Y156.922 E11.69194
G1 X212.747 Y157.407 E11.70847
G1 X212.535 Y158.182 E11.73512
G1 X211.88 Y160.272 E11.80779
G1 X211.193 Y162.685 E11.89103
G1 X210.571 Y165.129 E11.9747
G1 X210.01 Y167.622 E12.05948
G1 X209.541 Y170.019 E12.14051
G1 X209.35 Y171.185 E12.17971
G1 X209.129 Y172.454 E12.22244
G1 X208.929 Y173.372 E12.25361
G1 X208.751 Y173.975 E12.27447
G1 X208.658 Y174.261 E12.28445
G1 X208.35 Y175.095 E12.31395
G1 X207.967 Y176.014 E12.34698
G1 X207.053 Y178.306 E12.42884
G1 X206.17 Y180.712 E12.51387
G1 X205.37 Y183.101 E12.59746
G1 X204.648 Y185.479 E12.67991
G1 X203.976 Y187.942 E12.76461
G1 X203.386 Y190.371 E12.84754
G1 X202.861 Y192.835 E12.93113
G1 X202.383 Y195.433 E13.01877
G1 X202.174 Y196.349 E13.04994
G1 X201.888 Y197.245 E13.08114
G1 X201.526 Y198.112 E13.11231
G1 X201.092 Y198.946 E13.1435
G1 X200.589 Y199.74 E13.17469
G1 X200.021 Y200.489 E13.20587
G1 X199.39 Y201.186 E13.23707
G1 X198.703 Y201.827 E13.26824
G1 X197.845 Y202.493 E13.30428
G1 X197.005 Y203.08 E13.33828
G1 X196.393 Y203.496 E13.36283
G1 X194.364 Y204.957 E13.44578
G1 X192.365 Y206.482 E13.52919
G1 X191.594 Y207.02 E13.56039
G1 X190.78 Y207.49 E13.59157
G1 X189.929 Y207.89 E13.62277
G1 X189.047 Y208.216 E13.65396
G1 X188.141 Y208.465 E13.68514
G1 X187.217 Y208.637 E13.71632
G1 X186.281 Y208.73 E13.74753
G1 X185.341 Y208.742 E13.77871
G1 X184.404 Y208.675 E13.80988
G1 X183.475 Y208.528 E13.84109
G1 X182.906 Y208.398 E13.86045
G1 X182.046 Y208.176 E13.88992
G1 X180.812 Y207.842 E13.93233
G1 X178.403 Y207.263 E14.01453
G1 X175.894 Y206.736 E14.09959
G1 X173.449 Y206.293 E14.18203
G1 X170.962 Y205.914 E14.26549
G1 X168.477 Y205.607 E14.34856
G1 X165.956 Y205.368 E14.43258
G1 X163.441 Y205.202 E14.5162
G1 X160.92 Y205.106 E14.5999
G1 X158.797 Y205.081 E14.67034
G1 X154.05 Y205.079 E14.82783
G1 X152.223 Y205.053 E14.88845
G1 X149.587 Y205.053 E14.9759
G1 X148.249 Y205.08 E15.0203
G1 X128.016 Y205.082 E15.69157
G1 X125.418 Y205.119 E15.77778
G1 X122.888 Y205.227 E15.86179
G1 X120.364 Y205.406 E15.94574
G1 X119.25 Y205.511 E15.98286
G1 X118.7 Y205.553 E16.00116
G1 X117.76 Y205.58 E16.03236
G1 X117.032 Y205.545 E16.05654
G1 X116.393 Y205.493 E16.07781
G1 X114.691 Y205.332 E16.13453
G1 X112.164 Y205.165 E16.21855
G1 X109.642 Y205.069 E16.30229
G1 X107.524 Y205.044 E16.37256
G1 X87.806 Y205.04 E17.02674
G1 X85.981 Y205.014 E17.0873
G1 X83.345 Y205.014 E17.17475
G1 X82.007 Y205.041 E17.21915
G1 X69.193 Y205.042 E17.64428
G1 X66.588 Y205.079 E17.73072
G1 X64.068 Y205.186 E17.8144
G1 X61.594 Y205.361 E17.89668
G1 X59.067 Y205.613 E17.98094
G1 X56.556 Y205.934 E18.06492
G1 X53.762 Y206.377 E18.15878
G1 X53.124 Y206.49 E18.18027
G1 X52.192 Y206.614 E18.21147
G1 X51.253 Y206.658 E18.24265
G1 X50.314 Y206.622 E18.27383
G1 X49.381 Y206.507 E18.30502
G1 X48.461 Y206.313 E18.33621
G1 X47.562 Y206.041 E18.36737
G1 X46.688 Y205.694 E18.39857
G1 X45.847 Y205.274 E18.42976
G1 X45.045 Y204.784 E18.46094
G1 X44.543 Y204.426 E18.4814
G1 X43.04 Y203.282 E18.54406
G1 X41.069 Y201.841 E18.62507
G1 X40.288 Y201.307 E18.65646
G1 X40.126 Y201.186 E18.66316
G1 X39.048 Y200.437 E18.70671
G1 X38.3 Y199.868 E18.7379
G1 X37.602 Y199.238 E18.76909
G1 X36.961 Y198.55 E18.80029
G1 X36.38 Y197.811 E18.83148
G1 X35.865 Y197.025 E18.86265
G1 X35.418 Y196.198 E18.89384
G1 X35.042 Y195.336 E18.92504
G1 X34.742 Y194.446 E18.9562
G1 X34.507 Y193.475 E18.98935
G1 X34.339 Y192.606 E19.01871
G1 X34.086 Y191.187 E19.06653
G1 X33.582 Y188.765 E19.14861
G1 X33 Y186.31 E19.23231
G1 X32.348 Y183.879 E19.31582
G1 X31.622 Y181.448 E19.39999
G1 X30.828 Y179.035 E19.48427
G1 X30.001 Y176.744 E19.56508
G1 X28.435 Y172.853 E19.70423
G1 X28.121 Y171.967 E19.73542
G1 X27.922 Y171.225 E19.76091
G1 X27.848 Y170.906 E19.77177
G1 X27.715 Y170.242 E19.79424
G1 X27.543 Y169.217 E19.82872
G1 X27.088 Y166.726 E19.91273
G1 X26.558 Y164.229 E19.99742
G1 X25.969 Y161.794 E20.08054
G1 X25.313 Y159.381 E20.1635
G1 X24.565 Y156.908 E20.24922
G1 X24.236 Y155.861 E20.28563
G1 X23.999 Y154.952 E20.31679
G1 X23.875 Y154.268 E20.33986
G1 X23.496 Y151.747 E20.42443
G1 X23.048 Y149.229 E20.50929
G1 X22.544 Y146.786 E20.59204
G1 X21.963 Y144.337 E20.67555
G1 X21.309 Y141.889 E20.75962
G1 X20.597 Y139.488 E20.8427
G1 X20.274 Y138.452 E20.87871
G1 X20.033 Y137.543 E20.90991
G1 X19.887 Y136.74 E20.93698
G1 X19.771 Y135.933 E20.96403
G1 X19.364 Y133.291 E21.05272
G1 X18.912 Y130.826 E21.13586
G1 X18.382 Y128.339 E21.22023
G1 X17.793 Y125.905 E21.30331
G1 X17.151 Y123.552 E21.38423
G1 X15.834 Y119.335 E21.5308
G1 X15.593 Y118.427 E21.56197
G1 X15.429 Y117.501 E21.59317
G1 X15.344 Y116.565 E21.62435
G1 X15.34 Y115.625 E21.65554
G1 X15.445 Y114.466 E21.69415
G1 X15.499 Y114.091 E21.70672
G1 X15.681 Y113.129 E21.7392
G1 X16.211 Y110.88 E21.81586
G1 X16.732 Y108.378 E21.90065
G1 X17.171 Y105.916 E21.98362
G1 X17.545 Y103.419 E22.06739
G1 X17.842 Y100.963 E22.14946
G1 X18.075 Y98.427 E22.23395
G1 X18.236 Y95.9 E22.31796
G1 X18.324 Y93.414 E22.40049
G1 X18.343 Y90.89 E22.48423
G1 X18.289 Y88.339 E22.56889
G1 X18.167 Y85.894 E22.6501
G1 X17.967 Y83.329 E22.73546
G1 X17.708 Y80.892 E22.81677
G1 X17.502 Y79.423 E22.86598
G1 X17.477 Y79.164 E22.87462
G1 X17.374 Y78.396 E22.90032
G1 X16.998 Y75.859 E22.98541
G1 X16.557 Y73.377 E23.06905
G1 X16.044 Y70.894 E23.15317
G1 X15.475 Y68.487 E23.23522
G1 X14.825 Y66.046 E23.31903
G1 X14.075 Y63.521 E23.40642
G1 X13.772 Y62.548 E23.44023
G1 X13.531 Y61.64 E23.4714
G1 X13.386 Y60.842 E23.49831
G1 X13.27 Y60.034 E23.52539
G1 X12.863 Y57.392 E23.61408
G1 X12.411 Y54.93 E23.69712
G1 X11.888 Y52.467 E23.78066
G1 X11.293 Y50.014 E23.8644
G1 X10.644 Y47.633 E23.94628
G1 X9.34 Y43.456 E24.09146
G1 X9.098 Y42.548 E24.12263
G1 X8.935 Y41.622 E24.15383
G1 X8.85 Y40.686 E24.18501
G1 X8.846 Y39.746 E24.21619
G0 F6000 X9.268 Y39.691
G1 F1200 X9.343 Y38.821 E24.24517
G1 X9.392 Y38.436 E24.25804
G1 X9.548 Y37.527 E24.28864
G1 X9.782 Y36.636 E24.3192
G1 X10.093 Y35.767 E24.34983
G1 X10.477 Y34.929 E24.38041
G1 X10.933 Y34.128 E24.41099
G1 X11.306 Y33.573 E24.43317
G1 X11.526 Y33.267 E24.44568
G1 X12.096 Y32.542 E24.47627
G1 X12.727 Y31.87 E24.50686
G1 X13.414 Y31.255 E24.53745
G1 X14.151 Y30.701 E24.56804
G1 X14.934 Y30.214 E24.59863
G1 X15.756 Y29.796 E24.62922
G1 X16.611 Y29.451 E24.65981
G1 X17.653 Y29.141 E24.69588
G1 X17.979 Y29.062 E24.70701
G1 X18.884 Y28.884 E24.73761
G1 X19.801 Y28.785 E24.76821
G1 X20.271 Y28.765 E24.78382
G1 X21.535 Y28.742 E24.82576
G1 X68.346 Y28.744 E26.37881
G1 X70.408 Y28.773 E26.44722
G1 X70.545 Y28.768 E26.45177
G1 X71.104 Y28.78 E26.47032
G1 X73.65 Y28.763 E26.55479
G1 X76.122 Y28.676 E26.63686
G1 X78.676 Y28.514 E26.72176
G1 X81.209 Y28.282 E26.80615
G1 X83.685 Y27.983 E26.88889
G1 X86.217 Y27.606 E26.97382
G1 X88.707 Y27.162 E27.05774
G1 X90.637 Y26.772 E27.12306
G1 X91.547 Y26.629 E27.15363
G1 X92.538 Y26.563 E27.18658
G1 X93.26 Y26.551 E27.21053
G1 X140.792 Y26.553 E28.7875
G1 X141.505 Y26.564 E28.81116
G1 X142.39 Y26.615 E28.84057
G1 X143.255 Y26.701 E28.86941
G1 X145.857 Y26.921 E28.95604
G1 X148.372 Y27.064 E29.03962
G1 X150.946 Y27.137 E29.12505
G1 X152.094 Y27.154 E29.16314
G1 X154.681 Y27.156 E29.24897
G1 X157.231 Y27.085 E29.33361
G1 X159.722 Y26.945 E29.41638
G1 X162.218 Y26.734 E29.49949
G1 X163.454 Y26.586 E29.54079
G1 X163.835 Y26.557 E29.55346
G1 X164.813 Y26.448 E29.58611
G1 X165.781 Y26.385 E29.61829
G1 X167.102 Y26.361 E29.66213
G1 X213.906 Y26.363 E31.21494
G1 X214.573 Y26.372 E31.23707
G1 X215.494 Y26.424 E31.26768
G1 X216.731 Y26.623 E31.30925
G1 X217.146 Y26.715 E31.32335
G1 X218.036 Y26.953 E31.35391
G1 X218.903 Y27.268 E31.38452
G1 X219.739 Y27.657 E31.41511
G1 X220.538 Y28.116 E31.44568
G1 X221.295 Y28.643 E31.47628
G1 X222.003 Y29.234 E31.50688
G1 X222.657 Y29.884 E31.53747
G1 X223.486 Y30.901 E31.581
G1 X223.711 Y31.215 E31.59382
G1 X224.215 Y31.987 E31.62441
G1 X224.65 Y32.8 E31.655
G1 X225.013 Y33.648 E31.6856
G1 X225.301 Y34.523 E31.71616
G1 X225.587 Y35.859 E31.76149
G1 X225.631 Y36.158 E31.77152
G1 X225.725 Y37.075 E31.8021
G1 X225.74 Y37.997 E31.83269
G1 X225.675 Y38.917 E31.86329
G1 X225.509 Y39.951 E31.89804
G1 X225.207 Y41.114 E31.9379
G1 X224.862 Y42.201 E31.97574
G1 X224.625 Y42.917 E32.00076
G1 X223.892 Y45.353 E32.08516
G1 X223.234 Y47.789 E32.16887
G1 X222.644 Y50.247 E32.25274
G1 X222.12 Y52.744 E32.33739
G1 X221.678 Y55.19 E32.41985
G1 X221.269 Y57.888 E32.51039
G1 X221.209 Y58.326 E32.52505
G1 X221.045 Y59.233 E32.55563
G1 X220.809 Y60.103 E32.58554
G1 X219.91 Y63.055 E32.68792
G1 X219.25 Y65.483 E32.7714
G1 X218.653 Y67.956 E32.8558
G1 X218.129 Y70.431 E32.93973
G1 X217.677 Y72.905 E33.02317
G1 X217.296 Y75.388 E33.10651
G1 X216.98 Y77.923 E33.19127
G1 X216.74 Y80.42 E33.27449
G1 X216.57 Y82.94 E33.35829
G1 X216.47 Y85.492 E33.44302
G1 X216.444 Y88 E33.52623
G1 X216.487 Y90.512 E33.60959
G1 X216.603 Y93.052 E33.69394
G1 X216.791 Y95.589 E33.77835
G1 X217.045 Y98.062 E33.86082
G1 X217.378 Y100.597 E33.94565
G1 X217.776 Y103.08 E34.02908
G1 X218.25 Y105.585 E34.11366
G1 X218.792 Y108.06 E34.19772
G1 X219.379 Y110.426 E34.2786
G1 X220.393 Y113.987 E34.40144
G1 X220.6 Y114.665 E34.42496
G1 X220.831 Y115.558 E34.45556
G1 X220.949 Y116.208 E34.47748
G1 X220.994 Y116.511 E34.48764
G1 X221.089 Y117.428 E34.51823
G1 X221.105 Y118.35 E34.54882
G1 X221.041 Y119.27 E34.57942
G1 X220.898 Y120.181 E34.61001
G1 X220.593 Y121.345 E34.64993
G1 X220.289 Y122.285 E34.68271
G1 X219.514 Y124.776 E34.76926
G1 X218.836 Y127.194 E34.85258
G1 X218.22 Y129.66 E34.9369
G1 X217.679 Y132.113 E35.02024
G1 X217.21 Y134.575 E35.10339
G1 X216.582 Y138.644 E35.23999
G1 X216.402 Y139.548 E35.27057
G1 X216.257 Y140.079 E35.28883
G1 X215.772 Y141.692 E35.34471
G1 X215.653 Y142.066 E35.35773
G1 X214.945 Y144.522 E35.44254
G1 X214.322 Y146.941 E35.52541
G1 X213.758 Y149.42 E35.60976
G1 X213.268 Y151.893 E35.6934
G1 X212.848 Y154.383 E35.77718
G1 X212.624 Y155.923 E35.82881
G1 X212.452 Y156.826 E35.8593
G1 X212.338 Y157.311 E35.87583
G1 X212.134 Y158.056 E35.90146
G1 X211.481 Y160.141 E35.97395
G1 X210.787 Y162.577 E36.05798
G1 X210.161 Y165.035 E36.14213
G1 X209.603 Y167.519 E36.2266
G1 X209.123 Y169.971 E36.30949
G1 X208.936 Y171.113 E36.34789
G1 X208.715 Y172.382 E36.39062
G1 X208.518 Y173.282 E36.42119
G1 X208.352 Y173.845 E36.44066
G1 X208.259 Y174.131 E36.45064
G1 X207.962 Y174.933 E36.47901
G1 X207.606 Y175.787 E36.50971
G1 X206.646 Y178.193 E36.59565
