;FLAVOR:Marlin
;TIME:16004
;Filament used: 14.7443m
;Layer height: 0.2
;MINX:4.968
;MINY:25.456
;MINZ:0.2
;MAXX:230.03
;MAXY:209.49
;MAXZ:4
;POSTPROCESSED
;Generated with Cura_SteamEngine main
M140 S60
M105
M190 S60
M104 S205
M105
M109 S205
M82 ;absolute extrusion mode
; Script based on an original created by tjjfvi (https://github.com/tjjfvi)
; An up-to-date version of the tjjfvi's original script can be found
; here:  https://csi.t6.fyi/
; Note - This script will only work in Cura V4.2 and above!
; --- Global Settings
; layer_height = 0.2
; smooth_spiralized_contours = True
; magic_mesh_surface_mode = normal
; machine_extruder_count = 1
; --- Single Extruder Settings
; speed_z_hop = 5
; retraction_amount = 5.0
; retraction_hop = 0.2
; retraction_hop_enabled = False
; retraction_enable = True
; retraction_speed = 45.0
; retraction_retract_speed = 45.0
; retraction_prime_speed = 45.0
; speed_travel = 150.0

; Ender 3 Custom Start G-code
G92 E0 ; Reset Extruder
G28 ; Home all axes
M501 ;load bed level data
M420 S1 ;enable bed leveling
G1 Z2.0 F3000 ; Move Z Axis up little to prevent scratching of Heat Bed
G1 X1.0 Y20 Z0.3 F5000.0 ; Move to start position
G1 X1.0 Y200.0 Z0.3 F1500.0 E15 ; Draw the first line
G1 X1.3 Y200.0 Z0.3 F5000.0 ; Move to side a little
G1 X0.4 Y20 Z0.3 F1500.0 E30 ; Draw the second line
G92 E0 ; Reset Extruder
G1 Z2.0 F3000 ; Move Z Axis up little to prevent scratching of Heat Bed
G1 X5 Y20 Z0.3 F5000.0 ; Move over to prevent blob squish
G92 E0
G92 E0
G1 F2700 E-5
;LAYER_COUNT:20
;LAYER:0
M117 Printing CE3_christmas_tree_160_2 - Layer 1 of 20
M107
M204 S500
M205 X12 Y12
G0 F6000 X12.848 Y27.052 Z0.2
G0 X4.968 Y38.633
;TYPE:SKIRT
G1 F2700 E0
G1 F1200 X4.978 Y38.271 E0.01201
G1 X5.044 Y37.333 E0.04321
G1 X5.189 Y36.404 E0.07441
G1 X5.324 Y35.816 E0.09442
G1 X5.43 Y35.405 E0.1085
G1 X5.703 Y34.506 E0.13967
G1 X6.052 Y33.633 E0.17087
G1 X6.45 Y32.835 E0.20045
G1 X6.624 Y32.519 E0.21242
G1 X7.112 Y31.716 E0.2436
G1 X7.667 Y30.957 E0.27479
G1 X8.015 Y30.541 E0.29278
G1 X8.298 Y30.22 E0.30698
G1 X8.949 Y29.542 E0.33817
G1 X9.656 Y28.922 E0.36936
G1 X10.527 Y28.288 E0.40511
G1 X10.803 Y28.107 E0.41606
G1 X11.611 Y27.625 E0.44727
G1 X12.848 Y27.052 E0.4925
G1 X13.23 Y26.903 E0.5061
G1 X14.119 Y26.599 E0.53727
G1 X15.031 Y26.372 E0.56846
G1 X15.682 Y26.259 E0.59038
G1 X16.053 Y26.206 E0.60281
G1 X17.431 Y26.097 E0.64867
G1 X18.512 Y26.08 E0.68454
G1 X109.431 Y26.081 E3.70096
G1 X112.036 Y26.044 E3.78739
G1 X114.556 Y25.937 E3.87107
G1 X117.05 Y25.76 E3.95403
G1 X119.476 Y25.524 E4.03489
G1 X120.353 Y25.474 E4.06404
G1 X121.458 Y25.456 E4.1007
G1 X165.913 Y25.46 E5.57558
G1 X167.738 Y25.486 E5.63614
G1 X170.346 Y25.486 E5.72266
G1 X171.552 Y25.461 E5.76268
G1 X216.798 Y25.458 E7.26381
G1 X217.476 Y25.468 E7.28631
G1 X218.482 Y25.529 E7.31974
G1 X218.858 Y25.569 E7.33229
G1 X219.788 Y25.708 E7.36349
G1 X220.702 Y25.926 E7.39466
G1 X221.341 Y26.128 E7.41689
G1 X221.718 Y26.26 E7.43015
G1 X222.591 Y26.608 E7.46133
G1 X223.431 Y27.029 E7.4925
G1 X224.041 Y27.394 E7.51608
G1 X224.405 Y27.628 E7.53044
G1 X225.174 Y28.169 E7.56164
G1 X225.893 Y28.774 E7.59281
G1 X226.623 Y29.509 E7.62718
G1 X226.861 Y29.772 E7.63895
G1 X227.462 Y30.495 E7.67014
G1 X228.231 Y31.65 E7.71618
G1 X228.407 Y31.954 E7.72783
G1 X228.843 Y32.786 E7.75899
G1 X229.206 Y33.653 E7.79018
G1 X229.441 Y34.357 E7.8148
G1 X229.564 Y34.773 E7.82919
G1 X229.791 Y35.685 E7.86037
G1 X229.941 Y36.613 E7.89156
G1 X230.003 Y37.357 E7.91633
G1 X230.023 Y37.759 E7.92968
G1 X230.03 Y38.699 E7.96087
G1 X229.957 Y39.636 E7.99205
G1 X229.795 Y40.608 E8.02475
G1 X229.712 Y40.998 E8.03797
G1 X229.477 Y41.908 E8.06916
G1 X229.03 Y43.121 E8.11204
G1 X228.119 Y45.207 E8.18756
G1 X227.17 Y47.557 E8.27165
G1 X226.301 Y49.902 E8.35462
G1 X225.494 Y52.279 E8.4379
G1 X224.744 Y54.711 E8.52234
G1 X224.086 Y57.088 E8.60416
G1 X223.47 Y59.578 E8.68926
G1 X222.942 Y62.013 E8.77193
G1 X222.478 Y64.479 E8.85518
G1 X222.082 Y66.979 E8.93915
G1 X221.76 Y69.458 E9.02209
G1 X221.505 Y71.973 E9.10596
G1 X221.322 Y74.488 E9.18962
G1 X221.224 Y76.587 E9.25933
G1 X221.144 Y77.488 E9.28934
G1 X221.076 Y78.013 E9.30691
G1 X220.916 Y78.94 E9.33812
G1 X220.678 Y79.849 E9.36929
G1 X220.329 Y80.818 E9.40346
G1 X219.934 Y81.773 E9.43775
G1 X218.98 Y84.171 E9.52337
G1 X218.113 Y86.542 E9.60713
G1 X217.324 Y88.912 E9.69
G1 X216.593 Y91.329 E9.77378
G1 X215.932 Y93.765 E9.85752
G1 X215.336 Y96.232 E9.94172
G1 X214.82 Y98.665 E10.02424
G1 X214.37 Y101.14 E10.1077
G1 X213.991 Y103.607 E10.1905
G1 X213.679 Y106.12 E10.27452
G1 X213.438 Y108.631 E10.35821
G1 X213.242 Y111.665 E10.45908
G1 X213.2 Y112.147 E10.47513
G1 X213.132 Y112.773 E10.49602
G1 X212.991 Y113.703 E10.52723
G1 X212.772 Y114.617 E10.55841
G1 X212.411 Y115.674 E10.59547
G1 X211.134 Y118.876 E10.70983
G1 X210.294 Y121.172 E10.79095
G1 X209.479 Y123.617 E10.87645
G1 X208.752 Y126.017 E10.95965
G1 X208.099 Y128.422 E11.04233
G1 X207.503 Y130.885 E11.1264
G1 X206.979 Y133.361 E11.21037
G1 X206.532 Y135.806 E11.29283
G1 X206.146 Y138.317 E11.37712
G1 X205.839 Y140.783 E11.45956
G1 X205.588 Y143.396 E11.54665
G1 X205.524 Y144.185 E11.57292
G1 X205.329 Y145.538 E11.61827
G1 X205.253 Y145.904 E11.63067
G1 X205.023 Y146.815 E11.66184
G1 X204.716 Y147.704 E11.69305
G1 X204.522 Y148.166 E11.70967
G1 X204.362 Y148.524 E11.72268
G1 X203.992 Y149.274 E11.75043
G1 X202.769 Y151.535 E11.83571
G1 X201.643 Y153.758 E11.91838
G1 X200.567 Y156.039 E12.00206
G1 X199.546 Y158.373 E12.08658
G1 X198.604 Y160.708 E12.17011
G1 X197.736 Y163.044 E12.25279
G1 X196.918 Y165.451 E12.33713
G1 X196.187 Y167.821 E12.41942
G1 X195.514 Y170.247 E12.50295
G1 X194.907 Y172.695 E12.58662
G1 X194.366 Y175.186 E12.67119
G1 X193.903 Y177.651 E12.7544
G1 X193.514 Y180.087 E12.83625
G1 X193.182 Y182.638 E12.9216
G1 X192.936 Y185.067 E13.00259
G1 X192.691 Y188.683 E13.12284
G1 X192.648 Y189.576 E13.1525
G1 X192.586 Y190.371 E13.17895
G1 X192.461 Y191.302 E13.21012
G1 X192.257 Y192.22 E13.24132
G1 X191.975 Y193.117 E13.27252
G1 X191.619 Y193.987 E13.3037
G1 X191.189 Y194.823 E13.33489
G1 X190.691 Y195.62 E13.36607
G1 X190.126 Y196.371 E13.39725
G1 X189.5 Y197.072 E13.42843
G1 X188.816 Y197.717 E13.45962
G1 X188.08 Y198.302 E13.49082
G1 X187.575 Y198.647 E13.51111
G1 X186.707 Y199.206 E13.54536
G1 X185.846 Y199.744 E13.57904
G1 X183.718 Y201.157 E13.66379
G1 X181.674 Y202.599 E13.74678
G1 X179.68 Y204.091 E13.8294
G1 X177.041 Y206.203 E13.94155
G1 X176.202 Y206.898 E13.97769
G1 X175.453 Y207.467 E14.0089
G1 X174.659 Y207.969 E14.04006
G1 X173.825 Y208.403 E14.07125
G1 X172.957 Y208.764 E14.10244
G1 X171.606 Y209.17 E14.14925
G1 X170.549 Y209.373 E14.18496
G1 X169.614 Y209.472 E14.21615
G1 X168.674 Y209.49 E14.24734
G1 X167.736 Y209.429 E14.27853
G1 X166.807 Y209.288 E14.3097
G1 X165.892 Y209.069 E14.34092
G1 X165 Y208.773 E14.3721
G1 X164.137 Y208.402 E14.40326
G1 X163.58 Y208.114 E14.42407
G1 X163.352 Y207.988 E14.43271
G1 X162.55 Y207.499 E14.46387
G1 X161.666 Y206.841 E14.50043
G1 X160.716 Y206.057 E14.5413
G1 X160.571 Y205.95 E14.54728
G1 X159.64 Y205.18 E14.58736
G1 X157.62 Y203.605 E14.67234
G1 X155.62 Y202.136 E14.75467
G1 X153.55 Y200.703 E14.8382
G1 X151.4 Y199.302 E14.92334
G1 X150.962 Y199.026 E14.94051
G1 X148.77 Y197.685 E15.02577
G1 X146.569 Y196.422 E15.10996
G1 X144.372 Y195.243 E15.19268
G1 X142.124 Y194.118 E15.27608
G1 X139.83 Y193.049 E15.36004
G1 X137.541 Y192.06 E15.44277
G1 X135.161 Y191.112 E15.52777
G1 X132.826 Y190.257 E15.61026
G1 X130.429 Y189.455 E15.69412
G1 X128.027 Y188.727 E15.77739
G1 X125.618 Y188.069 E15.86025
G1 X123.169 Y187.476 E15.94384
G1 X120.678 Y186.946 E16.02834
G1 X118.194 Y186.491 E16.11212
G1 X115.753 Y186.113 E16.19407
G1 X113.229 Y185.797 E16.27846
G1 X110.743 Y185.556 E16.36133
G1 X108.231 Y185.384 E16.44486
G1 X105.714 Y185.283 E16.52844
G1 X103.193 Y185.254 E16.61208
G1 X100.707 Y185.295 E16.69457
G1 X98.155 Y185.41 E16.77932
G1 X95.66 Y185.593 E16.86232
G1 X93.17 Y185.846 E16.94536
G1 X90.657 Y186.174 E17.02944
G1 X88.199 Y186.565 E17.11201
G1 X85.706 Y187.035 E17.19618
G1 X83.247 Y187.571 E17.27968
G1 X80.809 Y188.174 E17.363
G1 X78.412 Y188.841 E17.44555
G1 X75.991 Y189.588 E17.52961
G1 X72.646 Y190.742 E17.647
G1 X71.748 Y191.021 E17.6782
G1 X70.83 Y191.223 E17.70939
G1 X69.898 Y191.346 E17.74057
G1 X68.746 Y191.388 E17.77882
G1 X67.334 Y191.366 E17.82567
G1 X64.676 Y191.36 E17.91386
G1 X63.168 Y191.379 E17.96389
G1 X62.229 Y191.351 E17.99506
G1 X61.295 Y191.243 E18.02625
G1 X60.374 Y191.056 E18.05743
G1 X59.472 Y190.791 E18.08862
G1 X58.595 Y190.451 E18.11983
G1 X57.751 Y190.038 E18.151
G1 X56.945 Y189.554 E18.18219
G1 X56.183 Y189.003 E18.21339
G1 X55.471 Y188.39 E18.24456
G1 X54.813 Y187.718 E18.27577
G1 X54.215 Y186.993 E18.30695
G1 X53.772 Y186.363 E18.3325
G1 X53.281 Y185.606 E18.36243
G1 X31.652 Y150.992 E19.71658
G1 X31.291 Y150.395 E19.73973
G1 X30.791 Y149.471 E19.77458
G1 X30.635 Y149.147 E19.78652
G1 X30.264 Y148.283 E19.81771
G1 X29.967 Y147.391 E19.8489
G1 X29.822 Y146.831 E19.86809
G1 X29.721 Y146.392 E19.88304
G1 X29.55 Y145.467 E19.91425
G1 X29.474 Y144.775 E19.93734
G1 X29.435 Y144.277 E19.95392
G1 X29.197 Y141.72 E20.03912
G1 X28.89 Y139.195 E20.12351
G1 X28.517 Y136.726 E20.20635
G1 X28.073 Y134.254 E20.28968
G1 X27.554 Y131.767 E20.37396
G1 X26.98 Y129.358 E20.45613
G1 X26.316 Y126.889 E20.54095
G1 X25.6 Y124.499 E20.62372
G1 X24.812 Y122.115 E20.70703
G1 X23.953 Y119.741 E20.79079
G1 X22.954 Y117.212 E20.881
G1 X22.688 Y116.558 E20.90442
G1 X22.541 Y116.175 E20.91803
G1 X22.242 Y115.284 E20.94922
G1 X22.019 Y114.371 E20.9804
G1 X21.902 Y113.666 E21.00411
G1 X21.841 Y113.205 E21.01953
G1 X21.761 Y112.325 E21.04885
G1 X21.57 Y109.359 E21.14746
G1 X21.331 Y106.838 E21.23147
G1 X21.024 Y104.353 E21.31454
G1 X20.645 Y101.866 E21.39801
G1 X20.195 Y99.378 E21.48189
G1 X19.687 Y96.967 E21.56364
G1 X19.087 Y94.472 E21.64877
G1 X18.435 Y92.059 E21.7317
G1 X17.709 Y89.65 E21.81517
G1 X16.914 Y87.257 E21.89883
G1 X16.064 Y84.923 E21.98124
G1 X14.735 Y81.62 E22.09936
G1 X14.404 Y80.74 E22.13056
G1 X14.149 Y79.835 E22.16175
G1 X14.005 Y79.122 E22.18588
G1 X13.922 Y78.628 E22.2025
G1 X13.782 Y77.335 E22.24565
G1 X13.722 Y76.102 E22.28661
G1 X13.557 Y73.462 E22.37437
G1 X13.333 Y71.003 E22.45629
G1 X13.028 Y68.457 E22.54136
G1 X12.666 Y66.011 E22.62339
G1 X12.224 Y63.522 E22.70726
G1 X11.718 Y61.073 E22.79023
G1 X11.136 Y58.612 E22.87413
G1 X10.484 Y56.165 E22.95815
G1 X9.772 Y53.765 E23.0412
G1 X8.985 Y51.369 E23.12487
G1 X8.134 Y49.005 E23.20823
G1 X7.216 Y46.662 E23.29172
G1 X5.949 Y43.695 E23.39875
G1 X5.617 Y42.816 E23.42993
G1 X5.347 Y41.854 E23.46307
G1 X5.25 Y41.436 E23.47731
G1 X5.077 Y40.512 E23.5085
G1 X4.982 Y39.577 E23.53968
G1 X4.968 Y38.633 E23.571
G0 F6000 X5.388 Y38.644
G1 F1200 X5.398 Y38.282 E23.58302
G1 X5.463 Y37.363 E23.61358
G1 X5.608 Y36.452 E23.64419
G1 X5.731 Y35.921 E23.66227
G1 X5.837 Y35.51 E23.67635
G1 X6.106 Y34.628 E23.70695
G1 X6.45 Y33.773 E23.73752
G1 X6.818 Y33.038 E23.76479
G1 X6.992 Y32.722 E23.77676
G1 X7.472 Y31.934 E23.80737
G1 X8.017 Y31.191 E23.83794
G1 X8.33 Y30.819 E23.85407
G1 X8.613 Y30.498 E23.86827
G1 X9.252 Y29.834 E23.89884
G1 X9.947 Y29.227 E23.92946
G1 X10.758 Y28.639 E23.96269
G1 X11.034 Y28.458 E23.97364
G1 X11.826 Y27.986 E24.00423
G1 X13 Y27.444 E24.04713
G1 X13.382 Y27.295 E24.06074
G1 X14.255 Y26.997 E24.09134
G1 X15.15 Y26.776 E24.12193
G1 X15.742 Y26.675 E24.14185
G1 X16.113 Y26.622 E24.15428
G1 X17.438 Y26.516 E24.19838
G1 X18.334 Y26.501 E24.22811
G1 X109.437 Y26.501 E27.25064
G1 X112.06 Y26.464 E27.33767
G1 X114.566 Y26.357 E27.42089
G1 X117.081 Y26.179 E27.50453
G1 X119.516 Y25.942 E27.5857
G1 X120.36 Y25.894 E27.61375
G1 X121.458 Y25.876 E27.65018
G1 X165.907 Y25.88 E29.12487
G1 X167.732 Y25.906 E29.18542
G1 X170.355 Y25.906 E29.27244
G1 X171.561 Y25.881 E29.31246
G1 X216.792 Y25.878 E30.81309
G1 X217.47 Y25.888 E30.83559
G1 X218.438 Y25.947 E30.86776
G1 X218.814 Y25.987 E30.88031
G1 X219.725 Y26.124 E30.91087
G1 X220.622 Y26.34 E30.94148
G1 X221.202 Y26.524 E30.96167
G1 X221.579 Y26.656 E30.97492
G1 X222.435 Y26.998 E31.00551
G1 X223.258 Y27.413 E31.03608
G1 X223.814 Y27.747 E31.0576
G1 X224.178 Y27.981 E31.07196
G1 X224.931 Y28.513 E31.10255
G1 X225.636 Y29.108 E31.13315
G1 X226.312 Y29.79 E31.16501
G1 X226.55 Y30.053 E31.17678
G1 X227.138 Y30.763 E31.20737
G1 X227.867 Y31.86 E31.25106
G1 X228.043 Y32.164 E31.26272
G1 X228.47 Y32.981 E31.2933
G1 X228.825 Y33.832 E31.3239
G1 X229.038 Y34.476 E31.3464
G1 X229.161 Y34.892 E31.36079
G1 X229.384 Y35.787 E31.39139
G1 X229.528 Y36.697 E31.42196
G1 X229.584 Y37.378 E31.44463
G1 X229.604 Y37.78 E31.45798
G1 X229.61 Y38.702 E31.48857
G1 X229.536 Y39.621 E31.51916
G1 X229.384 Y40.521 E31.54944
G1 X229.301 Y40.911 E31.56267
G1 X229.07 Y41.803 E31.59324
G1 X228.645 Y42.953 E31.63392
G1 X227.74 Y45.026 E31.70896
G1 X226.77 Y47.429 E31.79494
G1 X225.903 Y49.764 E31.87757
G1 X225.093 Y52.154 E31.9613
G1 X224.353 Y54.554 E32.04462
G1 X223.67 Y57.019 E32.12948
G1 X223.067 Y59.457 E32.2128
G1 X222.526 Y61.949 E32.29741
G1 X222.063 Y64.411 E32.38052
G1 X221.664 Y66.928 E32.46507
G1 X221.344 Y69.396 E32.54764
G1 X221.087 Y71.935 E32.6323
G1 X220.902 Y74.478 E32.7169
G1 X220.804 Y76.567 E32.78628
G1 X220.728 Y77.434 E32.81515
G1 X220.66 Y77.959 E32.83272
G1 X220.502 Y78.868 E32.86333
G1 X220.266 Y79.759 E32.89391
G1 X219.941 Y80.657 E32.92559
G1 X219.556 Y81.588 E32.95902
G1 X218.578 Y84.047 E33.04681
G1 X217.726 Y86.378 E33.12915
G1 X216.919 Y88.801 E33.21388
G1 X216.191 Y91.207 E33.29728
G1 X215.528 Y93.649 E33.38123
G1 X214.922 Y96.157 E33.46683
G1 X214.411 Y98.572 E33.54873
G1 X213.956 Y101.07 E33.63297
G1 X213.572 Y103.566 E33.71675
G1 X213.258 Y106.098 E33.8014
G1 X213.021 Y108.564 E33.88359
G1 X212.823 Y111.638 E33.98579
G1 X212.783 Y112.102 E34.00124
G1 X212.715 Y112.728 E34.02213
G1 X212.576 Y113.639 E34.05271
G1 X212.358 Y114.535 E34.0833
G1 X212.021 Y115.518 E34.11778
G1 X210.748 Y118.708 E34.23173
G1 X209.88 Y121.084 E34.31565
G1 X209.08 Y123.484 E34.39958
G1 X208.353 Y125.886 E34.48284
G1 X207.691 Y128.323 E34.56663
G1 X207.093 Y130.794 E34.65097
G1 X206.568 Y133.274 E34.73508
G1 X206.117 Y135.742 E34.81831
G1 X205.729 Y138.271 E34.9032
G1 X205.418 Y140.761 E34.98645
G1 X205.172 Y143.323 E35.07184
G1 X205.105 Y144.151 E35.0994
G1 X204.918 Y145.452 E35.14301
G1 X204.842 Y145.818 E35.15541
G1 X204.616 Y146.712 E35.186
G1 X204.139 Y147.994 E35.23139
G1 X203.979 Y148.352 E35.24439
G1 X203.623 Y149.074 E35.2711
G1 X202.401 Y151.333 E35.35631
G1 X201.257 Y153.591 E35.44029
G1 X200.184 Y155.866 E35.52374
G1 X199.167 Y158.192 E35.60797
G1 X198.198 Y160.591 E35.69381
G1 X197.343 Y162.894 E35.77531
G1 X196.525 Y165.303 E35.85971
G1 X195.779 Y167.718 E35.94357
G1 X195.106 Y170.144 E36.0271
G1 X194.496 Y172.607 E36.11128
G1 X193.957 Y175.089 E36.19555
G1 X193.494 Y177.547 E36.27853
G1 X193.093 Y180.07 E36.36329
G1 X192.771 Y182.545 E36.44609
G1 X192.516 Y185.053 E36.52973
G1 X192.273 Y188.643 E36.64911
G1 X192.229 Y189.556 E36.67943
G1 X192.168 Y190.332 E36.70526
G1 X192.044 Y191.246 E36.73586
G1 X191.842 Y192.145 E36.76643
G1 X191.562 Y193.024 E36.79703
G1 X191.207 Y193.875 E36.82763
G1 X190.78 Y194.692 E36.85821
G1 X190.284 Y195.469 E36.88879
G1 X189.722 Y196.2 E36.91938
G1 X189.099 Y196.88 E36.94998
G1 X188.42 Y197.503 E36.98055
G1 X187.348 Y198.295 E37.02477
G1 X186.62 Y198.765 E37.05352
G1 X185.608 Y199.398 E37.09313
G1 X183.484 Y200.808 E37.17771
G1 X181.421 Y202.264 E37.26148
G1 X179.428 Y203.755 E37.34406
G1 X176.78 Y205.874 E37.45658
G1 X175.934 Y206.575 E37.49303
G1 X175.199 Y207.132 E37.52362
G1 X174.419 Y207.623 E37.5542
G1 X173.599 Y208.044 E37.58478
G1 X172.746 Y208.393 E37.61536
G1 X171.505 Y208.762 E37.65832
G1 X170.469 Y208.96 E37.69331
G1 X169.552 Y209.054 E37.72389
G1 X168.63 Y209.069 E37.75448
G1 X167.711 Y209.003 E37.78505
G1 X166.8 Y208.858 E37.81566
G1 X165.906 Y208.635 E37.84623
G1 X165.034 Y208.335 E37.87682
G1 X163.783 Y207.747 E37.92268
G1 X163.555 Y207.621 E37.93132
G1 X162.769 Y207.14 E37.9619
G1 X161.933 Y206.517 E37.99649
G1 X161.036 Y205.777 E38.03507
