;FLAVOR:Marlin
;TIME:2084
;Filament used: 1.35001m
;Layer height: 0.2
;MINX:66.685
;MINY:70.827
;MINZ:0.2
;MAXX:153.305
;MAXY:149.173
;MAXZ:3
;Generated with Cura_SteamEngine main
M82 ;absolute extrusion mode
; Script based on an original created by tjjfvi (https://github.com/tjjfvi)
; An up-to-date version of the tjjfvi's original script can be found
; here:  https://csi.t6.fyi/
; Note - This script will only work in Cura V4.2 and above!
; --- Global Settings
; layer_height = 0.2
; smooth_spiralized_contours = True
; magic_mesh_surface_mode = normal
; machine_extruder_count = 1
; --- Single Extruder Settings
; speed_z_hop = 5
; retraction_amount = 6.5
; retraction_hop = 0.2
; retraction_hop_enabled = False
; retraction_enable = True
; retraction_speed = 25
; retraction_retract_speed = 25
; retraction_prime_speed = 25
; speed_travel = 150.0

; Ender 3 Custom Start G-code
G92 E0 ; Reset Extruder
G28 ; Home all axes
M104 S175 ; Start heating up the nozzle most of the way
M190 S65.0 ; Start heating the bed, wait until target temperature reached
M109 S200.0 ; Finish heating the nozzle
G1 Z2.0 F3000 ; Move Z Axis up little to prevent scratching of Heat Bed
G1 X0.1 Y20 Z0.3 F5000.0 ; Move to start position
G1 X0.1 Y200.0 Z0.3 F1500.0 E15 ; Draw the first line
G1 X0.4 Y200.0 Z0.3 F5000.0 ; Move to side a little
G1 X0.4 Y20 Z0.3 F1500.0 E30 ; Draw the second line
G92 E0 ; Reset Extruder
G1 Z2.0 F3000 ; Move Z Axis up little to prevent scratching of Heat Bed
G1 X5 Y20 Z0.3 F5000.0 ; Move over to prevent blob squish
G92 E0
G92 E0
G1 F1500 E-6.5
;LAYER_COUNT:15
;LAYER:0
M107
M204 S500
M205 X12 Y12
G0 F6000 X70.384 Y74.2 Z0.2
G0 X66.686 Y83.369
;TYPE:SKIRT
G1 F1500 E0
G1 F1200 X66.696 Y82.694 E0.0224
G1 X66.79 Y81.366 E0.06657
G1 X66.97 Y80.316 E0.10191
G1 X67.206 Y79.407 E0.13307
G1 X67.489 Y78.595 E0.1616
G1 X67.592 Y78.333 E0.17094
G1 X67.973 Y77.474 E0.20211
G1 X68.425 Y76.65 E0.23329
G1 X69.066 Y75.697 E0.2714
G1 X69.732 Y74.877 E0.30645
G1 X70.384 Y74.2 E0.33763
G1 X71.146 Y73.536 E0.37116
G1 X71.382 Y73.349 E0.38115
G1 X72.143 Y72.797 E0.41234
G1 X72.948 Y72.312 E0.44352
G1 X73.886 Y71.85 E0.47821
G1 X74.864 Y71.468 E0.51305
G1 X75.765 Y71.201 E0.54422
G1 X76.788 Y70.996 E0.57884
G1 X77.084 Y70.951 E0.58877
G1 X78.019 Y70.849 E0.61998
G1 X78.958 Y70.827 E0.65114
G1 X79.499 Y70.851 E0.6691
G1 X82.226 Y71.038 E0.75979
G1 X84.724 Y71.136 E0.84273
G1 X87.248 Y71.164 E0.92647
G1 X89.728 Y71.121 E1.00877
G1 X92.296 Y71.004 E1.09405
G1 X93.898 Y70.886 E1.14735
G1 X94.597 Y70.844 E1.17058
G1 X95.994 Y70.851 E1.21693
G1 X98.723 Y71.037 E1.30768
G1 X101.224 Y71.136 E1.39072
G1 X103.748 Y71.164 E1.47446
G1 X106.228 Y71.121 E1.55675
G1 X108.796 Y71.004 E1.64204
G1 X110.398 Y70.886 E1.69533
G1 X111.097 Y70.844 E1.71857
G1 X112.494 Y70.851 E1.76492
G1 X115.223 Y71.037 E1.85567
G1 X117.724 Y71.136 E1.93871
G1 X120.248 Y71.164 E2.02245
G1 X122.728 Y71.121 E2.10474
G1 X125.296 Y71.004 E2.19003
G1 X126.898 Y70.886 E2.24332
G1 X127.54 Y70.847 E2.26466
G1 X128.48 Y70.831 E2.29585
G1 X129.413 Y70.894 E2.32688
G1 X129.684 Y70.924 E2.33592
G1 X130.613 Y71.067 E2.36711
G1 X131.526 Y71.289 E2.39828
G1 X132.546 Y71.637 E2.43404
G1 X132.823 Y71.747 E2.44392
G1 X133.958 Y72.274 E2.48544
G1 X134.54 Y72.592 E2.50744
G1 X142.32 Y77.084 E2.80549
G1 X142.905 Y77.433 E2.82809
G1 X143.691 Y77.949 E2.85929
G1 X144.431 Y78.529 E2.89048
G1 X145.118 Y79.171 E2.92168
G1 X145.621 Y79.712 E2.94619
G1 X146.221 Y80.435 E2.97736
G1 X146.757 Y81.208 E3.00857
G1 X147.431 Y82.438 E3.0551
G1 X147.591 Y82.78 E3.06763
G1 X147.953 Y83.647 E3.0988
G1 X148.296 Y84.758 E3.13737
G1 X148.552 Y85.777 E3.17223
G1 X152.849 Y104.113 E3.79704
G1 X153.022 Y104.899 E3.82375
G1 X153.221 Y106.128 E3.86505
G1 X153.247 Y106.378 E3.87339
G1 X153.305 Y107.644 E3.91544
G1 X153.277 Y110.195 E4.00008
G1 X153.305 Y112.294 E4.06972
G1 X153.26 Y113.45 E4.1081
G1 X153.234 Y113.734 E4.11756
G1 X153.053 Y114.956 E4.15855
G1 X152.912 Y115.618 E4.181
G1 X148.45 Y134.651 E4.82958
G1 X148.285 Y135.313 E4.85222
G1 X148.019 Y136.215 E4.88342
G1 X147.677 Y137.091 E4.91462
G1 X147.263 Y137.934 E4.94578
G1 X146.576 Y139.034 E4.9888
G1 X146.288 Y139.44 E5.00532
G1 X145.712 Y140.183 E5.03651
G1 X145.075 Y140.874 E5.06769
G1 X144.381 Y141.509 E5.0989
G1 X143.636 Y142.082 E5.13008
G1 X142.982 Y142.509 E5.15599
G1 X141.903 Y143.158 E5.19777
G1 X134.855 Y147.227 E5.46777
G1 X133.907 Y147.751 E5.50371
G1 X133.065 Y148.169 E5.53489
G1 X132.191 Y148.514 E5.56607
G1 X131.29 Y148.783 E5.59726
G1 X130.244 Y148.995 E5.63267
G1 X129.89 Y149.049 E5.64455
G1 X128.956 Y149.151 E5.67572
G1 X128.016 Y149.173 E5.70692
G1 X127.47 Y149.149 E5.72505
G1 X124.743 Y148.962 E5.81574
G1 X122.245 Y148.864 E5.89868
G1 X119.72 Y148.836 E5.98245
G1 X117.24 Y148.879 E6.06475
G1 X114.672 Y148.996 E6.15003
G1 X113.07 Y149.114 E6.20333
G1 X112.371 Y149.156 E6.22656
G1 X110.974 Y149.149 E6.27291
G1 X108.245 Y148.963 E6.36366
G1 X105.744 Y148.864 E6.4467
G1 X103.22 Y148.836 E6.53044
G1 X100.74 Y148.879 E6.61273
G1 X98.172 Y148.996 E6.69802
G1 X96.408 Y149.125 E6.7567
G1 X95.882 Y149.156 E6.77418
G1 X94.48 Y149.149 E6.8207
G1 X91.748 Y148.963 E6.91155
G1 X89.244 Y148.864 E6.99469
G1 X86.72 Y148.836 E7.07843
G1 X84.24 Y148.879 E7.16072
G1 X81.672 Y148.996 E7.24601
G1 X80.07 Y149.114 E7.2993
G1 X79.428 Y149.153 E7.32064
G1 X78.488 Y149.169 E7.35183
G1 X77.555 Y149.106 E7.38286
G1 X77.284 Y149.076 E7.3919
G1 X76.355 Y148.933 E7.42309
G1 X75.442 Y148.711 E7.45426
G1 X74.458 Y148.377 E7.48874
G1 X74.201 Y148.276 E7.4979
G1 X73.342 Y147.896 E7.52906
G1 X72.518 Y147.443 E7.56026
G1 X71.574 Y146.809 E7.59798
G1 X70.752 Y146.144 E7.63306
G1 X70.075 Y145.493 E7.66422
G1 X69.404 Y144.723 E7.69811
G1 X69.217 Y144.487 E7.7081
G1 X68.665 Y143.726 E7.73929
G1 X68.18 Y142.921 E7.77047
G1 X67.694 Y141.926 E7.80721
G1 X67.316 Y140.942 E7.84218
G1 X67.054 Y140.039 E7.87337
G1 X66.861 Y139.055 E7.90664
G1 X66.814 Y138.741 E7.91717
G1 X66.697 Y137.43 E7.96084
G1 X66.685 Y136.867 E7.97953
G1 X66.686 Y134.131 E8.0703
G1 X66.696 Y133.491 E8.09153
G1 X66.796 Y132.117 E8.13724
G1 X67.02 Y130.89 E8.17862
G1 X67.158 Y130.303 E8.19863
G1 X67.694 Y127.864 E8.28148
G1 X68.171 Y125.347 E8.36647
G1 X68.564 Y122.912 E8.4483
G1 X68.895 Y120.403 E8.53226
G1 X69.156 Y117.888 E8.61615
G1 X69.342 Y115.401 E8.69889
G1 X69.46 Y112.869 E8.78299
G1 X69.505 Y110.353 E8.86647
G1 X69.481 Y107.871 E8.94882
G1 X69.383 Y105.341 E9.03282
G1 X69.214 Y102.795 E9.11748
G1 X68.977 Y100.31 E9.2003
G1 X68.67 Y97.825 E9.28337
G1 X68.293 Y95.358 E9.36617
G1 X67.838 Y92.857 E9.4505
G1 X67.305 Y90.332 E9.53612
G1 X67.031 Y89.155 E9.57622
G1 X66.861 Y88.265 E9.60628
G1 X66.813 Y87.941 E9.61714
G1 X66.699 Y86.67 E9.65948
G1 X66.686 Y86.072 E9.67933
G1 X66.686 Y83.369 E9.769
G0 F6000 X67.106 Y83.376
G1 F1200 X67.116 Y82.701 E9.7914
G1 X67.207 Y81.419 E9.83404
G1 X67.384 Y80.387 E9.86878
G1 X67.618 Y79.496 E9.89934
G1 X67.88 Y78.749 E9.9256
G1 X67.983 Y78.487 E9.93494
G1 X68.357 Y77.644 E9.96554
G1 X68.803 Y76.837 E9.99613
G1 X69.404 Y75.945 E10.03182
G1 X70.058 Y75.142 E10.06618
G1 X70.699 Y74.479 E10.09677
G1 X71.407 Y73.865 E10.12786
G1 X71.643 Y73.678 E10.13785
G1 X72.39 Y73.138 E10.16843
G1 X73.181 Y72.664 E10.19903
G1 X74.057 Y72.233 E10.23142
G1 X75.017 Y71.859 E10.2656
G1 X75.902 Y71.6 E10.29619
G1 X76.851 Y71.411 E10.3283
G1 X77.147 Y71.366 E10.33823
G1 X78.064 Y71.267 E10.36883
G1 X78.986 Y71.248 E10.39943
G1 X79.471 Y71.27 E10.41553
G1 X82.183 Y71.456 E10.50572
G1 X84.738 Y71.556 E10.59055
G1 X87.25 Y71.584 E10.6739
G1 X89.755 Y71.541 E10.75702
G1 X92.311 Y71.424 E10.84191
G1 X94.09 Y71.294 E10.90109
G1 X94.621 Y71.263 E10.91873
G1 X95.966 Y71.27 E10.96336
G1 X98.68 Y71.455 E11.05361
G1 X101.238 Y71.556 E11.13854
G1 X103.75 Y71.584 E11.22189
G1 X106.255 Y71.541 E11.30501
G1 X108.811 Y71.424 E11.3899
G1 X110.59 Y71.294 E11.44908
G1 X111.121 Y71.263 E11.46672
G1 X112.466 Y71.27 E11.51135
G1 X115.18 Y71.455 E11.6016
G1 X117.738 Y71.556 E11.68653
G1 X120.25 Y71.584 E11.76988
G1 X122.755 Y71.541 E11.853
G1 X125.311 Y71.424 E11.93789
G1 X127.078 Y71.295 E11.99667
G1 X127.565 Y71.266 E12.01285
G1 X128.487 Y71.251 E12.04345
G1 X129.367 Y71.312 E12.07271
G1 X129.638 Y71.342 E12.08176
G1 X130.549 Y71.483 E12.11234
G1 X131.444 Y71.702 E12.14291
G1 X132.391 Y72.027 E12.17613
G1 X132.668 Y72.137 E12.18602
G1 X133.76 Y72.644 E12.22596
G1 X134.33 Y72.956 E12.24752
G1 X142.105 Y77.445 E12.54538
G1 X142.69 Y77.794 E12.56798
G1 X143.461 Y78.3 E12.59857
G1 X144.184 Y78.871 E12.62914
G1 X145.131 Y79.796 E12.67306
G1 X145.309 Y79.993 E12.68187
G1 X145.897 Y80.704 E12.71248
G1 X146.421 Y81.462 E12.74305
G1 X147.05 Y82.615 E12.78662
G1 X147.21 Y82.957 E12.79915
G1 X147.565 Y83.809 E12.82977
G1 X147.889 Y84.861 E12.86629
G1 X148.143 Y85.873 E12.90091
G1 X152.44 Y104.209 E13.52572
G1 X152.612 Y104.989 E13.55222
G1 X152.803 Y106.171 E13.59195
G1 X152.829 Y106.421 E13.60029
G1 X152.885 Y107.639 E13.64074
G1 X152.857 Y110.195 E13.72554
G1 X152.885 Y112.299 E13.79535
G1 X152.842 Y113.412 E13.83231
G1 X152.816 Y113.696 E13.84177
G1 X152.641 Y114.871 E13.88118
G1 X152.504 Y115.522 E13.90325
G1 X148.078 Y134.405 E14.54671
G1 X147.877 Y135.212 E14.57431
G1 X147.616 Y136.096 E14.60489
G1 X147.279 Y136.954 E14.63547
G1 X146.868 Y137.78 E14.66608
G1 X146.233 Y138.791 E14.70569
G1 X145.945 Y139.197 E14.7222
G1 X145.38 Y139.925 E14.75278
G1 X144.753 Y140.602 E14.78339
G1 X144.07 Y141.221 E14.81397
G1 X143.337 Y141.779 E14.84453
G1 X142.765 Y142.15 E14.86715
G1 X141.868 Y142.691 E14.90191
G1 X134.645 Y146.863 E15.17865
G1 X133.705 Y147.383 E15.21429
G1 X132.878 Y147.792 E15.2449
G1 X132.02 Y148.128 E15.27547
G1 X131.135 Y148.389 E15.30608
G1 X130.181 Y148.579 E15.33835
G1 X129.827 Y148.633 E15.35023
G1 X128.91 Y148.733 E15.38084
G1 X127.989 Y148.752 E15.4114
G1 X127.498 Y148.73 E15.4277
G1 X124.786 Y148.544 E15.51789
G1 X122.231 Y148.444 E15.60272
G1 X119.718 Y148.416 E15.6861
G1 X117.213 Y148.459 E15.76922
G1 X114.657 Y148.576 E15.85411
G1 X112.878 Y148.706 E15.91329
G1 X112.347 Y148.737 E15.93094
G1 X111.002 Y148.73 E15.97556
G1 X108.288 Y148.545 E16.06581
G1 X105.73 Y148.444 E16.15075
G1 X103.218 Y148.416 E16.23409
G1 X100.713 Y148.459 E16.31721
G1 X98.157 Y148.576 E16.4021
G1 X96.383 Y148.706 E16.46112
G1 X95.857 Y148.737 E16.4786
G1 X94.509 Y148.73 E16.52332
G1 X91.793 Y148.545 E16.61364
G1 X89.23 Y148.444 E16.69874
G1 X86.718 Y148.416 E16.78208
G1 X84.213 Y148.459 E16.8652
G1 X81.657 Y148.576 E16.95009
G1 X79.89 Y148.705 E17.00887
G1 X79.403 Y148.734 E17.02506
G1 X78.481 Y148.749 E17.05565
G1 X77.601 Y148.688 E17.08492
G1 X77.33 Y148.658 E17.09396
G1 X76.419 Y148.517 E17.12455
G1 X75.524 Y148.298 E17.15512
G1 X74.612 Y147.986 E17.18709
G1 X74.355 Y147.885 E17.19626
G1 X73.512 Y147.511 E17.22685
G1 X72.705 Y147.066 E17.25743
G1 X71.821 Y146.469 E17.29282
G1 X71.017 Y145.818 E17.32714
G1 X70.354 Y145.177 E17.35774
G1 X69.733 Y144.462 E17.38916
G1 X69.546 Y144.226 E17.39914
G1 X69.006 Y143.479 E17.42973
G1 X68.532 Y142.688 E17.46032
G1 X68.078 Y141.757 E17.49468
G1 X67.708 Y140.791 E17.529
G1 X67.454 Y139.905 E17.55958
G1 X67.276 Y138.993 E17.59041
G1 X67.229 Y138.679 E17.60094
G1 X67.117 Y137.418 E17.64295
G1 X67.105 Y136.867 E17.66123
G1 X67.106 Y134.138 E17.75177
G1 X67.116 Y133.498 E17.77301
G1 X67.214 Y132.171 E17.81715
G1 X67.429 Y130.986 E17.85711
G1 X67.554 Y130.452 E17.8753
G1 X68.109 Y127.929 E17.96101
G1 X68.579 Y125.452 E18.04466
G1 X68.98 Y122.965 E18.12823
G1 X69.315 Y120.428 E18.21313
G1 X69.574 Y117.931 E18.29642
G1 X69.762 Y115.415 E18.38013
G1 X69.88 Y112.897 E18.46376
G1 X69.925 Y110.356 E18.54807
G1 X69.901 Y107.85 E18.63122
G1 X69.802 Y105.298 E18.71595
G1 X69.636 Y102.798 E18.79908
G1 X69.397 Y100.292 E18.8826
G1 X69.082 Y97.74 E18.96791
G1 X68.703 Y95.26 E19.05114
G1 X68.255 Y92.798 E19.13416
G1 X67.715 Y90.24 E19.2209
G1 X67.44 Y89.059 E19.26113
G1 X67.277 Y88.204 E19.29001
G1 X67.229 Y87.88 E19.30087
G1 X67.119 Y86.657 E19.34161
G1 X67.106 Y86.072 E19.36103
G1 X67.106 Y83.376 E19.45047
G0 F6000 X67.526 Y83.382
G1 F1200 X67.536 Y82.707 E19.47287
G1 X67.624 Y81.472 E19.51395
G1 X67.798 Y80.459 E19.54805
G1 X68.03 Y79.585 E19.57805
G1 X68.271 Y78.902 E19.60208
G1 X68.374 Y78.64 E19.61142
G1 X68.741 Y77.815 E19.64137
G1 X69.18 Y77.025 E19.67136
G1 X69.744 Y76.194 E19.70468
G1 X70.384 Y75.407 E19.73833
G1 X71.014 Y74.759 E19.76832
G1 X71.668 Y74.195 E19.79697
G1 X71.904 Y74.008 E19.80696
G1 X72.636 Y73.478 E19.83694
G1 X73.413 Y73.016 E19.86693
G1 X74.231 Y72.617 E19.89713
G1 X75.17 Y72.251 E19.93056
G1 X76.038 Y71.999 E19.96055
G1 X76.914 Y71.826 E19.99017
G1 X77.21 Y71.781 E20.00011
G1 X78.109 Y71.685 E20.0301
G1 X79.442 Y71.689 E20.07433
G1 X82.171 Y71.876 E20.16508
G1 X84.717 Y71.976 E20.24962
G1 X87.253 Y72.004 E20.33376
G1 X89.781 Y71.961 E20.41764
G1 X92.326 Y71.844 E20.50217
G1 X94.115 Y71.713 E20.56168
G1 X94.646 Y71.682 E20.57932
G1 X95.937 Y71.689 E20.62216
G1 X98.668 Y71.876 E20.71298
G1 X101.217 Y71.976 E20.79761
G1 X103.753 Y72.004 E20.88175
G1 X106.281 Y71.961 E20.96563
G1 X108.826 Y71.844 E21.05016
G1 X110.615 Y71.713 E21.10967
G1 X111.146 Y71.682 E21.12732
G1 X112.437 Y71.689 E21.17015
G1 X115.168 Y71.876 E21.26097
G1 X117.717 Y71.976 E21.3456
G1 X120.253 Y72.004 E21.42974
G1 X122.781 Y71.961 E21.51363
G1 X125.326 Y71.844 E21.59815
G1 X127.103 Y71.714 E21.65727
G1 X127.59 Y71.685 E21.67345
G1 X128.494 Y71.671 E21.70345
G1 X129.32 Y71.729 E21.73092
G1 X129.591 Y71.759 E21.73996
G1 X130.484 Y71.898 E21.76995
G1 X131.361 Y72.115 E21.79992
G1 X132.236 Y72.418 E21.83064
G1 X132.513 Y72.528 E21.84053
G1 X133.562 Y73.015 E21.8789
G1 X134.12 Y73.32 E21.9
G1 X141.89 Y77.806 E22.19766
G1 X142.475 Y78.155 E22.22026
G1 X143.23 Y78.652 E22.25025
G1 X143.937 Y79.213 E22.2802
G1 X144.82 Y80.078 E22.32121
G1 X144.998 Y80.275 E22.33001
G1 X145.573 Y80.972 E22.35999
G1 X146.085 Y81.716 E22.38996
G1 X146.67 Y82.793 E22.43062
G1 X146.83 Y83.135 E22.44314
G1 X147.176 Y83.97 E22.47313
G1 X147.482 Y84.963 E22.5076
G1 X147.734 Y85.968 E22.54198
G1 X152.031 Y104.304 E23.16679
G1 X152.202 Y105.079 E23.19313
G1 X152.385 Y106.215 E23.2313
G1 X152.411 Y106.465 E23.23964
G1 X152.465 Y107.634 E23.27846
G1 X152.437 Y110.196 E23.36347
G1 X152.465 Y112.305 E23.43345
G1 X152.423 Y113.374 E23.46894
G1 X152.397 Y113.658 E23.4784
G1 X152.23 Y114.787 E23.51626
G1 X152.095 Y115.426 E23.53793
G1 X147.669 Y134.309 E24.18139
G1 X147.47 Y135.11 E24.20878
G1 X147.213 Y135.976 E24.23875
G1 X146.88 Y136.817 E24.26875
G1 X146.475 Y137.624 E24.29871
G1 X145.891 Y138.548 E24.33498
G1 X145.603 Y138.954 E24.35149
G1 X145.048 Y139.667 E24.38147
G1 X144.432 Y140.329 E24.41147
G1 X143.76 Y140.933 E24.44145
G1 X143.038 Y141.475 E24.4714
G1 X142.548 Y141.79 E24.49072
G1 X141.483 Y142.43 E24.53195
G1 X134.435 Y146.499 E24.80195
G1 X133.502 Y147.015 E24.83732
G1 X132.692 Y147.415 E24.86729
G1 X131.85 Y147.743 E24.89727
G1 X130.982 Y147.994 E24.92725
G1 X130.118 Y148.164 E24.95647
G1 X129.764 Y148.218 E24.96835
G1 X128.865 Y148.315 E24.99834
G1 X127.527 Y148.311 E25.04274
G1 X124.798 Y148.124 E25.13349
G1 X122.252 Y148.024 E25.21802
G1 X119.716 Y147.996 E25.30216
G1 X117.187 Y148.039 E25.38608
G1 X114.642 Y148.156 E25.47061
G1 X112.853 Y148.287 E25.53012
G1 X112.322 Y148.318 E25.54776
G1 X111.031 Y148.311 E25.5906
G1 X108.3 Y148.124 E25.68142
G1 X105.751 Y148.024 E25.76605
G1 X103.215 Y147.996 E25.85019
G1 X100.687 Y148.039 E25.93407
G1 X98.142 Y148.156 E26.0186
G1 X96.359 Y148.286 E26.07791
G1 X95.833 Y148.317 E26.09539
G1 X94.537 Y148.311 E26.13839
G1 X91.803 Y148.125 E26.22931
G1 X89.251 Y148.024 E26.31404
G1 X86.715 Y147.996 E26.39818
G1 X84.187 Y148.039 E26.48206
G1 X81.642 Y148.156 E26.56659
G1 X79.865 Y148.286 E26.6257
G1 X79.378 Y148.315 E26.64189
G1 X78.474 Y148.329 E26.67188
G1 X77.648 Y148.271 E26.69936
G1 X77.377 Y148.241 E26.7084
G1 X76.484 Y148.102 E26.73838
G1 X75.607 Y147.885 E26.76836
G1 X74.766 Y147.596 E26.79786
G1 X74.509 Y147.495 E26.80702
G1 X73.683 Y147.127 E26.83702
G1 X72.893 Y146.688 E26.86701
G1 X72.068 Y146.13 E26.90005
G1 X71.282 Y145.491 E26.93366
G1 X70.634 Y144.862 E26.96362
