;FLAVOR:Marlin
;TIME:6682
;Filament used: 4.88578m
;Layer height: 0.16
;MINX:8.992
;MINY:27.316
;MINZ:0.2
;MAXX:210.934
;MAXY:82.08
;MAXZ:3.28
;Generated with Cura_SteamEngine main
M82 ;absolute extrusion mode
; Script based on an original created by tjjfvi (https://github.com/tjjfvi)
; An up-to-date version of the tjjfvi's original script can be found
; here:  https://csi.t6.fyi/
; Note - This script will only work in Cura V4.2 and above!
; --- Global Settings
; layer_height = 0.16
; smooth_spiralized_contours = True
; magic_mesh_surface_mode = normal
; machine_extruder_count = 1
; --- Single Extruder Settings
; speed_z_hop = 5
; retraction_amount = 6.5
; retraction_hop = 0.2
; retraction_hop_enabled = False
; retraction_enable = True
; retraction_speed = 25
; retraction_retract_speed = 25
; retraction_prime_speed = 25
; speed_travel = 150.0
; Ender 3 Custom Start G-code
G92 E0 ; Reset Extruder
G28 ; Home all axes
M104 S175 ; Start heating up the nozzle most of the way
M190 S60 ; Start heating the bed, wait until target temperature reached
M109 S245 ; Finish heating the nozzle
G1 Z2.0 F3000 ; Move Z Axis up little to prevent scratching of Heat Bed
G1 X0.1 Y20 Z0.3 F5000.0 ; Move to start position
G1 X0.1 Y200.0 Z0.3 F1500.0 E15 ; Draw the first line
G1 X0.4 Y200.0 Z0.3 F5000.0 ; Move to side a little
G1 X0.4 Y20 Z0.3 F1500.0 E30 ; Draw the second line
G92 E0 ; Reset Extruder
G1 Z2.0 F3000 ; Move Z Axis up little to prevent scratching of Heat Bed
G1 X5 Y20 Z0.3 F5000.0 ; Move over to prevent blob squish
G92 E0
G92 E0
G1 F1500 E-6.5
;LAYER_COUNT:18
;LAYER:0
M117 DASHBOARD_LAYER_INDICATOR 1
M107
G0 F6000 X17.171 Y29.403 Z0.2
G0 X8.992 Y43.94
;TYPE:SKIRT
G1 F1500 E0
G1 F1200 X9.002 Y43.262 E0.02255
G1 X9.029 Y42.645 E0.04309
G1 X9.066 Y42.124 E0.06047
G1 X9.132 Y41.425 E0.08382
G1 X9.266 Y40.496 E0.11504
G1 X9.407 Y39.859 E0.13674
G1 X9.547 Y39.302 E0.15584
G1 X9.712 Y38.701 E0.17657
G1 X10.004 Y37.81 E0.20775
G1 X10.255 Y37.2 E0.22969
G1 X10.468 Y36.723 E0.24707
G1 X10.754 Y36.118 E0.26932
G1 X11.196 Y35.291 E0.30051
G1 X11.554 Y34.725 E0.32279
G1 X11.88 Y34.243 E0.34214
G1 X12.267 Y33.7 E0.36432
G1 X12.849 Y32.964 E0.39553
G1 X13.277 Y32.496 E0.41662
G1 X13.648 Y32.113 E0.43436
G1 X14.124 Y31.644 E0.45658
G1 X14.824 Y31.02 E0.48777
G1 X15.321 Y30.638 E0.50862
G1 X15.821 Y30.275 E0.52917
G1 X16.372 Y29.894 E0.55145
G1 X17.171 Y29.403 E0.58264
G1 X17.704 Y29.125 E0.60264
G1 X18.151 Y28.907 E0.61918
G1 X18.776 Y28.62 E0.64205
G1 X19.646 Y28.27 E0.67324
G1 X20.281 Y28.068 E0.69541
G1 X20.851 Y27.905 E0.71512
G1 X21.48 Y27.741 E0.73674
G1 X22.398 Y27.551 E0.76792
G1 X23.025 Y27.467 E0.78897
G1 X23.572 Y27.41 E0.80726
G1 X24.22 Y27.357 E0.82888
G1 X24.869 Y27.328 E0.85049
G1 X25.666 Y27.316 E0.877
G1 X87.639 Y27.316 E2.93823
G1 X88.345 Y27.326 E2.96171
G1 X88.801 Y27.342 E2.97689
G1 X89.564 Y27.393 E3.00232
G1 X90.053 Y27.44 E3.01866
G1 X90.655 Y27.515 E3.03884
G1 X93.522 Y27.911 E3.1351
G1 X96.04 Y28.182 E3.21934
G1 X98.553 Y28.381 E3.30318
G1 X101.072 Y28.509 E3.38707
G1 X103.567 Y28.565 E3.47008
G1 X106.086 Y28.55 E3.55386
G1 X108.618 Y28.463 E3.63812
G1 X111.118 Y28.307 E3.72144
G1 X113.632 Y28.078 E3.8054
G1 X116.152 Y27.777 E3.88981
G1 X117.134 Y27.632 E3.92282
G1 X118.334 Y27.476 E3.96307
G1 X119.284 Y27.381 E3.99483
G1 X119.607 Y27.357 E4.0056
G1 X120.256 Y27.328 E4.02721
G1 X121.053 Y27.316 E4.05372
G1 X183.026 Y27.316 E6.11495
G1 X183.731 Y27.326 E6.1384
G1 X184.187 Y27.342 E6.15358
G1 X184.919 Y27.39 E6.17797
G1 X185.359 Y27.431 E6.19267
G1 X186.451 Y27.589 E6.22937
G1 X186.732 Y27.644 E6.23889
G1 X187.369 Y27.788 E6.26062
G1 X187.888 Y27.922 E6.27844
G1 X189.009 Y28.277 E6.31755
G1 X189.775 Y28.579 E6.34494
G1 X190.275 Y28.796 E6.36307
G1 X191.391 Y29.358 E6.40463
G1 X191.963 Y29.698 E6.42676
G1 X192.436 Y29.997 E6.44537
G1 X193.43 Y30.705 E6.48596
G1 X194.042 Y31.211 E6.51237
G1 X194.757 Y31.853 E6.54433
G1 X195.274 Y32.351 E6.56821
G1 X205.753 Y42.829 E7.06108
G1 X206.325 Y43.418 E7.08839
G1 X206.742 Y43.872 E7.1089
G1 X207.315 Y44.539 E7.13814
G1 X207.531 Y44.803 E7.14949
G1 X208.093 Y45.554 E7.18069
G1 X208.455 Y46.118 E7.20298
G1 X208.74 Y46.594 E7.22143
G1 X209.048 Y47.135 E7.24213
G1 X209.473 Y47.971 E7.27333
G1 X209.73 Y48.586 E7.29549
G1 X209.936 Y49.123 E7.31462
G1 X210.162 Y49.759 E7.33707
G1 X210.43 Y50.658 E7.36828
G1 X210.562 Y51.247 E7.38835
G1 X210.675 Y51.828 E7.40804
G1 X210.788 Y52.499 E7.43067
G1 X210.897 Y53.431 E7.46188
G1 X210.926 Y54.07 E7.48315
G1 X210.934 Y54.589 E7.50042
G1 X210.929 Y55.271 E7.5231
G1 X210.876 Y56.208 E7.55432
G1 X210.796 Y56.829 E7.57514
G1 X210.713 Y57.356 E7.59289
G1 X210.589 Y58.039 E7.61597
G1 X210.374 Y58.952 E7.64717
G1 X210.187 Y59.553 E7.66811
G1 X210.004 Y60.086 E7.68685
G1 X209.755 Y60.753 E7.71053
G1 X209.382 Y61.613 E7.74171
G1 X209.111 Y62.137 E7.76133
G1 X208.831 Y62.643 E7.78056
G1 X208.487 Y63.23 E7.80319
G1 X207.971 Y64.013 E7.83438
G1 X207.589 Y64.513 E7.85531
G1 X207.227 Y64.959 E7.87442
G1 X206.811 Y65.449 E7.89579
G1 X206.385 Y65.914 E7.91677
G1 X205.738 Y66.58 E7.94765
G1 X195.279 Y77.037 E8.43956
G1 X194.69 Y77.604 E8.46676
G1 X194.129 Y78.108 E8.49184
G1 X193.615 Y78.539 E8.51415
G1 X192.612 Y79.287 E8.55577
G1 X191.982 Y79.687 E8.58059
G1 X191.481 Y79.984 E8.59996
G1 X190.331 Y80.578 E8.64301
G1 X189.72 Y80.84 E8.66512
G1 X189.224 Y81.038 E8.68288
G1 X188.03 Y81.437 E8.72475
G1 X187.3 Y81.624 E8.74982
G1 X186.783 Y81.74 E8.76744
G1 X185.569 Y81.942 E8.80837
G1 X184.722 Y82.02 E8.83666
G1 X184.043 Y82.059 E8.85928
G1 X183.413 Y82.077 E8.88025
G1 X121.003 Y82.08 E10.95601
G1 X120.325 Y82.07 E10.97856
G1 X119.708 Y82.043 E10.99911
G1 X118.842 Y81.976 E11.02799
G1 X118.18 Y81.905 E11.05014
G1 X117.71 Y81.844 E11.0659
G1 X115.88 Y81.579 E11.1274
G1 X113.347 Y81.285 E11.21222
G1 X110.86 Y81.067 E11.29525
G1 X108.338 Y80.918 E11.37928
G1 X105.817 Y80.841 E11.46317
G1 X103.293 Y80.834 E11.54712
G1 X100.796 Y80.899 E11.6302
G1 X98.292 Y81.034 E11.7136
G1 X95.757 Y81.243 E11.7982
G1 X93.302 Y81.516 E11.88036
G1 X91.971 Y81.709 E11.92509
G1 X91.743 Y81.732 E11.93271
G1 X90.476 Y81.906 E11.97525
G1 X89.868 Y81.976 E11.9956
G1 X89.334 Y82.02 E12.01342
G1 X88.659 Y82.059 E12.03591
G1 X88.026 Y82.077 E12.05697
G1 X25.616 Y82.08 E14.13274
G1 X24.938 Y82.07 E14.15529
G1 X24.321 Y82.043 E14.17583
G1 X23.8 Y82.006 E14.19321
G1 X23.107 Y81.941 E14.21636
G1 X22.178 Y81.807 E14.24758
G1 X21.531 Y81.665 E14.26961
G1 X20.998 Y81.531 E14.28789
G1 X20.406 Y81.369 E14.3083
G1 X19.514 Y81.078 E14.33951
G1 X18.871 Y80.814 E14.36263
G1 X18.351 Y80.581 E14.38158
G1 X17.765 Y80.303 E14.40315
G1 X16.939 Y79.86 E14.43432
G1 X16.376 Y79.502 E14.45652
G1 X15.711 Y79.047 E14.48331
G1 X15.417 Y78.836 E14.49535
G1 X14.679 Y78.257 E14.52655
G1 X14.172 Y77.794 E14.54939
G1 X13.771 Y77.405 E14.56797
G1 X13.326 Y76.955 E14.58902
G1 X12.701 Y76.256 E14.6202
G1 X12.303 Y75.741 E14.64185
G1 X11.967 Y75.278 E14.66088
G1 X11.611 Y74.763 E14.6817
G1 X11.116 Y73.967 E14.71288
G1 X10.807 Y73.377 E14.73503
G1 X10.548 Y72.844 E14.75474
G1 X10.286 Y72.272 E14.77567
G1 X9.937 Y71.401 E14.80687
G1 X9.732 Y70.754 E14.82945
G1 X9.593 Y70.264 E14.84639
G1 X9.422 Y69.609 E14.8689
G1 X9.23 Y68.691 E14.9001
G1 X9.142 Y68.041 E14.92191
G1 X9.086 Y67.504 E14.93987
G1 X9.033 Y66.841 E14.96199
G1 X9.004 Y66.202 E14.98327
G1 X8.992 Y65.406 E15.00975
G1 X8.992 Y43.94 E15.72371
G0 F6000 X9.392 Y43.946
G1 F1200 X9.402 Y43.268 E15.74626
G1 X9.428 Y42.673 E15.76607
G1 X9.465 Y42.152 E15.78344
G1 X9.53 Y41.465 E15.80639
G1 X9.663 Y40.554 E15.83702
G1 X9.795 Y39.956 E15.85738
G1 X9.935 Y39.399 E15.87649
G1 X10.097 Y38.809 E15.89684
G1 X10.385 Y37.935 E15.92744
G1 X10.62 Y37.363 E15.94801
G1 X10.833 Y36.886 E15.96539
G1 X11.115 Y36.291 E15.98729
G1 X11.549 Y35.48 E16.01788
G1 X11.886 Y34.949 E16.0388
G1 X12.212 Y34.467 E16.05815
G1 X12.591 Y33.934 E16.0799
G1 X13.163 Y33.213 E16.11051
G1 X13.564 Y32.774 E16.13029
G1 X13.935 Y32.391 E16.14802
G1 X14.402 Y31.931 E16.16983
G1 X15.09 Y31.319 E16.20045
G1 X15.556 Y30.961 E16.22
G1 X16.056 Y30.598 E16.24055
G1 X16.596 Y30.226 E16.26236
G1 X17.381 Y29.744 E16.293
G1 X17.88 Y29.485 E16.3117
G1 X18.609 Y29.134 E16.33861
G1 X18.941 Y28.984 E16.35072
G1 X19.795 Y28.642 E16.38132
G1 X20.391 Y28.453 E16.40212
G1 X20.961 Y28.29 E16.42183
G1 X21.577 Y28.129 E16.44301
G1 X22.479 Y27.943 E16.47364
G1 X23.066 Y27.865 E16.49334
G1 X23.613 Y27.808 E16.51163
G1 X24.25 Y27.756 E16.53289
G1 X24.875 Y27.728 E16.5537
G1 X25.672 Y27.716 E16.58021
G1 X87.633 Y27.716 E18.64104
G1 X88.339 Y27.726 E18.66452
G1 X89.102 Y27.759 E18.68992
G1 X90.015 Y27.839 E18.72041
G1 X90.595 Y27.911 E18.73985
G1 X93.492 Y28.31 E18.83711
G1 X96.003 Y28.581 E18.92111
G1 X98.538 Y28.781 E19.00569
G1 X101.043 Y28.908 E19.08911
G1 X103.56 Y28.965 E19.17285
G1 X106.101 Y28.95 E19.25736
G1 X108.656 Y28.862 E19.34239
G1 X111.145 Y28.707 E19.42534
G1 X113.679 Y28.476 E19.50997
G1 X116.157 Y28.18 E19.59297
G1 X117.187 Y28.028 E19.6276
G1 X118.065 Y27.91 E19.65707
G1 X118.997 Y27.808 E19.68825
G1 X119.637 Y27.756 E19.70961
G1 X120.262 Y27.728 E19.73042
G1 X121.059 Y27.716 E19.75693
G1 X183.02 Y27.716 E21.81776
G1 X183.725 Y27.726 E21.84121
G1 X184.488 Y27.759 E21.86661
G1 X185.321 Y27.83 E21.89442
G1 X186.374 Y27.981 E21.9298
G1 X186.655 Y28.036 E21.93932
G1 X187.269 Y28.176 E21.96027
G1 X187.788 Y28.31 E21.9781
G1 X188.868 Y28.651 E22.01576
G1 X189.616 Y28.946 E22.04251
G1 X190.116 Y29.163 E22.06064
G1 X191.192 Y29.705 E22.10071
G1 X191.749 Y30.036 E22.12226
G1 X192.222 Y30.335 E22.14087
G1 X193.18 Y31.018 E22.18
G1 X193.777 Y31.511 E22.20575
G1 X194.165 Y31.853 E22.22296
G1 X194.48 Y32.143 E22.2372
G1 X194.991 Y32.634 E22.26077
G1 X205.47 Y43.112 E22.75364
G1 X206.038 Y43.696 E22.78074
G1 X206.44 Y44.134 E22.80051
G1 X206.811 Y44.562 E22.81935
G1 X207.221 Y45.057 E22.84073
G1 X207.772 Y45.794 E22.87134
G1 X208.111 Y46.324 E22.89226
G1 X208.542 Y47.05 E22.92034
G1 X208.7 Y47.331 E22.93107
G1 X209.116 Y48.152 E22.96168
G1 X209.357 Y48.729 E22.98248
G1 X209.563 Y49.266 E23.0016
G1 X209.784 Y49.889 E23.02359
G1 X210.046 Y50.772 E23.05423
G1 X210.169 Y51.323 E23.073
G1 X210.282 Y51.904 E23.09269
G1 X210.393 Y52.563 E23.11492
G1 X210.5 Y53.477 E23.14552
G1 X210.526 Y54.077 E23.1655
G1 X210.534 Y54.596 E23.18276
G1 X210.529 Y55.266 E23.20505
G1 X210.476 Y56.185 E23.23566
G1 X210.401 Y56.767 E23.25518
G1 X210.318 Y57.294 E23.27293
G1 X210.196 Y57.964 E23.29558
G1 X209.984 Y58.86 E23.3262
G1 X209.809 Y59.423 E23.34581
G1 X209.626 Y59.956 E23.36455
G1 X209.382 Y60.609 E23.38774
G1 X209.015 Y61.454 E23.41838
G1 X208.761 Y61.943 E23.43671
G1 X208.481 Y62.449 E23.45594
G1 X208.143 Y63.025 E23.47815
G1 X207.637 Y63.793 E23.50874
G1 X207.278 Y64.261 E23.52836
G1 X206.71 Y64.954 E23.55816
G1 X206.508 Y65.188 E23.56845
G1 X206.098 Y65.636 E23.58864
G1 X205.574 Y66.177 E23.61369
G1 X195.001 Y76.749 E24.11099
G1 X194.412 Y77.316 E24.13818
G1 X193.872 Y77.801 E24.16233
G1 X193.358 Y78.232 E24.18464
G1 X192.392 Y78.953 E24.22473
G1 X191.778 Y79.343 E24.24892
G1 X191.277 Y79.64 E24.26829
G1 X190.169 Y80.212 E24.30977
G1 X189.572 Y80.469 E24.33138
G1 X189.076 Y80.667 E24.34915
G1 X187.925 Y81.051 E24.3895
G1 X187.213 Y81.234 E24.41395
G1 X186.696 Y81.35 E24.43158
G1 X185.525 Y81.544 E24.47106
G1 X184.699 Y81.621 E24.49865
G1 X184.02 Y81.66 E24.52127
G1 X183.413 Y81.677 E24.54147
G1 X121.009 Y81.68 E26.61703
G1 X120.331 Y81.67 E26.63958
G1 X119.736 Y81.644 E26.65939
G1 X118.883 Y81.579 E26.68785
G1 X118.513 Y81.541 E26.70022
G1 X117.762 Y81.447 E26.72539
G1 X115.912 Y81.18 E26.78756
G1 X113.43 Y80.892 E26.87066
G1 X110.879 Y80.668 E26.95584
G1 X108.34 Y80.518 E27.04043
G1 X105.83 Y80.441 E27.12395
G1 X103.284 Y80.434 E27.20863
G1 X100.8 Y80.498 E27.29128
G1 X98.236 Y80.636 E27.37668
G1 X95.716 Y80.845 E27.46079
G1 X93.257 Y81.118 E27.54308
G1 X91.913 Y81.313 E27.58825
G1 X91.702 Y81.334 E27.5953
G1 X90.422 Y81.51 E27.63827
G1 X89.825 Y81.578 E27.65826
G1 X89.311 Y81.62 E27.67541
G1 X88.636 Y81.659 E27.6979
G1 X88.026 Y81.677 E27.71819
G1 X25.622 Y81.68 E29.79376
G1 X24.944 Y81.67 E29.81631
G1 X24.349 Y81.644 E29.83612
G1 X23.828 Y81.607 E29.85349
G1 X23.147 Y81.543 E29.87624
G1 X22.236 Y81.411 E29.90686
G1 X21.629 Y81.277 E29.92753
G1 X21.096 Y81.143 E29.94581
G1 X20.513 Y80.984 E29.96591
G1 X19.638 Y80.698 E29.99653
G1 X19.035 Y80.449 E30.01823
G1 X18.237 Y80.087 E30.04737
G1 X17.939 Y79.943 E30.05838
G1 X17.128 Y79.507 E30.08901
G1 X16.6 Y79.171 E30.10982
G1 X15.944 Y78.722 E30.13626
G1 X15.65 Y78.511 E30.1483
G1 X14.927 Y77.942 E30.1789
G1 X14.45 Y77.507 E30.20037
G1 X14.049 Y77.118 E30.21895
G1 X13.612 Y76.676 E30.23963
G1 X12.999 Y75.989 E30.27025
G1 X12.627 Y75.506 E30.29053
G1 X12.291 Y75.043 E30.30955
G1 X11.941 Y74.538 E30.32999
G1 X11.457 Y73.756 E30.36058
G1 X11.167 Y73.202 E30.38138
G1 X10.908 Y72.669 E30.40109
G1 X10.65 Y72.108 E30.42162
G1 X10.309 Y71.253 E30.45224
G1 X10.116 Y70.645 E30.47346
G1 X9.977 Y70.155 E30.4904
G1 X9.81 Y69.511 E30.51252
G1 X9.622 Y68.61 E30.54314
G1 X9.54 Y67.999 E30.56364
G1 X9.484 Y67.462 E30.5816
G1 X9.431 Y66.812 E30.60329
G1 X9.404 Y66.196 E30.6238
G1 X9.392 Y65.4 E30.65028
G1 X9.392 Y43.946 E31.36384
G0 F6000 X9.792 Y43.952
G1 F1200 X9.802 Y43.274 E31.38639
G1 X9.827 Y42.701 E31.40547
G1 X9.864 Y42.18 E31.42284
G1 X9.928 Y41.506 E31.44536
G1 X10.059 Y40.612 E31.47541
G1 X10.183 Y40.054 E31.49442
G1 X10.323 Y39.497 E31.51352
G1 X10.482 Y38.918 E31.53349
G1 X10.765 Y38.06 E31.56354
G1 X10.985 Y37.526 E31.58275
G1 X11.198 Y37.049 E31.60013
G1 X11.475 Y36.465 E31.62163
G1 X11.902 Y35.669 E31.65167
G1 X12.217 Y35.174 E31.67118
G1 X12.543 Y34.692 E31.69054
G1 X12.915 Y34.169 E31.71188
G1 X13.476 Y33.461 E31.74193
G1 X13.852 Y33.052 E31.76041
G1 X14.223 Y32.669 E31.77814
G1 X14.681 Y32.218 E31.79952
G1 X15.356 Y31.618 E31.82956
G1 X15.791 Y31.285 E31.84778
G1 X16.291 Y30.922 E31.86833
G1 X16.82 Y30.557 E31.88971
G1 X17.59 Y30.086 E31.91973
G1 X18.055 Y29.844 E31.93716
G1 X18.502 Y29.626 E31.9537
G1 X19.105 Y29.349 E31.97578
G1 X19.944 Y29.014 E32.00582
G1 X20.501 Y28.837 E32.02526
G1 X21.071 Y28.674 E32.04498
G1 X21.675 Y28.517 E32.06574
G1 X22.56 Y28.335 E32.09579
G1 X23.108 Y28.263 E32.11417
G1 X23.655 Y28.206 E32.13246
G1 X24.279 Y28.155 E32.15329
G1 X24.881 Y28.128 E32.17333
G1 X25.678 Y28.116 E32.19984
G1 X87.627 Y28.116 E34.26027
G1 X88.333 Y28.126 E34.28376
G1 X89.08 Y28.159 E34.30863
G1 X89.977 Y28.237 E34.33857
G1 X90.535 Y28.306 E34.35727
G1 X93.467 Y28.71 E34.45571
G1 X95.964 Y28.979 E34.53924
G1 X98.485 Y29.179 E34.62336
G1 X101.05 Y29.309 E34.70878
G1 X103.554 Y29.365 E34.79208
G1 X106.118 Y29.35 E34.87736
G1 X108.659 Y29.263 E34.96193
G1 X111.17 Y29.106 E35.04561
G1 X113.73 Y28.872 E35.13111
G1 X116.227 Y28.575 E35.21474
G1 X117.098 Y28.445 E35.24403
G1 X118.118 Y28.307 E35.27827
G1 X119.039 Y28.206 E35.30908
G1 X119.666 Y28.155 E35.33001
G1 X120.268 Y28.128 E35.35005
G1 X121.065 Y28.116 E35.37656
G1 X183.015 Y28.116 E37.43703
G1 X183.72 Y28.126 E37.46048
G1 X184.143 Y28.141 E37.47456
G1 X184.844 Y28.187 E37.49792
G1 X185.284 Y28.228 E37.51262
G1 X186.297 Y28.374 E37.54666
G1 X186.578 Y28.429 E37.55618
G1 X187.169 Y28.563 E37.57634
G1 X187.688 Y28.697 E37.59417
G1 X188.728 Y29.025 E37.63044
G1 X189.457 Y29.313 E37.65651
G1 X189.957 Y29.53 E37.67464
G1 X190.992 Y30.051 E37.71318
G1 X191.535 Y30.374 E37.73419
G1 X192.008 Y30.673 E37.7528
G1 X192.93 Y31.33 E37.79046
G1 X193.513 Y31.811 E37.81559
G1 X194.204 Y32.432 E37.84649
G1 X194.708 Y32.917 E37.86976
G1 X205.187 Y43.395 E38.36264
G1 X205.751 Y43.975 E38.38954
G1 X206.137 Y44.396 E38.40854
G1 X206.508 Y44.824 E38.42738
G1 X206.911 Y45.31 E38.44838
G1 X207.452 Y46.034 E38.47844
G1 X207.768 Y46.529 E38.49797
G1 X208.053 Y47.005 E38.51642
G1 X208.351 Y47.527 E38.53642
G1 X208.758 Y48.333 E38.56645
G1 X208.983 Y48.873 E38.5859
G1 X209.189 Y49.41 E38.60503
G1 X209.406 Y50.02 E38.62657
G1 X209.663 Y50.886 E38.65661
G1 X209.776 Y51.4 E38.67412
G1 X209.889 Y51.981 E38.6938
G1 X209.998 Y52.626 E38.71556
G1 X210.102 Y53.523 E38.74559
G1 X210.126 Y54.083 E38.76424
G1 X210.134 Y54.602 E38.7815
G1 X210.129 Y55.26 E38.80339
