; generated by PrusaSlicer 2.5.0+MacOS-x64 on 2022-09-12 at 06:59:56 UTC

; 

; external perimeters extrusion width = 0.42mm
; perimeters extrusion width = 0.44mm
; infill extrusion width = 0.44mm
; solid infill extrusion width = 0.44mm
; top infill extrusion width = 0.40mm
; first layer extrusion width = 0.42mm

M107
;TYPE:Custom
G90 ; use absolute coordinates
M83 ; extruder relative mode
M140 S65 ; set final bed temp
M104 S150 ; set temporary nozzle temp to prevent oozing during homing
G4 S10 ; allow partial nozzle warmup
G28 ; home all axis
G29 ;
G1 Z50 F240
G1 X2 Y10 F3000
M104 S200 ; set final nozzle temp
M190 S65 ; wait for bed temp to stabilize
M109 S200 ; wait for nozzle temp to stabilize
G1 Z0.28 F240
G92 E0
G1 Y140 E10 F1500 ; prime the nozzle
G1 X2.3 F5000
G92 E0
G1 Y10 E10 F1200 ; prime the nozzle
G92 E0
G21 ; set units to millimeters
G90 ; use absolute coordinates
M83 ; use relative distances for extrusion
; Filament gcode
M107
;LAYER_CHANGE
;Z:0.2
;HEIGHT:0.2
;BEFORE_LAYER_CHANGE
G92 E0
;0.2


G1 E-5 F3600
G1 Z.2 F9000
;AFTER_LAYER_CHANGE
;0.2
G1 X110.972 Y110.769
G1 E5 F2400
M204 S500
;TYPE:Skirt/Brim
;WIDTH:0.42
G1 F900
G1 X113.246 Y109.312 E.08466
G1 X114.305 Y109.024 E.03441
G1 X116.19 Y108.921 E.05921
G1 X117.378 Y109.281 E.03892
G1 X118.985 Y110.023 E.05548
G1 X120.496 Y111.156 E.05921
G1 X121.328 Y112.564 E.05127
G1 X121.823 Y113.915 E.04512
G1 X122.087 Y115.785 E.05921
G1 X121.83 Y117.001 E.03898
G1 X121.34 Y118.354 E.04512
G1 X120.34 Y119.956 E.05921
G1 X119.008 Y120.905 E.05126
G1 X117.402 Y121.655 E.05558
G1 X115.562 Y122.078 E.05921
G1 X114.324 Y121.924 E.03912
G1 X113.264 Y121.639 E.03442
G1 X111.583 Y120.777 E.05921
G1 X110.524 Y119.53 E.05131
G1 X109.485 Y117.718 E.06548
G1 X108.909 Y115.92 E.05921
G1 X108.956 Y114.685 E.03875
G1 X109.086 Y113.954 E.02328
G1 X110.068 Y111.849 E.07281
G1 X110.934 Y110.815 E.04231
G1 X111.223 Y111.057 F9000
G1 F900
G1 X111.261 Y111.011 E.00188
G1 X113.345 Y109.676 E.07758
G1 X114.404 Y109.388 E.03441
G1 X116.209 Y109.306 E.05665
G1 X117.22 Y109.623 E.03323
G1 X118.827 Y110.365 E.05548
G1 X120.262 Y111.463 E.05665
G1 X120.974 Y112.693 E.04457
G1 X121.469 Y114.045 E.04512
G1 X121.705 Y115.836 E.05665
G1 X121.475 Y116.873 E.03329
G1 X120.985 Y118.226 E.04512
G1 X120.014 Y119.749 E.05665
G1 X118.849 Y120.563 E.04456
G1 X117.243 Y121.313 E.05558
G1 X115.478 Y121.702 E.05665
G1 X114.422 Y121.56 E.03342
G1 X113.362 Y121.275 E.03442
G1 X111.762 Y120.435 E.05665
G1 X110.852 Y119.342 E.0446
G1 X109.812 Y117.531 E.06548
G1 X109.277 Y115.805 E.05665
G1 X109.327 Y114.751 E.03308
G1 X109.457 Y114.02 E.02328
G1 X110.357 Y112.091 E.06672
G1 X111.184 Y111.103 E.04043
G1 X111.474 Y111.345 F9000
G1 F900
G1 X111.551 Y111.253 E.00376
G1 X113.444 Y110.04 E.0705
G1 X114.503 Y109.751 E.03441
G1 X116.223 Y109.692 E.05397
G1 X117.062 Y109.966 E.02766
G1 X118.669 Y110.707 E.05548
G1 X120.024 Y111.768 E.05397
G1 X120.62 Y112.823 E.03799
G1 X121.115 Y114.174 E.04512
G1 X121.321 Y115.884 E.05397
G1 X121.121 Y116.744 E.02771
G1 X120.631 Y118.098 E.04512
G1 X119.69 Y119.539 E.05397
G1 X118.689 Y120.222 E.03797
G1 X117.083 Y120.972 E.05558
G1 X115.398 Y121.323 E.05397
G1 X114.52 Y121.196 E.02783
G1 X113.46 Y120.911 E.03442
G1 X111.944 Y120.094 E.05397
G1 X111.179 Y119.154 E.03801
G1 X110.139 Y117.343 E.06548
G1 X109.647 Y115.693 E.05397
G1 X109.829 Y114.086 E.05072
G1 X110.646 Y112.333 E.06063
G1 X111.435 Y111.391 E.03855
G1 X111.724 Y111.633 F9000
G1 F900
G1 X111.84 Y111.495 E.00564
G1 X113.543 Y110.403 E.06342
G1 X114.602 Y110.115 E.03441
G1 X116.904 Y110.308 E.07244
G1 X118.511 Y111.05 E.05548
G1 X119.783 Y112.071 E.05115
G1 X120.266 Y112.953 E.03153
G1 X120.761 Y114.304 E.04512
G1 X120.766 Y116.616 E.07248
G1 X120.276 Y117.969 E.04512
G1 X119.367 Y119.324 E.05115
G1 X118.53 Y119.88 E.03152
G1 X116.924 Y120.63 E.05558
G1 X114.618 Y120.832 E.07258
G1 X113.557 Y120.546 E.03442
G1 X112.131 Y119.755 E.05115
G1 X111.506 Y118.966 E.03155
G1 X110.466 Y117.155 E.06548
G1 X110.07 Y114.883 E.07232
G1 X110.2 Y114.152 E.02328
G1 X110.935 Y112.575 E.05454
G1 X111.686 Y111.679 E.03666
G1 E-3.5 F3600
;WIPE_START
G1 F7200
G1 X111.84 Y111.495 E-.114
G1 X113.543 Y110.403 E-.96074
G1 X114.254 Y110.21 E-.35026
;WIPE_END
G1 E-.075 F3600
G1 X114.511 Y115.279 F9000
G1 E5 F2400
;TYPE:Perimeter
;WIDTH:0.419999
G1 F900
G1 X114.523 Y115.207 E.0023
G1 X115.032 Y114.601 E.02481
G1 X115.396 Y114.503 E.0118
G1 X116.249 Y114.899 E.0295
G1 X116.458 Y115.472 E.01913
G1 X116.249 Y116.045 E.01913
G1 X115.397 Y116.442 E.02949
G1 X115.137 Y116.372 E.00842
G1 X114.54 Y115.331 E.03761
G1 X114.888 Y116.695 F9000
G1 F900
G1 X114.115 Y115.348 E.0487
G1 X114.17 Y115.042 E.00976
G1 X114.82 Y114.268 E.03168
G1 X115.43 Y114.103 E.01981
G1 X116.55 Y114.623 E.03871
G1 X116.859 Y115.472 E.02834
G1 X116.55 Y116.321 E.02834
G1 X115.431 Y116.842 E.0387
G1 X114.946 Y116.711 E.01575
G1 X114.639 Y117.019 F9000
;TYPE:External perimeter
G1 F900
G1 X113.72 Y115.417 E.0579
G1 X113.816 Y114.876 E.01721
G1 X114.607 Y113.935 E.03855
G1 X115.464 Y113.703 E.02783
G1 X116.85 Y114.346 E.04792
G1 X117.261 Y115.472 E.03755
G1 X116.851 Y116.597 E.03756
G1 X115.465 Y117.241 E.04791
G1 X114.697 Y117.034 E.02496
G1 X114.684 Y116.621 F9000
G1 X116.192 Y115.85
;TYPE:Solid infill
;WIDTH:0.444983
G1 F900
G1 X115.196 Y114.858 E.04701
G1 X114.938 Y115.165 E.01342
G1 X115.864 Y116.091 E.04379
M106 S255
;LAYER_CHANGE
;Z:0.32
;HEIGHT:0.12
;BEFORE_LAYER_CHANGE
G92 E0
;0.32


G1 E-3.5 F3600
;WIPE_START
G1 F7200
G1 X114.938 Y115.165 E-.62221
G1 X115.196 Y114.858 E-.19068
G1 X116.109 Y115.767 E-.61211
;WIPE_END
G1 E-.075 F3600
G1 Z.32 F9000
;AFTER_LAYER_CHANGE
;0.32
G1 X121.562 Y117.741
G1 E5 F2400
;TYPE:Skirt/Brim
;WIDTH:0.42
G1 F900
G1 X121.34 Y118.354 E.01283
G1 X120.34 Y119.956 E.03715
G1 X119.008 Y120.905 E.03216
G1 X117.402 Y121.655 E.03487
G1 X115.562 Y122.078 E.03715
G1 X114.324 Y121.924 E.02454
G1 X113.264 Y121.639 E.02159
G1 X111.583 Y120.777 E.03715
G1 X110.524 Y119.53 E.03219
G1 X109.485 Y117.718 E.04108
G1 X108.909 Y115.92 E.03715
G1 X108.956 Y114.685 E.02431
G1 X109.086 Y113.954 E.01461
G1 X110.068 Y111.849 E.04567
G1 X110.972 Y110.769 E.02772
G1 X113.246 Y109.312 E.05311
G1 X114.305 Y109.024 E.02159
G1 X116.19 Y108.921 E.03715
G1 X117.378 Y109.281 E.02441
G1 X118.985 Y110.023 E.0348
G1 X120.496 Y111.156 E.03715
G1 X121.328 Y112.564 E.03216
G1 X121.823 Y113.915 E.02831
G1 X122.087 Y115.785 E.03715
G1 X121.83 Y117.001 E.02445
G1 X121.582 Y117.684 E.01429
G1 X121.228 Y117.556 F9000
G1 F900
G1 X120.985 Y118.226 E.01401
G1 X120.014 Y119.749 E.03554
G1 X118.849 Y120.563 E.02795
G1 X117.243 Y121.313 E.03487
G1 X115.478 Y121.702 E.03554
G1 X114.422 Y121.56 E.02096
G1 X113.362 Y121.275 E.02159
G1 X111.762 Y120.435 E.03554
G1 X110.852 Y119.342 E.02798
G1 X109.812 Y117.531 E.04108
G1 X109.277 Y115.805 E.03554
G1 X109.327 Y114.751 E.02075
G1 X109.457 Y114.02 E.01461
G1 X110.357 Y112.091 E.04185
G1 X111.261 Y111.011 E.02772
G1 X113.345 Y109.676 E.04867
G1 X114.404 Y109.388 E.02159
G1 X116.209 Y109.306 E.03554
G1 X117.22 Y109.623 E.02085
G1 X118.827 Y110.365 E.0348
G1 X120.262 Y111.463 E.03554
G1 X120.974 Y112.693 E.02796
G1 X121.469 Y114.045 E.02831
G1 X121.705 Y115.836 E.03554
G1 X121.475 Y116.873 E.02088
G1 X121.248 Y117.499 E.01311
G1 X120.894 Y117.371 F9000
G1 F900
G1 X120.631 Y118.098 E.01519
G1 X119.69 Y119.539 E.03386
G1 X118.689 Y120.222 E.02382
G1 X117.083 Y120.972 E.03487
G1 X115.398 Y121.323 E.03386
G1 X114.52 Y121.196 E.01746
G1 X113.46 Y120.911 E.02159
G1 X111.944 Y120.094 E.03386
G1 X111.179 Y119.154 E.02385
G1 X110.139 Y117.343 E.04108
G1 X109.647 Y115.693 E.03386
G1 X109.829 Y114.086 E.03182
G1 X110.646 Y112.333 E.03803
G1 X111.551 Y111.253 E.02772
G1 X113.444 Y110.04 E.04422
G1 X114.503 Y109.751 E.02159
G1 X116.223 Y109.692 E.03386
G1 X117.062 Y109.966 E.01735
G1 X118.669 Y110.707 E.0348
G1 X120.024 Y111.768 E.03386
G1 X120.62 Y112.823 E.02383
G1 X121.115 Y114.174 E.02831
G1 X121.321 Y115.884 E.03386
G1 X121.121 Y116.744 E.01738
G1 X120.914 Y117.315 E.01193
G1 X120.56 Y117.186 F9000
G1 F900
G1 X120.276 Y117.969 E.01637
G1 X119.367 Y119.324 E.03209
G1 X118.53 Y119.88 E.01977
G1 X116.924 Y120.63 E.03487
G1 X114.618 Y120.832 E.04553
G1 X113.557 Y120.546 E.02159
G1 X112.131 Y119.755 E.03209
G1 X111.506 Y118.966 E.01979
G1 X110.466 Y117.155 E.04108
G1 X110.07 Y114.883 E.04537
G1 X110.2 Y114.152 E.01461
G1 X110.935 Y112.575 E.03421
G1 X111.84 Y111.495 E.02772
G1 X113.543 Y110.403 E.03978
G1 X114.602 Y110.115 E.02159
G1 X116.904 Y110.308 E.04544
G1 X118.511 Y111.05 E.0348
G1 X119.783 Y112.071 E.03209
G1 X120.266 Y112.953 E.01978
G1 X120.761 Y114.304 E.02831
G1 X120.766 Y116.616 E.04547
G1 X120.58 Y117.13 E.01075
G1 E-3.5 F3600
;WIPE_START
G1 F7200
G1 X120.276 Y117.969 E-.42393
G1 X119.367 Y119.324 E-.77494
G1 X118.97 Y119.587 E-.22612
;WIPE_END
G1 E-.075 F3600
G1 X116.279 Y116.069 F9000
G1 E5 F2400
;TYPE:Perimeter
;WIDTH:0.439999
G1 F900
G1 X115.401 Y116.479 E.02001
G1 X115.115 Y116.402 E.00612
G1 X114.473 Y115.287 E.0266
G1 X114.49 Y115.192 E.00198
G1 X115.011 Y114.57 E.01678
G1 X115.397 Y114.465 E.00827
G1 X116.276 Y114.871 E.02001
G1 X116.496 Y115.469 E.01318
G1 X116.299 Y116.012 E.01194
G1 X116.606 Y114.567 F9000
G1 F900
G1 X116.937 Y115.468 E.01985
G1 X116.61 Y116.372 E.01985
G1 X115.44 Y116.918 E.02668
G1 X114.842 Y116.758 E.01279
G1 X114.039 Y115.363 E.03327
G1 X114.101 Y115.011 E.00738
G1 X114.777 Y114.204 E.02175
G1 X115.434 Y114.025 E.01408
G1 X116.552 Y114.541 E.02544
G1 X116.928 Y114.27 F9000
;TYPE:External perimeter
;WIDTH:0.419999
G1 F900
G1 X117.367 Y115.467 E.02509
G1 X116.933 Y116.667 E.02509
G1 X115.478 Y117.346 E.03159
G1 X114.576 Y117.105 E.01837
G1 X113.616 Y115.437 E.03785
G1 X113.722 Y114.835 E.01204
G1 X114.548 Y113.847 E.02532
G1 X115.47 Y113.597 E.01879
G1 X116.873 Y114.245 E.03041
G1 X116.791 Y114.646 F9000
G1 X116.204 Y115.059
;TYPE:Solid infill
;WIDTH:0.456024
G1 F900
G1 X115.256 Y116.007 E.02878
G1 X115.034 Y115.621 E.00957
G1 X115.7 Y114.956 E.02021
G1 X115.369 Y114.803 E.00782
G1 X115.197 Y114.85 E.00382
G1 X114.675 Y115.372 E.01585
;LAYER_CHANGE
;Z:0.44
;HEIGHT:0.12
;BEFORE_LAYER_CHANGE
G92 E0
;0.44


G1 E-3.5 F3600
;WIPE_START
G1 F7200
G1 X115.197 Y114.85 E-.35065
G1 X115.369 Y114.803 E-.08451
G1 X115.7 Y114.956 E-.17307
G1 X115.034 Y115.621 E-.44713
G1 X115.256 Y116.007 E-.21166
G1 X115.492 Y115.772 E-.15799
;WIPE_END
G1 E-.075 F3600
G1 Z.44 F9000
;AFTER_LAYER_CHANGE
;0.44
G1 X116.275 Y114.869
G1 E5 F2400
;TYPE:Perimeter
;WIDTH:0.439999
G1 F900
G1 X116.495 Y115.468 E.01317
G1 X116.279 Y116.067 E.01317
G1 X115.402 Y116.478 E.02
G1 X115.117 Y116.401 E.00611
G1 X114.474 Y115.287 E.02659
G1 X114.49 Y115.193 E.00198
G1 X115.01 Y114.57 E.01677
G1 X115.396 Y114.465 E.00827
G1 X116.221 Y114.844 E.01876
G1 X116.605 Y114.565 F9000
G1 F900
G1 X116.936 Y115.466 E.01984
G1 X116.61 Y116.369 E.01984
G1 X115.442 Y116.917 E.02667
G1 X114.844 Y116.757 E.01279
G1 X114.039 Y115.364 E.03326
G1 X114.101 Y115.012 E.00738
G1 X114.776 Y114.205 E.02174
G1 X115.432 Y114.025 E.01407
G1 X116.55 Y114.54 E.02543
G1 X116.926 Y114.268 F9000
;TYPE:External perimeter
;WIDTH:0.419999
G1 F900
G1 X117.366 Y115.465 E.02508
G1 X116.934 Y116.664 E.02508
G1 X115.48 Y117.345 E.03158
G1 X114.578 Y117.105 E.01836
G1 X113.616 Y115.438 E.03784
G1 X113.722 Y114.836 E.01203
G1 X114.547 Y113.848 E.02532
G1 X115.468 Y113.596 E.01878
G1 X116.872 Y114.243 E.0304
G1 X116.79 Y114.644 F9000
G1 X116.213 Y115.86
;TYPE:Solid infill
;WIDTH:0.441124
G1 F900
G1 X115.191 Y114.851 E.02975
G1 X114.93 Y115.164 E.00844
G1 X115.876 Y116.11 E.02772
;LAYER_CHANGE
;Z:0.56
;HEIGHT:0.12
;BEFORE_LAYER_CHANGE
G92 E0
;0.56


G1 E-3.5 F3600
;WIPE_START
G1 F7200
G1 X114.93 Y115.164 E-.63538
G1 X115.191 Y114.851 E-.19341
G1 X116.084 Y115.733 E-.59621
;WIPE_END
G1 E-.075 F3600
G1 Z.56 F9000
;AFTER_LAYER_CHANGE
;0.56
G1 X116.277 Y114.876
G1 E5 F2400
;TYPE:Perimeter
;WIDTH:0.439999
G1 F900
G1 X116.495 Y115.466 E.01301
G1 X116.279 Y116.065 E.01317
G1 X115.403 Y116.477 E.01999
G1 X115.118 Y116.401 E.00611
G1 X114.501 Y115.335 E.02544
G1 X114.49 Y115.193 E.00294
G1 X115.01 Y114.57 E.01676
G1 X115.393 Y114.465 E.00821
G1 X116.223 Y114.85 E.01891
G1 X116.605 Y114.568 F9000
G1 F900
G1 X116.936 Y115.464 E.01974
G1 X116.611 Y116.367 E.01984
G1 X115.443 Y116.916 E.02666
G1 X114.845 Y116.757 E.01278
G1 X114.04 Y115.364 E.03325
G1 X114.101 Y115.013 E.00737
G1 X114.775 Y114.205 E.02174
G1 X115.43 Y114.025 E.01404
G1 X116.551 Y114.543 E.02552
G1 X116.925 Y114.268 F9000
;TYPE:External perimeter
;WIDTH:0.419999
G1 F900
G1 X117.366 Y115.462 E.02505
G1 X116.935 Y116.662 E.02508
G1 X115.482 Y117.344 E.03157
G1 X114.579 Y117.105 E.01836
G1 X113.616 Y115.44 E.03783
G1 X113.721 Y114.837 E.01203
G1 X114.545 Y113.849 E.02531
G1 X115.466 Y113.596 E.01877
G1 X116.871 Y114.243 E.03042
G1 X116.79 Y114.644 F9000
G1 X116.203 Y115.058
;TYPE:Solid infill
;WIDTH:0.45566
G1 F900
G1 X115.257 Y116.005 E.0287
G1 X115.034 Y115.619 E.00954
G1 X115.696 Y114.958 E.02007
G1 X115.365 Y114.804 E.00784
G1 X115.196 Y114.85 E.00375
G1 X114.675 Y115.371 E.0158
;LAYER_CHANGE
;Z:0.68
;HEIGHT:0.12
;BEFORE_LAYER_CHANGE
G92 E0
;0.68


G1 E-3.5 F3600
;WIPE_START
G1 F7200
G1 X115.196 Y114.85 E-.34984
G1 X115.365 Y114.804 E-.08307
G1 X115.696 Y114.958 E-.17366
G1 X115.034 Y115.619 E-.44458
G1 X115.257 Y116.005 E-.21137
G1 X115.499 Y115.763 E-.16248
;WIPE_END
G1 E-.075 F3600
G1 Z.68 F9000
;AFTER_LAYER_CHANGE
;0.68
G1 X116.276 Y114.874
G1 E5 F2400
;TYPE:Perimeter
;WIDTH:0.439999
G1 F900
G1 X116.494 Y115.464 E.01301
G1 X116.28 Y116.064 E.01316
G1 X115.404 Y116.475 E.01999
G1 X115.119 Y116.4 E.00611
G1 X114.474 Y115.288 E.02657
G1 X114.49 Y115.194 E.00197
G1 X115.009 Y114.57 E.01676
G1 X115.391 Y114.465 E.0082
G1 X116.221 Y114.849 E.0189
G1 X116.604 Y114.566 F9000
G1 F900
G1 X116.935 Y115.462 E.01974
G1 X116.611 Y116.365 E.01983
G1 X115.444 Y116.915 E.02666
G1 X114.847 Y116.757 E.01278
G1 X114.04 Y115.365 E.03324
G1 X114.101 Y115.014 E.00737
G1 X114.774 Y114.205 E.02173
G1 X115.428 Y114.025 E.01403
G1 X116.549 Y114.541 E.02551
G1 X116.924 Y114.266 F9000
;TYPE:External perimeter
;WIDTH:0.419999
G1 F900
G1 X117.366 Y115.46 E.02504
G1 X116.935 Y116.66 E.02507
G1 X115.483 Y117.343 E.03156
G1 X114.581 Y117.104 E.01835
G1 X113.617 Y115.441 E.03782
G1 X113.721 Y114.838 E.01203
G1 X114.544 Y113.849 E.0253
G1 X115.464 Y113.596 E.01876
G1 X116.869 Y114.241 E.03041
G1 X116.788 Y114.642 F9000
G1 X115.575 Y114.696
;TYPE:Solid infill
;WIDTH:0.522848
G1 F900
G1 X116.044 Y115.165 E.01645
G1 X116.155 Y115.466 E.00795
G1 X116.024 Y115.831 E.00963
G1 X115.116 Y114.941 E.03155
G1 X114.836 Y115.277 E.01084
G1 X114.957 Y115.485 E.00596
G1 X115.674 Y116.202 E.02516
;LAYER_CHANGE
;Z:0.8
;HEIGHT:0.12
;BEFORE_LAYER_CHANGE
G92 E0
;0.8


G1 E-3.5 F3600
;WIPE_START
G1 F7200
G1 X114.957 Y115.485 E-.48195
G1 X114.836 Y115.277 E-.1142
G1 X115.116 Y114.941 E-.20763
G1 X116.024 Y115.831 E-.60428
G1 X116.036 Y115.798 E-.01695
;WIPE_END
G1 E-.075 F3600
G1 Z.8 F9000
;AFTER_LAYER_CHANGE
;0.8
G1 X116.28 Y116.062
G1 E5 F2400
;TYPE:Perimeter
;WIDTH:0.439999
G1 F900
G1 X115.405 Y116.474 E.01998
G1 X115.12 Y116.399 E.0061
G1 X114.474 Y115.288 E.02656
G1 X114.49 Y115.194 E.00197
G1 X115.008 Y114.571 E.01675
G1 X115.39 Y114.465 E.00818
G1 X116.275 Y114.872 E.02013
G1 X116.494 Y115.463 E.01302
G1 X116.3 Y116.006 E.01191
G1 X116.612 Y116.363 F9000
G1 F900
G1 X115.446 Y116.913 E.02665
G1 X114.848 Y116.756 E.01277
G1 X114.04 Y115.366 E.03323
G1 X114.101 Y115.015 E.00737
G1 X114.773 Y114.206 E.02173
G1 X115.426 Y114.025 E.01401
G1 X116.602 Y114.564 E.02674
G1 X116.935 Y115.46 E.01974
G1 X116.632 Y116.307 E.01859
G1 X116.936 Y116.657 F9000
;TYPE:External perimeter
;WIDTH:0.419999
G1 F900
G1 X115.485 Y117.342 E.03156
G1 X114.583 Y117.104 E.01835
G1 X113.617 Y115.442 E.03781
G1 X113.721 Y114.84 E.01202
G1 X114.543 Y113.85 E.0253
G1 X115.462 Y113.596 E.01875
G1 X116.922 Y114.264 E.03159
G1 X117.365 Y115.457 E.02504
G1 X116.956 Y116.601 E.02388
G1 X116.547 Y116.567 F9000
G1 X116.202 Y115.057
;TYPE:Solid infill
;WIDTH:0.455299
G1 F900
G1 X115.258 Y116.002 E.02862
G1 X115.035 Y115.617 E.00952
