; generated by PrusaSlicer 2.5.0+MacOS-x64 on 2022-09-10 at 19:31:09 UTC

; 

; external perimeters extrusion width = 0.42mm
; perimeters extrusion width = 0.44mm
; infill extrusion width = 0.44mm
; solid infill extrusion width = 0.44mm
; top infill extrusion width = 0.40mm
; first layer extrusion width = 0.42mm

M107
;TYPE:Custom
G90 ; use absolute coordinates
M83 ; extruder relative mode
M140 S65 ; set final bed temp
M104 S150 ; set temporary nozzle temp to prevent oozing during homing
G4 S10 ; allow partial nozzle warmup
G28 ; home all axis
G29 ;
G1 Z50 F240
G1 X2 Y10 F3000
M104 S200 ; set final nozzle temp
M190 S65 ; wait for bed temp to stabilize
M109 S200 ; wait for nozzle temp to stabilize
G1 Z0.28 F240
G92 E0
G1 Y140 E10 F1500 ; prime the nozzle
G1 X2.3 F5000
G92 E0
G1 Y10 E10 F1200 ; prime the nozzle
G92 E0
G21 ; set units to millimeters
G90 ; use absolute coordinates
M83 ; use relative distances for extrusion
; Filament gcode
M107
;LAYER_CHANGE
;Z:0.2
;HEIGHT:0.2
;BEFORE_LAYER_CHANGE
G92 E0
;0.2


G1 E-5 F3600
G1 Z.2 F9000
;AFTER_LAYER_CHANGE
;0.2
G1 X101.06 Y100.679
G1 E5 F2400
M204 S500
;TYPE:Skirt/Brim
;WIDTH:0.42
G1 F1200
G1 X102.953 Y99.466 E.0705
G1 X104.012 Y99.178 E.03441
G1 X104.997 Y99.047 E.03118
G1 X125.979 Y99.047 E.65787
G1 X127.553 Y99.392 E.05052
G1 X129.16 Y100.134 E.05548
G1 X130.515 Y101.195 E.05397
G1 X131.11 Y102.25 E.03799
G1 X131.606 Y103.601 E.04512
G1 X131.835 Y104.894 E.04115
G1 X131.836 Y126.044 E.66315
G1 X131.61 Y127.326 E.04081
G1 X131.12 Y128.675 E.04502
G1 X130.177 Y130.115 E.05397
G1 X129.18 Y130.795 E.03783
G1 X127.574 Y131.545 E.05558
G1 X125.986 Y131.898 E.05102
G1 X105.004 Y131.898 E.65787
G1 X104.029 Y131.769 E.03083
G1 X102.969 Y131.484 E.03442
G1 X101.453 Y130.668 E.05397
G1 X100.688 Y129.728 E.03799
G1 X99.649 Y127.919 E.06542
G1 X99.15 Y126.049 E.06066
G1 X99.15 Y104.901 E.66309
G1 X99.338 Y103.512 E.04393
G1 X100.155 Y101.76 E.06063
G1 X101.021 Y100.725 E.04231
G1 X101.31 Y100.967 F9000
G1 F1200
G1 X101.349 Y100.921 E.00188
G1 X103.052 Y99.83 E.06342
G1 X104.111 Y99.542 E.03441
G1 X104.997 Y99.424 E.02805
G1 X125.979 Y99.424 E.65787
G1 X127.395 Y99.735 E.04545
G1 X129.001 Y100.476 E.05548
G1 X130.274 Y101.498 E.05115
G1 X130.756 Y102.38 E.03153
G1 X131.252 Y103.731 E.04512
G1 X131.458 Y104.894 E.03702
G1 X131.459 Y126.044 E.66315
G1 X131.256 Y127.197 E.03671
G1 X130.766 Y128.546 E.04502
G1 X129.855 Y129.9 E.05115
G1 X129.021 Y130.453 E.03138
G1 X127.415 Y131.203 E.05558
G1 X125.986 Y131.521 E.0459
G1 X105.004 Y131.521 E.65787
G1 X104.127 Y131.405 E.02774
G1 X103.067 Y131.12 E.03442
G1 X101.64 Y130.328 E.05115
G1 X101.015 Y129.54 E.03153
G1 X99.976 Y127.731 E.06542
G1 X99.527 Y126.049 E.05457
G1 X99.527 Y104.901 E.66309
G1 X99.709 Y103.578 E.04185
G1 X100.444 Y102.002 E.05454
G1 X101.272 Y101.013 E.04043
G1 E-3.5 F3600
;WIPE_START
G1 F7200
G1 X101.349 Y100.921 E-.057
G1 X103.052 Y99.83 E-.96074
G1 X103.879 Y99.605 E-.40726
;WIPE_END
G1 E-.075 F3600
G1 X125.628 Y105.799 F9000
G1 E5 F2400
;TYPE:Perimeter
;WIDTH:0.419999
G1 F1200
G1 X125.002 Y104.706 E.0395
G1 X125.014 Y104.634 E.0023
G1 X125.523 Y104.028 E.02481
G1 X125.887 Y103.93 E.0118
G1 X126.74 Y104.326 E.0295
G1 X126.949 Y104.899 E.01913
G1 X126.74 Y105.472 E.01913
G1 X125.887 Y105.868 E.02949
G1 X125.686 Y105.814 E.00653
G1 X125.379 Y106.122 F9000
G1 F1200
G1 X124.606 Y104.775 E.0487
G1 X124.661 Y104.468 E.00976
G1 X125.311 Y103.695 E.03168
G1 X125.921 Y103.53 E.01981
G1 X127.041 Y104.049 E.03871
G1 X127.35 Y104.898 E.02834
G1 X127.041 Y105.748 E.02834
G1 X125.922 Y106.268 E.0387
G1 X125.437 Y106.138 E.01575
G1 X125.13 Y106.445 F9000
;TYPE:External perimeter
G1 F1200
G1 X124.211 Y104.843 E.0579
G1 X124.307 Y104.303 E.01721
G1 X125.098 Y103.362 E.03855
G1 X125.955 Y103.13 E.02783
G1 X127.341 Y103.773 E.04792
G1 X127.752 Y104.898 E.03755
G1 X127.342 Y106.024 E.03756
G1 X125.956 Y106.668 E.04791
G1 X125.188 Y106.461 E.02496
G1 X125.175 Y106.048 F9000
G1 X126.683 Y105.277
;TYPE:Solid infill
;WIDTH:0.444983
G1 F1200
G1 X125.687 Y104.284 E.04701
G1 X125.429 Y104.592 E.01342
G1 X126.355 Y105.518 E.04379
G1 E-3.5 F3600
;WIPE_START
G1 F7200
G1 X125.429 Y104.592 E-.62221
G1 X125.687 Y104.284 E-.19068
G1 X126.6 Y105.194 E-.61211
;WIPE_END
G1 E-.075 F3600
G1 X116.249 Y105.472 F9000
G1 E5 F2400
;TYPE:Perimeter
;WIDTH:0.419999
G1 F1200
G1 X115.397 Y105.868 E.02949
G1 X115.137 Y105.799 E.00842
G1 X114.511 Y104.706 E.0395
G1 X114.523 Y104.634 E.0023
G1 X115.032 Y104.028 E.02481
G1 X115.396 Y103.93 E.0118
G1 X116.249 Y104.326 E.0295
G1 X116.458 Y104.899 E.01913
G1 X116.27 Y105.416 E.01725
G1 X116.55 Y105.748 F9000
G1 F1200
G1 X115.431 Y106.268 E.0387
G1 X114.888 Y106.122 E.01763
G1 X114.115 Y104.775 E.0487
G1 X114.17 Y104.468 E.00976
G1 X114.82 Y103.695 E.03168
G1 X115.43 Y103.53 E.01981
G1 X116.55 Y104.049 E.03871
G1 X116.859 Y104.898 E.02834
G1 X116.571 Y105.692 E.02646
G1 X116.851 Y106.024 F9000
;TYPE:External perimeter
G1 F1200
G1 X115.465 Y106.668 E.04791
G1 X114.639 Y106.445 E.02684
G1 X113.72 Y104.843 E.0579
G1 X113.816 Y104.303 E.01721
G1 X114.607 Y103.362 E.03855
G1 X115.464 Y103.13 E.02783
G1 X116.85 Y103.773 E.04792
G1 X117.261 Y104.898 E.03755
G1 X116.872 Y105.968 E.03567
G1 X116.462 Y105.931 F9000
G1 X116.192 Y105.277
;TYPE:Solid infill
;WIDTH:0.444983
G1 F1200
G1 X115.196 Y104.284 E.04701
G1 X114.938 Y104.592 E.01342
G1 X115.864 Y105.518 E.04379
G1 E-3.5 F3600
;WIPE_START
G1 F7200
G1 X114.938 Y104.592 E-.62221
G1 X115.196 Y104.284 E-.19068
G1 X116.109 Y105.194 E-.61211
;WIPE_END
G1 E-.075 F3600
G1 X105.758 Y105.472 F9000
G1 E5 F2400
;TYPE:Perimeter
;WIDTH:0.419999
G1 F1200
G1 X104.906 Y105.868 E.02949
G1 X104.646 Y105.799 E.00842
G1 X104.02 Y104.706 E.0395
G1 X104.033 Y104.634 E.0023
G1 X104.541 Y104.028 E.02481
G1 X104.905 Y103.93 E.0118
G1 X105.758 Y104.326 E.0295
G1 X105.967 Y104.899 E.01913
G1 X105.779 Y105.416 E.01725
G1 X106.059 Y105.748 F9000
G1 F1200
G1 X104.94 Y106.268 E.0387
G1 X104.397 Y106.122 E.01763
G1 X103.624 Y104.775 E.0487
G1 X103.679 Y104.468 E.00976
G1 X104.329 Y103.695 E.03168
G1 X104.939 Y103.53 E.01981
G1 X106.059 Y104.049 E.03871
G1 X106.368 Y104.898 E.02834
G1 X106.08 Y105.692 E.02646
G1 X106.36 Y106.024 F9000
;TYPE:External perimeter
G1 F1200
G1 X104.974 Y106.668 E.04791
G1 X104.148 Y106.445 E.02684
G1 X103.229 Y104.843 E.0579
G1 X103.326 Y104.303 E.01721
G1 X104.116 Y103.362 E.03855
G1 X104.973 Y103.13 E.02783
G1 X106.359 Y103.773 E.04792
G1 X106.77 Y104.898 E.03755
G1 X106.381 Y105.968 E.03567
G1 X105.971 Y105.931 F9000
G1 X105.701 Y105.277
;TYPE:Solid infill
;WIDTH:0.444983
G1 F1200
G1 X104.705 Y104.284 E.04701
G1 X104.447 Y104.592 E.01342
G1 X105.373 Y105.518 E.04379
G1 E-3.5 F3600
;WIPE_START
G1 F7200
G1 X104.447 Y104.592 E-.62221
G1 X104.705 Y104.284 E-.19068
G1 X105.618 Y105.194 E-.61211
;WIPE_END
G1 E-.075 F3600
G1 X105.758 Y114.899 F9000
G1 E5 F2400
;TYPE:Perimeter
;WIDTH:0.419999
G1 F1200
G1 X105.967 Y115.472 E.01913
G1 X105.758 Y116.045 E.01913
G1 X104.906 Y116.442 E.02949
G1 X104.646 Y116.372 E.00842
G1 X104.02 Y115.279 E.0395
G1 X104.033 Y115.207 E.0023
G1 X104.541 Y114.601 E.02481
G1 X104.905 Y114.503 E.0118
G1 X105.704 Y114.874 E.02762
G1 X106.059 Y114.623 F9000
G1 F1200
G1 X106.368 Y115.472 E.02834
G1 X106.059 Y116.321 E.02834
G1 X104.94 Y116.842 E.0387
G1 X104.397 Y116.695 E.01763
G1 X103.624 Y115.348 E.0487
G1 X103.679 Y115.042 E.00976
G1 X104.329 Y114.268 E.03168
G1 X104.939 Y114.103 E.01981
G1 X106.004 Y114.597 E.03683
G1 X106.359 Y114.346 F9000
;TYPE:External perimeter
G1 F1200
G1 X106.77 Y115.472 E.03755
G1 X106.36 Y116.597 E.03756
G1 X104.974 Y117.241 E.04791
G1 X104.148 Y117.019 E.02684
G1 X103.229 Y115.417 E.0579
G1 X103.326 Y114.876 E.01721
G1 X104.116 Y113.935 E.03855
G1 X104.973 Y113.703 E.02783
G1 X106.305 Y114.321 E.04603
G1 X106.222 Y114.722 F9000
G1 X105.701 Y115.85
;TYPE:Solid infill
;WIDTH:0.444983
G1 F1200
G1 X104.705 Y114.858 E.04701
G1 X104.447 Y115.165 E.01342
G1 X105.373 Y116.091 E.04379
G1 E-3.5 F3600
;WIPE_START
G1 F7200
G1 X104.447 Y115.165 E-.62221
G1 X104.705 Y114.858 E-.19068
G1 X105.618 Y115.767 E-.61211
;WIPE_END
G1 E-.075 F3600
G1 X114.511 Y115.279 F9000
G1 E5 F2400
;TYPE:Perimeter
;WIDTH:0.419999
G1 F1200
G1 X114.523 Y115.207 E.0023
G1 X115.032 Y114.601 E.02481
G1 X115.396 Y114.503 E.0118
G1 X116.249 Y114.899 E.0295
G1 X116.458 Y115.472 E.01913
G1 X116.249 Y116.045 E.01913
G1 X115.397 Y116.442 E.02949
G1 X115.137 Y116.372 E.00842
G1 X114.54 Y115.331 E.03761
G1 X114.888 Y116.695 F9000
G1 F1200
G1 X114.115 Y115.348 E.0487
G1 X114.17 Y115.042 E.00976
G1 X114.82 Y114.268 E.03168
G1 X115.43 Y114.103 E.01981
G1 X116.55 Y114.623 E.03871
G1 X116.859 Y115.472 E.02834
G1 X116.55 Y116.321 E.02834
G1 X115.431 Y116.842 E.0387
G1 X114.946 Y116.711 E.01575
G1 X114.639 Y117.019 F9000
;TYPE:External perimeter
G1 F1200
G1 X113.72 Y115.417 E.0579
G1 X113.816 Y114.876 E.01721
G1 X114.607 Y113.935 E.03855
G1 X115.464 Y113.703 E.02783
G1 X116.85 Y114.346 E.04792
G1 X117.261 Y115.472 E.03755
G1 X116.851 Y116.597 E.03756
G1 X115.465 Y117.241 E.04791
G1 X114.697 Y117.034 E.02496
G1 X114.684 Y116.621 F9000
G1 X116.192 Y115.85
;TYPE:Solid infill
;WIDTH:0.444983
G1 F1200
G1 X115.196 Y114.858 E.04701
G1 X114.938 Y115.165 E.01342
G1 X115.864 Y116.091 E.04379
G1 E-3.5 F3600
;WIPE_START
G1 F7200
G1 X114.938 Y115.165 E-.62221
G1 X115.196 Y114.858 E-.19068
G1 X116.109 Y115.767 E-.61211
;WIPE_END
G1 E-.075 F3600
G1 X125.002 Y115.279 F9000
G1 E5 F2400
;TYPE:Perimeter
;WIDTH:0.419999
G1 F1200
G1 X125.014 Y115.207 E.0023
G1 X125.523 Y114.601 E.02481
G1 X125.887 Y114.503 E.0118
G1 X126.74 Y114.899 E.0295
G1 X126.949 Y115.472 E.01913
G1 X126.74 Y116.045 E.01913
G1 X125.887 Y116.442 E.02949
G1 X125.628 Y116.372 E.00842
G1 X125.031 Y115.331 E.03761
G1 X125.379 Y116.695 F9000
G1 F1200
G1 X124.606 Y115.348 E.0487
G1 X124.661 Y115.042 E.00976
G1 X125.311 Y114.268 E.03168
G1 X125.921 Y114.103 E.01981
G1 X127.041 Y114.623 E.03871
G1 X127.35 Y115.472 E.02834
G1 X127.041 Y116.321 E.02834
G1 X125.922 Y116.842 E.0387
G1 X125.437 Y116.711 E.01575
G1 X125.13 Y117.019 F9000
;TYPE:External perimeter
G1 F1200
G1 X124.211 Y115.417 E.0579
G1 X124.307 Y114.876 E.01721
G1 X125.098 Y113.935 E.03855
G1 X125.955 Y113.703 E.02783
G1 X127.341 Y114.346 E.04792
G1 X127.752 Y115.472 E.03755
G1 X127.342 Y116.597 E.03756
G1 X125.956 Y117.241 E.04791
G1 X125.188 Y117.034 E.02496
G1 X125.175 Y116.621 F9000
G1 X126.683 Y115.85
;TYPE:Solid infill
;WIDTH:0.444983
G1 F1200
G1 X125.687 Y114.858 E.04701
G1 X125.429 Y115.165 E.01342
G1 X126.355 Y116.091 E.04379
G1 E-3.5 F3600
;WIPE_START
G1 F7200
G1 X125.429 Y115.165 E-.62221
G1 X125.687 Y114.858 E-.19068
G1 X126.6 Y115.767 E-.61211
;WIPE_END
G1 E-.075 F3600
G1 X126.74 Y125.472 F9000
G1 E5 F2400
;TYPE:Perimeter
;WIDTH:0.419999
G1 F1200
G1 X126.949 Y126.045 E.01913
G1 X126.74 Y126.618 E.01913
G1 X125.887 Y127.015 E.02949
G1 X125.628 Y126.945 E.00842
G1 X125.002 Y125.852 E.0395
G1 X125.014 Y125.78 E.0023
G1 X125.523 Y125.174 E.02481
G1 X125.887 Y125.076 E.0118
G1 X126.686 Y125.447 E.02762
G1 X127.041 Y125.196 F9000
G1 F1200
G1 X127.35 Y126.045 E.02834
G1 X127.041 Y126.894 E.02834
G1 X125.922 Y127.415 E.0387
G1 X125.379 Y127.268 E.01763
G1 X124.606 Y125.921 E.0487
G1 X124.661 Y125.615 E.00976
G1 X125.311 Y124.841 E.03168
G1 X125.921 Y124.676 E.01981
G1 X126.986 Y125.171 E.03683
G1 X127.341 Y124.92 F9000
;TYPE:External perimeter
G1 F1200
G1 X127.752 Y126.045 E.03755
G1 X127.342 Y127.17 E.03756
G1 X125.956 Y127.815 E.04791
G1 X125.13 Y127.592 E.02684
G1 X124.211 Y125.99 E.0579
G1 X124.307 Y125.449 E.01721
G1 X125.098 Y124.508 E.03855
G1 X125.955 Y124.277 E.02783
G1 X127.287 Y124.894 E.04603
G1 X127.204 Y125.295 F9000
G1 X126.683 Y126.424
;TYPE:Solid infill
;WIDTH:0.444983
G1 F1200
G1 X125.687 Y125.431 E.04701
G1 X125.429 Y125.738 E.01342
G1 X126.355 Y126.664 E.04379
G1 E-3.5 F3600
;WIPE_START
G1 F7200
G1 X125.429 Y125.738 E-.62221
G1 X125.687 Y125.431 E-.19068
G1 X126.6 Y126.341 E-.61211
;WIPE_END
G1 E-.075 F3600
G1 X116.249 Y126.618 F9000
G1 E5 F2400
;TYPE:Perimeter
;WIDTH:0.419999
G1 F1200
G1 X115.397 Y127.015 E.02949
G1 X115.137 Y126.945 E.00842
G1 X114.511 Y125.852 E.0395
G1 X114.523 Y125.78 E.0023
G1 X115.032 Y125.174 E.02481
G1 X115.396 Y125.076 E.0118
G1 X116.249 Y125.472 E.0295
G1 X116.458 Y126.045 E.01913
G1 X116.27 Y126.562 E.01725
G1 X116.55 Y126.894 F9000
G1 F1200
G1 X115.431 Y127.415 E.0387
G1 X114.888 Y127.268 E.01763
G1 X114.115 Y125.921 E.0487
G1 X114.17 Y125.615 E.00976
G1 X114.82 Y124.841 E.03168
G1 X115.43 Y124.676 E.01981
G1 X116.55 Y125.196 E.03871
G1 X116.859 Y126.045 E.02834
G1 X116.571 Y126.838 E.02646
G1 X116.851 Y127.17 F9000
;TYPE:External perimeter
G1 F1200
G1 X115.465 Y127.815 E.04791
G1 X114.639 Y127.592 E.02684
G1 X113.72 Y125.99 E.0579
G1 X113.816 Y125.449 E.01721
G1 X114.607 Y124.508 E.03855
G1 X115.464 Y124.277 E.02783
G1 X116.85 Y124.92 E.04792
G1 X117.261 Y126.045 E.03755
G1 X116.872 Y127.114 E.03567
G1 X116.462 Y127.078 F9000
G1 X116.192 Y126.424
;TYPE:Solid infill
;WIDTH:0.444983
G1 F1200
G1 X115.196 Y125.431 E.04701
G1 X114.938 Y125.738 E.01342
G1 X115.864 Y126.664 E.04379
G1 E-3.5 F3600
;WIPE_START
G1 F7200
G1 X114.938 Y125.738 E-.62221
G1 X115.196 Y125.431 E-.19068
G1 X116.109 Y126.341 E-.61211
;WIPE_END
G1 E-.075 F3600
G1 X105.758 Y126.618 F9000
G1 E5 F2400
;TYPE:Perimeter
;WIDTH:0.419999
G1 F1200
G1 X104.906 Y127.015 E.02949
G1 X104.646 Y126.945 E.00842
G1 X104.02 Y125.852 E.0395
G1 X104.033 Y125.78 E.0023
G1 X104.541 Y125.174 E.02481
G1 X104.905 Y125.076 E.0118
G1 X105.758 Y125.472 E.0295
G1 X105.967 Y126.045 E.01913
G1 X105.779 Y126.562 E.01725
G1 X106.059 Y126.894 F9000
G1 F1200
G1 X104.94 Y127.415 E.0387
G1 X104.397 Y127.268 E.01763
G1 X103.624 Y125.921 E.0487
G1 X103.679 Y125.615 E.00976
G1 X104.329 Y124.841 E.03168
G1 X104.939 Y124.676 E.01981
G1 X106.059 Y125.196 E.03871
G1 X106.368 Y126.045 E.02834
G1 X106.08 Y126.838 E.02646
G1 X106.36 Y127.17 F9000
;TYPE:External perimeter
G1 F1200
G1 X104.974 Y127.815 E.04791
G1 X104.148 Y127.592 E.02684
G1 X103.229 Y125.99 E.0579
G1 X103.326 Y125.449 E.01721
G1 X104.116 Y124.508 E.03855
G1 X104.973 Y124.277 E.02783
G1 X106.359 Y124.92 E.04792
G1 X106.77 Y126.045 E.03755
G1 X106.381 Y127.114 E.03567
G1 X105.971 Y127.078 F9000
G1 X105.701 Y126.424
;TYPE:Solid infill
;WIDTH:0.444983
G1 F1200
G1 X104.705 Y125.431 E.04701
G1 X104.447 Y125.738 E.01342
G1 X105.373 Y126.664 E.04379
M106 S255
;LAYER_CHANGE
;Z:0.32
;HEIGHT:0.12
;BEFORE_LAYER_CHANGE
G92 E0
;0.32


G1 E-3.5 F3600
;WIPE_START
G1 F7200
G1 X104.447 Y125.738 E-.62221
G1 X104.705 Y125.431 E-.19068
G1 X105.618 Y126.341 E-.61211
;WIPE_END
G1 E-.075 F3600
G1 Z.32 F9000
;AFTER_LAYER_CHANGE
;0.32
G1 X105.618 Y131.898
G1 E5 F2400
;TYPE:Skirt/Brim
;WIDTH:0.42
G1 X105.004 Y131.898 E.01208
G1 X104.029 Y131.769 E.01934
G1 X102.969 Y131.484 E.02159
G1 X101.453 Y130.668 E.03386
G1 X100.688 Y129.728 E.02383
G1 X99.649 Y127.919 E.04104
G1 X99.15 Y126.049 E.03806
G1 X99.15 Y104.901 E.41597
G1 X99.338 Y103.512 E.02756
G1 X100.155 Y101.76 E.03803
G1 X101.06 Y100.679 E.02772
G1 X102.953 Y99.466 E.04422
G1 X104.012 Y99.178 E.02159
G1 X104.997 Y99.047 E.01956
G1 X125.979 Y99.047 E.41269
G1 X127.553 Y99.392 E.03169
G1 X129.16 Y100.134 E.0348
G1 X130.515 Y101.195 E.03386
G1 X131.11 Y102.25 E.02383
G1 X131.606 Y103.601 E.02831
G1 X131.835 Y104.894 E.02582
G1 X131.836 Y126.044 E.416
G1 X131.61 Y127.326 E.0256
G1 X131.12 Y128.675 E.02824
G1 X130.177 Y130.115 E.03386
G1 X129.18 Y130.795 E.02373
G1 X127.574 Y131.545 E.03487
G1 X125.986 Y131.898 E.03201
G1 X105.678 Y131.898 E.39944
G1 X105.678 Y131.521 F9000
G1 F2400
G1 X105.004 Y131.521 E.01326
G1 X104.127 Y131.405 E.0174
G1 X103.067 Y131.12 E.02159
G1 X101.64 Y130.328 E.03209
G1 X101.015 Y129.54 E.01978
G1 X99.976 Y127.731 E.04104
G1 X99.527 Y126.049 E.03423
G1 X99.527 Y104.901 E.41597
G1 X99.709 Y103.578 E.02626
G1 X100.444 Y102.002 E.03421
G1 X101.349 Y100.921 E.02772
G1 X103.052 Y99.83 E.03978
G1 X104.111 Y99.542 E.02159
G1 X104.997 Y99.424 E.01759
G1 X125.979 Y99.424 E.41269
G1 X127.395 Y99.735 E.02851
G1 X129.001 Y100.476 E.0348
G1 X130.274 Y101.498 E.03209
