; generated by PrusaSlicer 2.5.0+MacOS-x64 on 2022-11-18 at 06:20:40 UTC

; 

; external perimeters extrusion width = 0.63mm
; perimeters extrusion width = 0.66mm
; infill extrusion width = 0.66mm
; solid infill extrusion width = 0.66mm
; top infill extrusion width = 0.60mm
; first layer extrusion width = 0.63mm

M107
;TYPE:Custom
G90 ; use absolute coordinates
M83 ; extruder relative mode
M140 S65 ; set final bed temp
M104 S150 ; set temporary nozzle temp to prevent oozing during homing
G4 S10 ; allow partial nozzle warmup
G28 ; home all axis
G29 ; Level Bed
G1 Z50 F240
G1 X2 Y10 F3000
M104 S210 ; set final nozzle temp
M190 S65 ; wait for bed temp to stabilize
M109 S210 ; wait for nozzle temp to stabilize
G1 Z0.28 F240
G92 E0
G1 Y140 E10 F1500 ; prime the nozzle
G1 X2.3 F5000
G92 E0
G1 Y10 E10 F1200 ; prime the nozzle
G92 E0
G21 ; set units to millimeters
G90 ; use absolute coordinates
M83 ; use relative distances for extrusion
; Filament gcode
M107
;LAYER_CHANGE
;Z:0.3
;HEIGHT:0.3
;BEFORE_LAYER_CHANGE
G92 E0
;0.3


G1 E-5 F2400
G1 Z.3 F9000
;AFTER_LAYER_CHANGE
;0.3
G1 X15.469 Y11.742
G1 E5 F2400
M204 S500
;TYPE:Skirt/Brim
;WIDTH:0.63
G1 F1200
G1 X16.565 Y10.473 E.11831
G1 X18.64 Y9.807 E.15376
G1 X212.36 Y9.807 E13.66636
G1 X213.99 Y10.201 E.11831
G1 X215.259 Y11.297 E.11831
G1 X215.925 Y13.372 E.15376
G1 X215.925 Y217.581 E14.40635
G1 X215.531 Y219.211 E.11831
G1 X214.435 Y220.481 E.11831
G1 X212.224 Y221.144 E.16288
G1 X63.344 Y215.459 E10.5107
G1 X61.208 Y215.34 E.15093
G1 X59.171 Y215.089 E.14479
G1 X57.233 Y214.706 E.13938
G1 X55.394 Y214.191 E.13467
G1 X53.658 Y213.547 E.13064
G1 X52.028 Y212.777 E.12718
G1 X50.508 Y211.888 E.12427
G1 X49.1 Y210.886 E.12185
G1 X48.038 Y209.993 E.09789
G1 X46.837 Y208.808 E.11904
G1 X45.75 Y207.534 E.11816
G1 X44.774 Y206.183 E.1176
G1 X43.906 Y204.764 E.11734
G1 X43.142 Y203.286 E.11737
G1 X41.94 Y200.283 E.22821
G1 X25.478 Y151.656 E3.62169
G1 X24.511 Y148.148 E.25676
G1 X23.824 Y144.781 E.24243
G1 X23.341 Y141.382 E.2422
G1 X23.056 Y138.135 E.22995
G1 X15.087 Y42.388 E6.77804
G1 X15.075 Y13.372 E2.04695
G1 X15.448 Y11.83 E.11196
G1 E-3.5 F2400
;WIPE_START
G1 F7200
G1 X16.565 Y10.473 E-.55657
G1 X18.64 Y9.807 E-.69021
G1 X19.203 Y9.807 E-.17823
;WIPE_END
G1 E-.075 F2400
G1 X19.621 Y14.353 F9000
G1 E5 F2400
;TYPE:Perimeter
;WIDTH:0.63
G1 F1200
G1 X211.379 Y14.353 E13.52799
G1 X211.389 Y45.074 E2.16726
G1 X210.942 Y44.974 E.03236
G1 X210.642 Y45.056 E.02196
G1 X209.453 Y45.638 E.09338
G1 X208.376 Y46.319 E.08985
G1 X207.474 Y47.025 E.08079
G1 X206.854 Y47.633 E.06132
G1 X206.49 Y48.057 E.03938
G1 X206.059 Y48.722 E.05595
G1 X205.75 Y49.409 E.05308
G1 X205.564 Y50.105 E.05086
G1 X205.491 Y50.798 E.04914
G1 X205.508 Y51.372 E.04054
G1 X205.574 Y51.743 E.02658
G1 X205.82 Y52.812 E.07738
G1 X206.332 Y54.052 E.09464
G1 X206.985 Y55.268 E.09737
G1 X208.444 Y57.695 E.19979
G1 X209.122 Y58.923 E.09894
G1 X209.681 Y60.152 E.09523
G1 X210.064 Y61.38 E.09077
G1 X210.226 Y62.611 E.08759
G1 X210.143 Y63.634 E.07239
G1 X210.056 Y64.151 E.03696
G1 X209.9 Y64.68 E.03897
G1 X209.661 Y65.314 E.04778
G1 X208.432 Y69.594 E.31417
G1 X207.344 Y73.829 E.30843
G1 X207.333 Y74.201 E.02624
G1 X207.685 Y76.024 E.131
G1 X207.932 Y77.806 E.12694
G1 X208.385 Y81.417 E.25674
G1 X208.698 Y83.159 E.12488
G1 X209.166 Y84.925 E.12888
G1 X209.905 Y86.777 E.14065
G1 X210.592 Y87.949 E.09581
G1 X210.864 Y88.369 E.03529
G1 X211.226 Y88.75 E.03711
G1 X211.446 Y88.805 E.01597
G1 X211.413 Y89.082 E.0197
G1 X211.379 Y90.105 E.07221
G1 X211.379 Y154.405 E4.5362
G1 X211.01 Y155.144 E.05823
G1 X209.923 Y157.627 E.19122
G1 X208.93 Y160.119 E.18927
G1 X208.037 Y162.622 E.18749
G1 X207.252 Y165.137 E.18584
G1 X206.582 Y167.663 E.18439
G1 X206.033 Y170.201 E.18318
G1 X205.611 Y172.751 E.18231
G1 X205.326 Y175.312 E.18181
G1 X205.182 Y177.884 E.18178
G1 X205.187 Y180.468 E.18227
G1 X205.343 Y183.01 E.17969
G1 X205.663 Y185.614 E.18506
G1 X206.163 Y188.28 E.19136
G1 X206.816 Y190.851 E.18711
G1 X207.679 Y193.532 E.19873
G1 X208.738 Y196.216 E.20352
G1 X210.052 Y198.673 E.19661
G1 X211.379 Y200.881 E.18169
G1 X211.379 Y216.412 E1.09571
G1 X210.968 Y216.34 E.02944
G1 X209.486 Y215.965 E.10787
G1 X208.054 Y215.481 E.10664
G1 X206.675 Y214.887 E.10592
G1 X205.352 Y214.179 E.10582
G1 X204.09 Y213.354 E.10643
G1 X202.889 Y212.407 E.10786
G1 X201.755 Y211.334 E.11017
G1 X200.689 Y210.13 E.11341
G1 X199.696 Y208.791 E.11761
G1 X198.78 Y207.311 E.12276
G1 X197.946 Y205.686 E.12886
G1 X197.198 Y203.912 E.13587
G1 X196.543 Y201.982 E.14375
G1 X195.985 Y199.894 E.15245
G1 X195.533 Y197.659 E.16088
G1 X195.048 Y193.369 E.30456
G1 X194.687 Y189.033 E.30699
G1 X194.441 Y184.682 E.30743
G1 X194.301 Y180.33 E.30717
G1 X194.308 Y178.646 E.1188
G1 X194.492 Y176.962 E.1195
G1 X195.057 Y173.424 E.25281
G1 X195.237 Y171.671 E.12429
G1 X195.227 Y169.834 E.12957
G1 X194.874 Y167.843 E.14265
G1 X194.543 Y166.898 E.07069
G1 X194.085 Y165.939 E.07496
G1 X193.868 Y165.657 E.02511
G1 X193.566 Y165.492 E.02425
G1 X193.261 Y165.458 E.02168
G1 X192.947 Y165.542 E.02293
G1 X191.97 Y166.019 E.0767
G1 X190.995 Y166.633 E.08128
G1 X189.654 Y167.779 E.12446
G1 X189.495 Y167.933 E.0156
G1 X188.266 Y169.473 E.13904
G1 X187.277 Y171.207 E.1408
G1 X186.492 Y173.097 E.1444
G1 X185.878 Y175.114 E.1487
G1 X185.402 Y177.227 E.1528
G1 X185.04 Y179.376 E.15376
G1 X184.52 Y183.835 E.31667
G1 X184.109 Y188.219 E.31064
G1 X183.88 Y190.289 E.14692
G1 X183.604 Y192.239 E.13895
G1 X183.306 Y193.772 E.1102
G1 X183.146 Y194.431 E.04779
G1 X182.797 Y195.705 E.09319
G1 X182.149 Y198.255 E.18562
G1 X181.389 Y200.542 E.17005
G1 X180.515 Y202.605 E.15807
G1 X179.538 Y204.452 E.14738
G1 X178.465 Y206.088 E.13807
G1 X177.304 Y207.524 E.13021
G1 X176.064 Y208.766 E.12387
G1 X174.75 Y209.825 E.11904
G1 X173.367 Y210.707 E.11571
G1 X171.92 Y211.42 E.11378
G1 X170.415 Y211.972 E.11311
G1 X168.855 Y212.366 E.11353
G1 X167.246 Y212.609 E.1148
G1 X165.593 Y212.704 E.11676
G1 X163.905 Y212.655 E.11918
G1 X162.187 Y212.467 E.12191
G1 X160.447 Y212.145 E.1248
G1 X158.694 Y211.692 E.12773
G1 X156.936 Y211.115 E.13058
G1 X155.18 Y210.417 E.1333
G1 X153.434 Y209.605 E.13581
G1 X151.708 Y208.684 E.13806
G1 X150.008 Y207.66 E.14002
G1 X148.343 Y206.538 E.14165
G1 X146.72 Y205.324 E.14296
G1 X145.148 Y204.023 E.14391
G1 X143.635 Y202.643 E.14451
G1 X142.188 Y201.188 E.14476
G1 X140.814 Y199.666 E.14467
G1 X139.523 Y198.081 E.14425
G1 X138.32 Y196.44 E.14353
G1 X137.178 Y194.696 E.14702
G1 X135.581 Y192.455 E.19416
G1 X134.199 Y190.166 E.18863
G1 X132.982 Y187.803 E.1875
G1 X131.905 Y185.376 E.18734
G1 X130.944 Y182.894 E.18779
G1 X130.075 Y180.371 E.18824
G1 X128.506 Y175.216 E.38011
G1 X127.001 Y170.009 E.38236
G1 X125.357 Y164.853 E.38179
G1 X124.413 Y162.311 E.19134
G1 X123.354 Y159.812 E.19148
G1 X122.246 Y157.556 E.1773
G1 X120.807 Y155.034 E.20487
G1 X120.65 Y154.837 E.01773
G1 X120.028 Y154.26 E.05988
G1 X119.384 Y153.76 E.05754
G1 X118.374 Y153.176 E.08226
G1 X118.228 Y153.109 E.01135
G1 X117.622 Y152.909 E.045
G1 X117.023 Y152.808 E.04287
G1 X116.511 Y152.8 E.03609
G1 X116.014 Y152.872 E.03548
G1 X115.443 Y153.048 E.04212
G1 X114.968 Y153.285 E.03743
G1 X114.067 Y153.989 E.08071
G1 X113.323 Y154.891 E.08251
G1 X112.731 Y155.861 E.08011
G1 X112.216 Y156.928 E.08358
G1 X111.759 Y158.079 E.08739
G1 X111.012 Y160.419 E.17332
G1 X109.955 Y164.444 E.29354
G1 X108.554 Y168.197 E.28264
G1 X107.038 Y172.105 E.29573
G1 X105.408 Y176.075 E.30272
G1 X103.652 Y180.056 E.30699
G1 X101.754 Y183.999 E.30872
G1 X99.7 Y187.853 E.30808
G1 X97.477 Y191.568 E.30541
G1 X95.072 Y195.094 E.30107
G1 X92.466 Y198.389 E.2964
G1 X91.096 Y199.921 E.14498
G1 X89.666 Y201.382 E.14419
G1 X88.182 Y202.758 E.14285
G1 X86.641 Y204.046 E.14164
G1 X85.042 Y205.238 E.14069
G1 X83.383 Y206.328 E.14006
G1 X81.663 Y207.313 E.13984
G1 X79.878 Y208.186 E.14013
G1 X78.028 Y208.941 E.14101
G1 X76.108 Y209.573 E.14258
G1 X74.117 Y210.077 E.14489
G1 X72.051 Y210.446 E.14803
G1 X69.908 Y210.674 E.15205
G1 X67.624 Y210.758 E.16121
G1 X65.509 Y210.898 E.14955
G1 X63.548 Y210.917 E.13834
G1 X61.711 Y210.822 E.12977
G1 X59.995 Y210.618 E.12195
G1 X58.395 Y210.31 E.11492
G1 X56.908 Y209.904 E.10874
G1 X55.53 Y209.403 E.10348
G1 X54.254 Y208.813 E.09913
G1 X53.077 Y208.137 E.09575
G1 X51.993 Y207.379 E.09331
G1 X50.998 Y206.542 E.09178
G1 X50.086 Y205.627 E.0911
G1 X49.254 Y204.638 E.09116
G1 X48.499 Y203.577 E.09189
G1 X47.817 Y202.447 E.09314
G1 X47.214 Y201.262 E.09377
G1 X46.189 Y198.665 E.19695
G1 X45.428 Y195.86 E.20504
G1 X44.902 Y192.864 E.21459
G1 X44.591 Y189.711 E.22351
G1 X44.474 Y186.436 E.23121
G1 X44.525 Y183.073 E.23728
G1 X44.722 Y179.657 E.24142
G1 X45.034 Y176.29 E.23849
G1 X45.469 Y174.667 E.1186
G1 X45.786 Y173.261 E.10165
G1 X45.905 Y172.091 E.083
G1 X45.863 Y171.513 E.04084
G1 X45.731 Y170.962 E.03994
G1 X45.509 Y170.453 E.03922
G1 X45.174 Y169.953 E.04242
G1 X44.41 Y169.177 E.07686
G1 X43.429 Y168.438 E.08663
G1 X42.074 Y167.539 E.11476
G1 X40.768 Y166.598 E.11352
G1 X39.55 Y165.615 E.11044
G1 X37.292 Y163.464 E.21999
G1 X35.31 Y161.128 E.21613
G1 X33.58 Y158.616 E.21514
G1 X32.092 Y155.948 E.21559
G1 X30.832 Y153.141 E.21699
G1 X29.791 Y150.218 E.21892
G1 X28.958 Y147.199 E.22099
G1 X28.32 Y144.104 E.22288
G1 X27.867 Y140.957 E.22433
G1 X27.588 Y137.778 E.22512
G1 X27.47 Y134.59 E.22506
G1 X27.502 Y131.415 E.22402
G1 X27.672 Y128.274 E.22189
G1 X27.967 Y125.189 E.21862
G1 X28.578 Y120.609 E.32594
G1 X28.862 Y119.116 E.10727
G1 X29.231 Y117.656 E.10619
G1 X29.678 Y116.245 E.10447
G1 X30.819 Y113.489 E.21037
G1 X32.246 Y110.904 E.20836
G1 X33.942 Y108.488 E.20821
G1 X35.882 Y106.258 E.20856
G1 X38.043 Y104.227 E.20919
G1 X40.399 Y102.411 E.20986
G1 X42.926 Y100.826 E.21046
G1 X45.599 Y99.485 E.21093
G1 X48.391 Y98.404 E.21124
G1 X51.278 Y97.597 E.21146
G1 X54.234 Y97.078 E.21173
G1 X57.234 Y96.861 E.2122
G1 X60.254 Y96.959 E.21313
G1 X62.743 Y97.312 E.17738
G1 X63.704 Y97.423 E.06822
G1 X64.022 Y97.324 E.0235
G1 X64.295 Y97.088 E.02542
G1 X64.44 Y96.784 E.02379
G1 X64.456 Y96.457 E.02308
G1 X64.035 Y93.563 E.20634
G1 X63.451 Y90.856 E.19534
G1 X61.947 Y85.604 E.38542
G1 X60.279 Y80.414 E.38458
G1 X59.501 Y77.832 E.19021
G1 X58.249 Y73.025 E.35047
G1 X57.869 Y70.851 E.15572
G1 X57.638 Y68.659 E.15544
G1 X57.533 Y66.459 E.15539
G1 X57.596 Y61.976 E.31631
G1 X57.851 Y57.351 E.32674
G1 X57.801 Y56.393 E.06768
G1 X57.619 Y55.525 E.06257
G1 X57.191 Y54.424 E.0833
G1 X56.669 Y53.621 E.0676
G1 X55.158 Y51.977 E.1575
G1 X50.632 Y46.394 E.50701
G1 X48.912 Y44.63 E.17389
G1 X47.029 Y43.134 E.16961
G1 X46.056 Y42.547 E.08015
G1 X44.856 Y41.988 E.09341
G1 X43.662 Y41.602 E.08854
G1 X42.354 Y41.36 E.09386
G1 X38.542 Y41.293 E.26895
G1 X35.451 Y41.269 E.21805
G1 X28.152 Y41.288 E.51495
G1 X25.561 Y41.273 E.18278
G1 X22.482 Y41.219 E.21721
G1 X19.621 Y41.139 E.20194
G1 X19.621 Y14.443 E1.88331
G1 X19.055 Y13.787 F9000
;TYPE:External perimeter
G1 F1200
G1 X211.945 Y13.787 E13.60779
G1 X211.945 Y43.617 E2.10436
G1 X211.956 Y45.13 E.10679
G1 X212.045 Y46.11 E.06939
G1 X212.045 Y47.015 E.06388
G1 X211.492 Y46.164 E.07163
G1 X211.268 Y45.698 E.03646
G1 X211.173 Y45.587 E.01031
G1 X210.989 Y45.538 E.01347
G1 X210.654 Y45.679 E.02567
G1 X209.748 Y46.12 E.07104
G1 X209.179 Y46.469 E.04708
G1 X208.71 Y46.775 E.03951
G1 X207.852 Y47.446 E.07686
G1 X207.468 Y47.792 E.03646
G1 X206.961 Y48.37 E.05426
G1 X206.571 Y48.961 E.04993
G1 X206.295 Y49.563 E.04672
G1 X206.126 Y50.171 E.04455
G1 X206.057 Y50.781 E.04329
G1 X206.074 Y51.356 E.04054
G1 X206.343 Y52.598 E.08967
G1 X206.831 Y53.785 E.09053
G1 X207.47 Y54.977 E.09541
G1 X208.934 Y57.413 E.20051
G1 X209.628 Y58.669 E.10123
G1 X210.21 Y59.95 E.09928
G1 X210.618 Y61.258 E.09667
G1 X210.794 Y62.597 E.09525
G1 X210.682 Y63.99 E.0986
G1 X210.428 Y64.883 E.06548
G1 X210.204 Y65.47 E.04434
G1 X208.98 Y69.735 E.31305
G1 X207.892 Y73.97 E.30843
G1 X207.888 Y74.093 E.00875
G1 X208.243 Y75.931 E.13205
G1 X208.493 Y77.732 E.12826
G1 X208.941 Y81.317 E.25489
G1 X209.254 Y83.059 E.12488
G1 X209.712 Y84.78 E.12558
G1 X210.391 Y86.487 E.12965
G1 X211.247 Y87.921 E.11776
G1 X211.504 Y88.257 E.0299
G1 X211.694 Y88.289 E.01359
G1 X211.874 Y88.175 E.01503
G1 X212.032 Y87.952 E.01929
G1 X212.044 Y88.598 E.04558
G1 X211.978 Y89.101 E.03578
G1 X211.945 Y90.105 E.07089
G1 X211.945 Y154.539 E4.54565
G1 X211.528 Y155.371 E.06561
G1 X210.448 Y157.836 E.18988
G1 X209.462 Y160.309 E.1878
G1 X208.577 Y162.791 E.1859
G1 X207.799 Y165.282 E.18412
G1 X207.135 Y167.783 E.18254
G1 X206.591 Y170.293 E.18121
G1 X206.174 Y172.814 E.18021
G1 X205.89 Y175.344 E.17961
G1 X205.747 Y177.884 E.17947
G1 X205.751 Y180.434 E.17989
G1 X205.907 Y182.976 E.17969
G1 X206.224 Y185.545 E.18261
G1 X206.712 Y188.141 E.18635
G1 X207.364 Y190.712 E.18711
G1 X208.206 Y193.326 E.19374
G1 X209.237 Y195.949 E.19886
G1 X210.537 Y198.382 E.1946
G1 X211.945 Y200.724 E.19276
G1 X211.945 Y217.086 E1.15434
G1 X210.849 Y216.893 E.07846
G1 X209.326 Y216.508 E.11088
G1 X207.851 Y216.01 E.10981
G1 X206.429 Y215.397 E.10924
G1 X205.064 Y214.666 E.10926
G1 X203.759 Y213.813 E.10995
G1 X202.519 Y212.835 E.11142
G1 X201.348 Y211.727 E.11372
G1 X200.249 Y210.487 E.11691
G1 X199.227 Y209.109 E.12101
G1 X198.287 Y207.59 E.12603
G1 X197.433 Y205.926 E.13197
G1 X196.669 Y204.112 E.1388
G1 X196.001 Y202.146 E.14649
G1 X195.434 Y200.024 E.155
G1 X194.974 Y197.747 E.16385
G1 X194.485 Y193.425 E.30689
G1 X194.122 Y189.072 E.30811
G1 X193.876 Y184.707 E.30844
G1 X193.735 Y180.338 E.30838
G1 X193.742 Y178.614 E.12162
G1 X193.931 Y176.887 E.12258
G1 X194.494 Y173.368 E.25139
G1 X194.674 Y171.613 E.12447
G1 X194.661 Y169.839 E.12515
G1 X194.339 Y168.028 E.1298
G1 X194.032 Y167.141 E.06618
G1 X193.546 Y166.134 E.07892
G1 X193.393 Y166.031 E.01302
G1 X193.195 Y166.05 E.01398
G1 X192.219 Y166.527 E.0767
G1 X191.363 Y167.063 E.07123
G1 X189.936 Y168.288 E.13269
G1 X188.756 Y169.755 E.1328
G1 X187.799 Y171.425 E.13577
G1 X187.033 Y173.263 E.14047
G1 X186.43 Y175.238 E.14572
G1 X185.96 Y177.321 E.1506
G1 X185.598 Y179.47 E.15376
G1 X185.082 Y183.9 E.31464
G1 X184.671 Y188.276 E.31007
G1 X184.442 Y190.36 E.14787
G1 X184.162 Y192.333 E.14059
G1 X183.861 Y193.88 E.11121
G1 X183.692 Y194.58 E.05083
G1 X183.345 Y195.844 E.09242
G1 X182.693 Y198.414 E.18707
G1 X181.919 Y200.742 E.17308
G1 X181.027 Y202.848 E.16138
G1 X180.025 Y204.74 E.15097
G1 X178.922 Y206.422 E.14192
G1 X177.726 Y207.902 E.13429
G1 X176.442 Y209.188 E.12812
G1 X175.08 Y210.285 E.1234
G1 X173.645 Y211.2 E.1201
G1 X172.143 Y211.941 E.11811
G1 X170.582 Y212.513 E.11732
G1 X168.967 Y212.921 E.11755
G1 X167.304 Y213.172 E.1186
G1 X165.601 Y213.27 E.12032
G1 X163.866 Y213.22 E.1225
G1 X162.104 Y213.027 E.125
G1 X160.325 Y212.697 E.12767
G1 X158.535 Y212.235 E.1304
G1 X156.743 Y211.647 E.13309
G1 X154.956 Y210.937 E.13565
G1 X153.182 Y210.112 E.13804
G1 X151.428 Y209.177 E.14019
G1 X149.703 Y208.137 E.14207
G1 X148.015 Y206.999 E.14365
G1 X146.37 Y205.768 E.14491
G1 X144.777 Y204.451 E.14584
G1 X143.244 Y203.052 E.14644
G1 X141.777 Y201.577 E.1467
G1 X140.385 Y200.034 E.14664
G1 X139.075 Y198.427 E.14627
G1 X137.855 Y196.762 E.14562
G1 X136.718 Y195.024 E.1465
G1 X135.108 Y192.766 E.19567
G1 X133.705 Y190.442 E.19149
G1 X132.472 Y188.048 E.19
G1 X131.382 Y185.593 E.18946
G1 X130.412 Y183.088 E.18951
G1 X129.537 Y180.545 E.18972
G1 X127.964 Y175.377 E.38111
G1 X126.462 Y170.181 E.38155
G1 X124.827 Y165.05 E.37993
G1 X123.893 Y162.531 E.18953
G1 X122.846 Y160.061 E.18925
G1 X121.662 Y157.65 E.18949
G1 X120.264 Y155.251 E.19591
G1 X119.676 Y154.703 E.05672
G1 X119.1 Y154.249 E.05169
G1 X118.081 Y153.66 E.08304
G1 X117.588 Y153.485 E.03696
G1 X117.223 Y153.409 E.02629
G1 X116.569 Y153.364 E.04626
G1 X116.098 Y153.431 E.03354
G1 X115.631 Y153.582 E.03464
G1 X115.179 Y153.819 E.03597
G1 X114.487 Y154.371 E.06248
G1 X113.804 Y155.188 E.07509
G1 X113.24 Y156.107 E.07611
G1 X112.742 Y157.137 E.08073
G1 X112.298 Y158.251 E.0846
G1 X111.559 Y160.563 E.17121
G1 X110.495 Y164.615 E.29554
G1 X109.082 Y168.398 E.2849
G1 X107.563 Y172.315 E.29637
G1 X105.929 Y176.297 E.30363
G1 X104.166 Y180.293 E.30817
