; generated by PrusaSlicer 2.5.0+MacOS-x64 on 2022-11-18 at 06:23:30 UTC

; 

; external perimeters extrusion width = 0.63mm
; perimeters extrusion width = 0.66mm
; infill extrusion width = 0.66mm
; solid infill extrusion width = 0.66mm
; top infill extrusion width = 0.60mm
; first layer extrusion width = 0.63mm

M107
;TYPE:Custom
G90 ; use absolute coordinates
M83 ; extruder relative mode
M140 S65 ; set final bed temp
M104 S150 ; set temporary nozzle temp to prevent oozing during homing
G4 S10 ; allow partial nozzle warmup
G28 ; home all axis
G29 ; Level Bed
G1 Z50 F240
G1 X2 Y10 F3000
M104 S210 ; set final nozzle temp
M190 S65 ; wait for bed temp to stabilize
M109 S210 ; wait for nozzle temp to stabilize
G1 Z0.28 F240
G92 E0
G1 Y140 E10 F1500 ; prime the nozzle
G1 X2.3 F5000
G92 E0
G1 Y10 E10 F1200 ; prime the nozzle
G92 E0
G21 ; set units to millimeters
G90 ; use absolute coordinates
M83 ; use relative distances for extrusion
; Filament gcode
M107
;LAYER_CHANGE
;Z:0.3
;HEIGHT:0.3
;BEFORE_LAYER_CHANGE
G92 E0
;0.3


G1 E-5 F2400
G1 Z.3 F9000
;AFTER_LAYER_CHANGE
;0.3
G1 X19.3 Y25.758
G1 E5 F2400
M204 S500
;TYPE:Skirt/Brim
;WIDTH:0.63
G1 F1200
G1 X21.375 Y25.092 E.15376
G1 X209.625 Y25.092 E13.2805
G1 X211.255 Y25.486 E.11831
G1 X212.524 Y26.582 E.11831
G1 X213.191 Y28.657 E.15376
G1 X213.191 Y201.568 E12.19833
G1 X212.796 Y203.198 E.11831
G1 X211.7 Y204.467 E.11831
G1 X209.646 Y205.133 E.15235
G1 X78.41 Y205.908 E9.25847
G1 X75.593 Y205.805 E.1989
G1 X72.966 Y205.522 E.1864
G1 X70.634 Y205.114 E.16701
G1 X68.114 Y204.498 E.18302
G1 X65.427 Y203.631 E.19916
G1 X63.27 Y202.768 E.16391
G1 X60.958 Y201.665 E.18071
G1 X57.142 Y199.604 E.306
G1 X19.476 Y175.939 E3.13812
G1 X18.307 Y174.737 E.11831
G1 X17.809 Y172.921 E.13284
G1 X17.809 Y28.657 E10.17739
G1 X18.204 Y27.027 E.11831
G1 X19.241 Y25.826 E.11196
G1 E-3.5 F2400
;WIPE_START
G1 F7200
G1 X21.375 Y25.092 E-.71469
G1 X23.618 Y25.092 E-.71031
;WIPE_END
G1 E-.075 F2400
G1 X23.657 Y111.404 F9000
G1 E5 F2400
;TYPE:Perimeter
;WIDTH:0.63
G1 F1200
G1 X23.47 Y111.399 E.01319
G1 X23.092 Y111.555 E.02883
G1 X22.783 Y111.99 E.03767
;WIDTH:0.672178
G1 X22.613 Y112.472 E.03876
;WIDTH:0.714357
G1 X22.443 Y112.954 E.04145
;WIDTH:0.73474
G1 X22.407 Y113.063 E.00961
G1 X22.396 Y112.947 E.00973
;WIDTH:0.714357
G1 X22.375 Y112.437 E.04145
;WIDTH:0.672178
G1 X22.354 Y111.926 E.03876
;WIDTH:0.63
G1 X22.353 Y81.169 E2.16977
G1 X22.332 Y79.181 E.14029
;WIDTH:0.589303
G1 X22.331 Y79.148 E.00216
;WIDTH:0.612209
G1 X22.344 Y78.57 E.03952
;WIDTH:0.63
G1 X22.353 Y75.463 E.21914
G1 X22.551 Y75.738 E.02388
G1 X23.047 Y75.834 E.03564
G1 X24.827 Y75.634 E.12635
;WIDTH:0.678197
G1 X25.101 Y75.628 E.02102
;WIDTH:0.726395
G1 X25.376 Y75.622 E.02267
;WIDTH:0.774592
G1 X25.65 Y75.615 E.02432
;WIDTH:0.82279
G1 X25.925 Y75.609 E.02597
;WIDTH:0.862459
G1 X26.076 Y75.612 E.01504
G1 X26.574 Y75.538 E.05014
;WIDTH:0.82626
G1 X27.072 Y75.464 E.04787
;WIDTH:0.790062
G1 X27.313 Y75.425 E.02203
;WIDTH:0.778011
G1 X29.611 Y75.101 E.2066
;WIDTH:0.755668
G1 X29.67 Y75.093 E.00514
;WIDTH:0.770863
G1 X30.745 Y74.954 E.09548
;WIDTH:0.771585
G1 X30.77 Y74.95 E.00221
;WIDTH:0.803631
G1 X31.915 Y74.778 E.10682
;WIDTH:0.819103
G1 X33.821 Y74.467 E.18179
;WIDTH:0.807598
G1 X34.552 Y74.316 E.06915
;WIDTH:0.767424
G1 X35.987 Y74.057 E.12784
G1 X35.746 Y74.396 E.03644
G1 X35.307 Y74.728 E.04828
G1 X34.718 Y74.998 E.05679
;WIDTH:0.807598
G1 X33.951 Y75.199 E.07349
;WIDTH:0.819103
G1 X33.04 Y75.366 E.08724
G1 X32.024 Y75.51 E.09654
;WIDTH:0.803631
G1 X30.865 Y75.651 E.10768
;WIDTH:0.771585
G1 X30.83 Y75.655 E.00306
;WIDTH:0.770863
G1 X29.754 Y75.779 E.09548
;WIDTH:0.755668
G1 X29.711 Y75.784 E.00372
;WIDTH:0.778011
G1 X27.416 Y76.131 E.2066
;WIDTH:0.790062
G1 X27.204 Y76.175 E.01958
;WIDTH:0.82626
G1 X26.713 Y76.285 E.04787
;WIDTH:0.862459
G1 X26.221 Y76.394 E.05014
G1 X26.128 Y76.445 E.01056
;WIDTH:0.82279
G1 X25.881 Y76.565 E.02597
;WIDTH:0.774592
G1 X25.634 Y76.685 E.02432
;WIDTH:0.726395
G1 X25.387 Y76.805 E.02267
;WIDTH:0.678197
G1 X25.14 Y76.925 E.02102
;WIDTH:0.63
G1 X24.099 Y77.5 E.08384
G1 X23.967 Y77.591 E.01134
G1 X23.116 Y78.312 E.0787
G1 X22.878 Y78.666 E.03009
;WIDTH:0.612209
G1 X22.853 Y79.128 E.03158
;WIDTH:0.63
G1 X23.236 Y81.079 E.14029
G1 X23.434 Y81.472 E.03103
G1 X23.734 Y81.687 E.02603
G1 X24.75 Y82.121 E.07794
G1 X25.24 Y82.266 E.03609
G1 X26.236 Y82.512 E.07235
G1 X27.071 Y82.656 E.05976
G1 X28.195 Y82.758 E.07967
G1 X30.634 Y82.754 E.17204
G1 X32.681 Y82.584 E.1449
;WIDTH:0.679484
G1 X32.786 Y82.599 E.00819
;WIDTH:0.728968
G1 X32.892 Y82.615 E.00885
;WIDTH:0.778453
G1 X32.998 Y82.631 E.00951
;WIDTH:0.827937
G1 X33.103 Y82.647 E.01017
;WIDTH:0.877421
G1 X33.209 Y82.662 E.01083
;WIDTH:0.889862
G1 X34.362 Y82.508 E.11975
;WIDTH:0.863325
G1 X35.015 Y82.412 E.06582
;WIDTH:0.836789
G1 X35.805 Y82.29 E.07701
;WIDTH:0.794895
G1 X36.595 Y82.168 E.07283
;WIDTH:0.753002
G1 X37.385 Y82.046 E.06865
;WIDTH:0.711109
G1 X37.902 Y81.968 E.04222
;WIDTH:0.675225
G1 X38.42 Y81.889 E.03988
;WIDTH:0.639342
G1 X40.318 Y81.705 E.13675
G1 X41.205 Y81.667 E.06365
G1 X40.228 Y81.971 E.07335
G1 X38.526 Y82.452 E.12684
;WIDTH:0.666864
G1 X38.18 Y82.528 E.02658
;WIDTH:0.711109
G1 X37.5 Y82.682 E.05628
;WIDTH:0.753002
G1 X36.717 Y82.845 E.06865
;WIDTH:0.794895
G1 X35.935 Y83.008 E.07283
;WIDTH:0.836789
G1 X35.143 Y83.173 E.07791
;WIDTH:0.863325
G1 X34.494 Y83.296 E.06582
;WIDTH:0.889862
G1 X33.346 Y83.52 E.12051
;WIDTH:0.877421
G1 X33.244 Y83.565 E.0112
;WIDTH:0.827937
G1 X33.143 Y83.609 E.01051
;WIDTH:0.778453
G1 X33.042 Y83.654 E.00983
;WIDTH:0.728968
G1 X32.941 Y83.699 E.00915
;WIDTH:0.679484
G1 X32.84 Y83.743 E.00847
;WIDTH:0.63
G1 X29.471 Y84.298 E.24091
G1 X26.944 Y84.597 E.17949
G1 X25.828 Y84.763 E.0796
G1 X25.241 Y85.087 E.04728
G1 X24.968 Y85.343 E.02646
G1 X24.717 Y85.711 E.03143
G1 X24.587 Y86.025 E.02394
G1 X24.483 Y86.635 E.04369
G1 X24.535 Y87.072 E.03104
G1 X25.057 Y89.241 E.15738
G1 X25.25 Y89.645 E.03163
G1 X25.511 Y89.997 E.03086
G1 X25.828 Y90.289 E.03043
G1 X26.192 Y90.518 E.03037
G1 X26.598 Y90.677 E.03073
G1 X27.038 Y90.756 E.03151
G1 X27.573 Y90.732 E.03781
G1 X30.5 Y90.234 E.20944
G1 X33.26 Y89.602 E.19978
G1 X35.72 Y88.876 E.18095
G1 X39.494 Y87.466 E.28422
G1 X40.858 Y86.981 E.10212
G1 X43.278 Y86.178 E.17985
G1 X45.315 Y85.591 E.14956
G1 X46.135 Y85.394 E.0595
G1 X46.899 Y85.235 E.05502
G1 X48.104 Y84.875 E.08875
G1 X48.981 Y84.689 E.06326
G1 X49.606 Y84.664 E.04413
G1 X49.936 Y84.745 E.02392
G1 X50.228 Y84.938 E.02474
G1 X50.651 Y85.423 E.04538
G1 X51.137 Y86.195 E.06434
G1 X51.714 Y87.28 E.08672
G1 X52.674 Y89.341 E.16041
G1 X53.511 Y91.42 E.15812
G1 X54.233 Y93.519 E.15655
G1 X54.848 Y95.636 E.15552
G1 X55.365 Y97.77 E.15495
G1 X55.791 Y99.913 E.15414
G1 X56.411 Y104.272 E.31057
G1 X56.769 Y108.673 E.31153
G1 X56.935 Y113.114 E.31347
G1 X56.956 Y123.283 E.7174
G1 X57.126 Y124.104 E.05918
G1 X57.338 Y124.623 E.03954
G1 X57.605 Y125.036 E.0347
G1 X57.942 Y125.392 E.0346
G1 X58.343 Y125.675 E.0346
G1 X58.789 Y125.873 E.03446
G1 X59.338 Y125.997 E.03967
G1 X59.865 Y126.012 E.03717
G1 X60.38 Y125.947 E.03666
G1 X61.297 Y125.671 E.06753
G1 X62.142 Y125.248 E.06664
G1 X62.681 Y124.948 E.04352
G1 X63.573 Y124.45 E.07211
G1 X64.814 Y123.665 E.10356
G1 X65.891 Y122.879 E.09407
G1 X66.868 Y122.024 E.09162
G1 X67.511 Y121.357 E.06533
G1 X68.156 Y120.509 E.07515
G1 X68.615 Y119.699 E.06564
G1 X68.893 Y119.006 E.05274
G1 X69.112 Y118.07 E.06778
G1 X69.165 Y117.215 E.06043
G1 X69.017 Y115.961 E.0891
G1 X68.969 Y115.705 E.01833
G1 X68.494 Y114.274 E.10643
G1 X67.854 Y112.897 E.10708
G1 X66.432 Y110.165 E.21729
G1 X65.831 Y108.795 E.10556
G1 X65.41 Y107.41 E.10213
G1 X65.232 Y105.968 E.10251
G1 X65.256 Y105.265 E.04963
G1 X65.367 Y104.515 E.05349
G1 X65.578 Y103.734 E.05702
G1 X65.9 Y102.917 E.062
G1 X66.349 Y102.057 E.06841
G1 X66.953 Y101.133 E.07788
G1 X68.642 Y98.755 E.20577
G1 X69.435 Y97.475 E.10621
G1 X70.112 Y96.118 E.10697
G1 X70.57 Y94.808 E.09794
G1 X70.675 Y94.259 E.03945
G1 X70.848 Y93.12 E.08125
G1 X70.781 Y91.537 E.1118
G1 X70.612 Y90.69 E.06092
G1 X70.343 Y89.822 E.0641
G1 X69.293 Y87.357 E.18899
G1 X68.004 Y84.689 E.20906
G1 X67.183 Y83.356 E.11046
G1 X66.135 Y82.068 E.11715
G1 X65.009 Y81.121 E.10377
G1 X64.34 Y80.746 E.05407
G1 X63.723 Y80.505 E.04675
G1 X63.474 Y80.449 E.01802
G1 X63.181 Y80.479 E.02083
G1 X62.78 Y80.594 E.02939
G1 X62.324 Y80.803 E.03538
G1 X61.918 Y81.089 E.03503
G1 X61.579 Y81.443 E.03457
G1 X61.314 Y81.843 E.03387
G1 X61.073 Y82.412 E.04361
G1 X60.915 Y83.093 E.04932
G1 X60.832 Y84.126 E.07312
G1 X60.856 Y85.04 E.06448
G1 X61.008 Y86.873 E.12975
G1 X61.113 Y88.675 E.12736
G1 X61.084 Y89.448 E.05459
G1 X60.995 Y90 E.03943
G1 X60.834 Y90.521 E.03844
G1 X60.572 Y90.972 E.03684
G1 X60.373 Y91.194 E.021
G1 X59.934 Y91.446 E.03573
G1 X59.476 Y91.228 E.03576
G1 X58.847 Y90.791 E.05407
G1 X58.318 Y90.276 E.05203
G1 X57.883 Y89.69 E.0515
G1 X57.538 Y89.038 E.05205
G1 X57.281 Y88.328 E.05328
G1 X57.115 Y87.569 E.05482
G1 X57.039 Y86.773 E.05639
G1 X57.053 Y85.954 E.05779
G1 X57.157 Y85.126 E.05891
G1 X57.35 Y84.302 E.05968
G1 X57.628 Y83.497 E.06007
G1 X57.988 Y82.725 E.06011
G1 X58.428 Y81.999 E.05986
G1 X58.945 Y81.328 E.0598
G1 X61.623 Y78.53 E.27321
G1 X65.974 Y74.206 E.43275
G1 X68.06 Y71.922 E.21819
G1 X69.038 Y70.715 E.10959
G1 X69.915 Y69.505 E.10545
G1 X70.771 Y68.147 E.11324
G1 X71.494 Y66.771 E.10967
G1 X72.099 Y65.326 E.11053
G1 X72.567 Y63.807 E.11215
G1 X72.883 Y62.211 E.11475
G1 X73.029 Y60.54 E.11831
G1 X73.011 Y59.687 E.06022
G1 X72.887 Y58.891 E.05681
G1 X72.613 Y58.158 E.05523
G1 X72.322 Y57.712 E.03757
G1 X72.153 Y57.522 E.01792
G1 X71.744 Y57.182 E.03756
G1 X71.544 Y57.058 E.01659
G1 X70.851 Y56.775 E.05279
G1 X70.079 Y56.626 E.05544
G1 X69.255 Y56.583 E.05826
G1 X43.133 Y56.645 E1.84278
G1 X42.03 Y56.77 E.07835
G1 X40.977 Y57.095 E.0777
G1 X40.213 Y57.501 E.06108
G1 X40.018 Y57.643 E.01701
G1 X39.602 Y58.049 E.04101
G1 X39.444 Y58.26 E.01857
G1 X38.826 Y59.431 E.09338
G1 X38.307 Y60.336 E.07361
G1 X37.238 Y61.929 E.13536
G1 X36.162 Y63.227 E.11896
G1 X35.077 Y64.278 E.10657
G1 X33.986 Y65.122 E.0973
G1 X32.89 Y65.798 E.09082
G1 X31.788 Y66.34 E.08664
G1 X30.687 Y66.781 E.08373
G1 X26.293 Y68.21 E.32595
G1 X25.131 Y68.702 E.08898
G1 X24.073 Y69.289 E.08535
G1 X23.17 Y69.95 E.07897
G1 X22.355 Y70.749 E.08052
G1 X22.356 Y29.638 E2.90025
G1 X208.644 Y29.638 E13.14213
G1 X208.644 Y56.645 E1.90527
G1 X164.25 Y56.645 E3.13192
G1 X164.107 Y56.657 E.01009
G1 X163.806 Y56.77 E.02266
G1 X163.565 Y56.993 E.02317
G1 X163.364 Y57.459 E.03584
G1 X163.318 Y57.79 E.02357
G1 X163.413 Y58.129 E.02486
G1 X163.64 Y58.403 E.02509
G1 X164.478 Y59.065 E.07536
G1 X165.191 Y59.736 E.06907
G1 X165.795 Y60.429 E.06485
G1 X166.29 Y61.138 E.061
G1 X166.675 Y61.86 E.05768
G1 X166.949 Y62.592 E.05515
G1 X167.115 Y63.334 E.05368
G1 X167.17 Y64.082 E.05289
G1 X167.082 Y65.04 E.06786
G1 X166.824 Y65.967 E.06786
G1 X166.397 Y66.875 E.07081
G1 X165.8 Y67.762 E.07543
G1 X165.035 Y68.62 E.08112
G1 X164.107 Y69.441 E.08741
G1 X163.023 Y70.215 E.09395
G1 X161.534 Y71.106 E.12243
G1 X161.332 Y71.397 E.02498
G1 X161.267 Y71.723 E.02342
G1 X161.281 Y72.245 E.03682
G1 X161.406 Y72.558 E.02382
G1 X161.646 Y72.801 E.02408
G1 X161.952 Y72.927 E.02336
G1 X162.694 Y73.072 E.05333
G1 X163.222 Y73.246 E.03924
G1 X164.317 Y73.822 E.08727
G1 X165.351 Y74.628 E.09245
G1 X166.358 Y75.64 E.10073
G1 X167.343 Y76.808 E.1078
G1 X170.286 Y80.649 E.34135
G1 X171.571 Y82.459 E.15662
G1 X172.708 Y84.296 E.15241
G1 X173.713 Y86.168 E.1499
G1 X174.591 Y88.075 E.14812
G1 X175.35 Y90.016 E.14699
G1 X175.995 Y91.989 E.14643
G1 X176.534 Y93.992 E.14637
G1 X176.973 Y96.025 E.14672
G1 X177.318 Y98.086 E.14739
G1 X177.573 Y100.164 E.14769
G1 X177.849 Y104.418 E.30075
G1 X177.847 Y108.742 E.30506
G1 X177.618 Y113.144 E.311
G1 X177.487 Y115.274 E.15052
G1 X177.096 Y117.399 E.15241
G1 X176.461 Y119.529 E.15681
G1 X175.604 Y121.611 E.15886
G1 X174.549 Y123.593 E.15838
G1 X173.322 Y125.423 E.1554
G1 X171.952 Y127.049 E.15005
G1 X170.455 Y128.437 E.14404
G1 X169.693 Y129.006 E.06706
G1 X168.902 Y129.505 E.06598
G1 X168.099 Y129.92 E.06376
G1 X167.288 Y130.247 E.0617
G1 X166.471 Y130.481 E.05994
G1 X165.651 Y130.621 E.05869
G1 X164.828 Y130.662 E.05815
G1 X164.001 Y130.602 E.05851
G1 X163.168 Y130.433 E.05997
G1 X162.326 Y130.149 E.06263
G1 X161.476 Y129.742 E.06653
G1 X160.617 Y129.201 E.07163
G1 X159.751 Y128.516 E.07787
G1 X158.882 Y127.679 E.08513
G1 X158.014 Y126.68 E.09334
G1 X157.155 Y125.518 E.10198
G1 X156.177 Y123.936 E.13122
G1 X155.369 Y122.315 E.12774
G1 X154.707 Y120.651 E.12636
G1 X154.172 Y118.943 E.12627
G1 X153.743 Y117.193 E.12708
G1 X153.403 Y115.41 E.12808
G1 X152.842 Y111.359 E.28851
G1 X152.8 Y111.191 E.01222
G1 X152.622 Y110.723 E.03534
G1 X152.228 Y110.02 E.05685
G1 X151.276 Y108.588 E.12126
G1 X151.002 Y108.328 E.0267
G1 X150.79 Y108.238 E.01624
G1 X150.409 Y108.225 E.02688
G1 X150.059 Y108.381 E.02704
G1 X149.901 Y108.536 E.01562
G1 X148.502 Y110.342 E.16117
G1 X147.471 Y112.133 E.1458
G1 X146.623 Y113.993 E.1442
G1 X144.435 Y119.562 E.4221
G1 X143.607 Y121.256 E.13304
G1 X142.59 Y122.861 E.13403
G1 X142.022 Y123.716 E.07244
G1 X141.453 Y124.443 E.0651
G1 X140.874 Y125.066 E.06002
G1 X140.287 Y125.592 E.05555
G1 X139.696 Y126.025 E.05173
G1 X139.101 Y126.372 E.0486
G1 X138.503 Y126.638 E.0462
G1 X137.927 Y126.822 E.04266
G1 X136.683 Y127.004 E.08866
G1 X135.446 Y126.924 E.08742
G1 X134.195 Y126.602 E.09116
G1 X132.945 Y126.053 E.09633
G1 X131.719 Y125.294 E.10169
G1 X130.543 Y124.349 E.10645
G1 X129.44 Y123.244 E.11013
G1 X128.433 Y122.008 E.11248
G1 X127.544 Y120.67 E.11335
G1 X126.794 Y119.259 E.11271
G1 X126.202 Y117.807 E.11062
G1 X125.762 Y116.267 E.11299
G1 X124.92 Y113.557 E.20023
G1 X124.321 Y110.901 E.19204
G1 X123.932 Y108.27 E.18765
G1 X123.734 Y105.673 E.18377
G1 X123.708 Y103.119 E.18014
G1 X123.833 Y100.62 E.17652
G1 X124.091 Y98.187 E.17267
G1 X124.462 Y95.829 E.16839
G1 X124.926 Y93.557 E.16354
G1 X125.462 Y91.384 E.15794
G1 X126.051 Y89.319 E.15149
G1 X126.673 Y87.373 E.14409
G1 X127.308 Y85.558 E.13567
G1 X127.935 Y83.886 E.12602
G1 X129.081 Y81.019 E.21778
G1 X129.447 Y80.248 E.0602
G1 X129.859 Y79.564 E.05635
G1 X130.88 Y78.277 E.11588
G1 X132.046 Y77.168 E.11349
G1 X133.297 Y76.198 E.11173
G1 X134.555 Y75.341 E.10736
G1 X135.754 Y74.56 E.10098
G1 X136.801 Y73.822 E.09034
G1 X137.268 Y73.43 E.04297
G1 X137.843 Y72.805 E.05996
G1 X137.951 Y72.465 E.02516
G1 X137.921 Y72.144 E.0228
G1 X137.755 Y71.836 E.02465
G1 X137.487 Y71.625 E.02405
G1 X135.784 Y70.772 E.13436
G1 X134.446 Y69.944 E.11105
G1 X133.29 Y69.052 E.10301
G1 X132.33 Y68.109 E.09493
G1 X131.576 Y67.128 E.08728
G1 X131.035 Y66.119 E.08073
G1 X130.709 Y65.088 E.07631
G1 X130.597 Y64.014 E.07622
G1 X130.651 Y63.275 E.05227
G1 X130.815 Y62.539 E.0532
G1 X131.085 Y61.815 E.05447
G1 X131.462 Y61.103 E.05684
G1 X131.945 Y60.403 E.05999
G1 X132.531 Y59.717 E.06363
G1 X133.022 Y59.24 E.04834
G1 X134.2 Y58.226 E.10962
G1 X134.349 Y57.977 E.02047
G1 X134.406 Y57.641 E.02401
G1 X134.305 Y57.228 E.03
G1 X134.136 Y56.935 E.02392
G1 X133.859 Y56.729 E.02434
G1 X133.537 Y56.65 E.02335
G1 X131.978 Y56.583 E.11009
G1 X88.689 Y56.531 E3.05391
G1 X87.628 Y56.715 E.07602
G1 X86.674 Y57.072 E.07183
G1 X85.847 Y57.592 E.06889
G1 X85.161 Y58.25 E.06709
G1 X84.699 Y58.89 E.05569
G1 X84.222 Y59.879 E.07746
G1 X83.955 Y60.807 E.06815
G1 X83.811 Y61.794 E.07031
G1 X83.783 Y62.828 E.073
G1 X83.866 Y63.902 E.076
G1 X84.054 Y65.008 E.07914
G1 X84.346 Y66.137 E.08228
G1 X84.718 Y67.222 E.08089
G1 X85.233 Y68.43 E.09265
G1 X85.825 Y69.575 E.09093
G1 X86.482 Y70.657 E.08927
G1 X87.263 Y71.766 E.09574
G1 X87.916 Y72.569 E.07299
G1 X88.425 Y73.147 E.05434
G1 X89.153 Y73.916 E.07474
G1 X90.221 Y74.89 E.10195
G1 X91.151 Y75.621 E.08344
G1 X91.38 Y75.798 E.02046
G1 X92.631 Y76.629 E.10591
G1 X94.256 Y77.501 E.1301
G1 X95.398 Y78.014 E.08832
G1 X96.91 Y78.546 E.11311
G1 X98.506 Y78.956 E.11621
G1 X100.181 Y79.232 E.11981
G1 X101.934 Y79.365 E.12402
G1 X103.762 Y79.344 E.12893
G1 X105.661 Y79.159 E.13461
G1 X107.563 Y78.815 E.13636
