; generated by PrusaSlicer 2.5.0+MacOS-x64 on 2022-11-18 at 06:28:16 UTC

; 

; external perimeters extrusion width = 0.63mm
; perimeters extrusion width = 0.66mm
; infill extrusion width = 0.66mm
; solid infill extrusion width = 0.66mm
; top infill extrusion width = 0.60mm
; first layer extrusion width = 0.63mm

M107
;TYPE:Custom
G90 ; use absolute coordinates
M83 ; extruder relative mode
M140 S65 ; set final bed temp
M104 S150 ; set temporary nozzle temp to prevent oozing during homing
G4 S10 ; allow partial nozzle warmup
G28 ; home all axis
G29 ; Level Bed
G1 Z50 F240
G1 X2 Y10 F3000
M104 S210 ; set final nozzle temp
M190 S65 ; wait for bed temp to stabilize
M109 S210 ; wait for nozzle temp to stabilize
G1 Z0.28 F240
G92 E0
G1 Y140 E10 F1500 ; prime the nozzle
G1 X2.3 F5000
G92 E0
G1 Y10 E10 F1200 ; prime the nozzle
G92 E0
G21 ; set units to millimeters
G90 ; use absolute coordinates
M83 ; use relative distances for extrusion
; Filament gcode
M107
;LAYER_CHANGE
;Z:0.3
;HEIGHT:0.3
;BEFORE_LAYER_CHANGE
G92 E0
;0.3


G1 E-5 F2400
G1 Z.3 F9000
;AFTER_LAYER_CHANGE
;0.3
G1 X25.718 Y11.646
G1 E5 F2400
M204 S500
;TYPE:Skirt/Brim
;WIDTH:0.63
G1 F1200
G1 X26.814 Y10.376 E.11831
G1 X28.889 Y9.71 E.15376
G1 X202.111 Y9.71 E12.22032
G1 X203.741 Y10.105 E.11831
G1 X205.01 Y11.2 E.11831
G1 X205.677 Y13.276 E.15376
G1 X205.677 Y217.484 E14.40635
G1 X205.282 Y219.114 E.11831
G1 X204.186 Y220.384 E.11831
G1 X202.494 Y221.029 E.1278
G1 X200.73 Y221.213 E.12506
G1 X198.949 Y221.29 E.12578
G1 X97.943 Y218.639 E7.12814
G1 X96.167 Y218.562 E.12539
G1 X94.233 Y218.351 E.13726
G1 X92.049 Y217.935 E.15687
G1 X90.444 Y217.497 E.1174
G1 X88.606 Y216.84 E.13769
G1 X86.533 Y215.871 E.16138
G1 X84.819 Y214.854 E.14064
G1 X83.453 Y213.877 E.11844
G1 X81.789 Y212.447 E.15477
G1 X26.44 Y160.131 E5.373
G1 X25.526 Y158.724 E.11831
G1 X25.323 Y157.539 E.08481
G1 X25.323 Y13.276 E10.17739
G1 X25.697 Y11.733 E.11196
G1 E-3.5 F2400
;WIPE_START
G1 F7200
G1 X26.814 Y10.376 E-.55657
G1 X28.889 Y9.71 E-.69021
G1 X29.452 Y9.71 E-.17823
;WIPE_END
G1 E-.075 F2400
G1 X31.863 Y97.284 F9000
G1 E5 F2400
;TYPE:Perimeter
;WIDTH:0.63
G1 F1200
G1 X31.643 Y97.31 E.01564
G1 X31.272 Y97.49 E.02906
G1 X30.993 Y97.936 E.03717
G1 X30.417 Y100.287 E.17073
;WIDTH:0.615167
G1 X30.405 Y100.348 E.00424
;WIDTH:0.612799
G1 X30.361 Y100.692 E.02373
;WIDTH:0.583287
G1 X30.317 Y101.036 E.02245
;WIDTH:0.602223
G1 X30.281 Y101.105 E.00527
;WIDTH:0.650672
G1 X30.244 Y101.175 E.00574
;WIDTH:0.69912
G1 X30.208 Y101.245 E.00622
;WIDTH:0.747569
G1 X30.171 Y101.314 E.00669
;WIDTH:0.796017
G1 X30.135 Y101.384 E.00717
;WIDTH:0.844466
G1 X30.098 Y101.453 E.00764
;WIDTH:0.892914
G1 X30.062 Y101.523 E.00812
;WIDTH:0.941363
G1 X30.025 Y101.592 E.00859
G1 X30.001 Y101.518 E.00859
;WIDTH:0.892914
G1 X29.977 Y101.443 E.00812
;WIDTH:0.844466
G1 X29.953 Y101.368 E.00764
;WIDTH:0.796017
G1 X29.928 Y101.293 E.00717
;WIDTH:0.747569
G1 X29.904 Y101.219 E.00669
;WIDTH:0.69912
G1 X29.88 Y101.144 E.00622
;WIDTH:0.650672
G1 X29.856 Y101.069 E.00574
;WIDTH:0.602223
G1 X29.831 Y100.994 E.00527
;WIDTH:0.584471
G1 X29.847 Y100.607 E.02517
;WIDTH:0.615167
G1 X29.862 Y100.219 E.02665
;WIDTH:0.63
G1 X29.87 Y14.256 E6.06442
G1 X201.13 Y14.256 E12.08195
G1 X201.13 Y47.714 E2.36037
G1 X200.058 Y49.537 E.14917
G1 X199.041 Y51.561 E.15983
G1 X198.175 Y53.786 E.16839
G1 X197.626 Y55.966 E.15862
G1 X197.477 Y57.031 E.07587
G1 X197.408 Y58.25 E.0861
G1 X197.447 Y59.415 E.08228
G1 X197.58 Y60.519 E.07846
G1 X197.852 Y61.789 E.09163
G1 X198.23 Y62.995 E.08916
G1 X198.732 Y64.213 E.0929
G1 X199.288 Y65.3 E.08614
G1 X199.573 Y66.255 E.07028
G1 X199.76 Y67.378 E.08032
G1 X199.854 Y68.64 E.08928
G1 X199.87 Y70.008 E.09655
G1 X199.738 Y73.013 E.21217
G1 X199.52 Y76.192 E.22482
G1 X199.384 Y79.379 E.22502
G1 X199.401 Y80.943 E.11033
G1 X199.499 Y82.393 E.10254
G1 X199.71 Y83.827 E.10229
G1 X200.057 Y85.182 E.09867
G1 X200.646 Y86.575 E.10664
G1 X201.13 Y87.321 E.06279
G1 X201.135 Y150.554 E4.46092
G1 X198.697 Y146.017 E.36333
G1 X198.194 Y144.996 E.08034
G1 X197.791 Y144.065 E.07158
G1 X197.477 Y143.171 E.06681
G1 X197.238 Y142.257 E.06665
G1 X197.062 Y141.262 E.07132
G1 X196.944 Y140.126 E.08055
G1 X196.879 Y138.797 E.09383
G1 X196.86 Y137.228 E.11072
G1 X196.881 Y135.373 E.13089
G1 X197.024 Y130.364 E.35353
G1 X196.929 Y129.974 E.0283
G1 X196.684 Y129.684 E.02679
G1 X196.404 Y129.547 E.02197
G1 X196.042 Y129.526 E.02561
G1 X195.804 Y129.601 E.01761
G1 X192.78 Y131.075 E.23729
G1 X190.15 Y132.21 E.20209
G1 X187.686 Y133.109 E.18505
G1 X185.373 Y133.771 E.16974
G1 X183.195 Y134.196 E.15653
G1 X181.135 Y134.386 E.14591
G1 X179.174 Y134.344 E.13842
G1 X177.287 Y134.069 E.13452
G1 X175.45 Y133.56 E.13451
G1 X173.638 Y132.81 E.13835
G1 X171.83 Y131.811 E.14571
G1 X170.008 Y130.555 E.15608
G1 X168.157 Y129.036 E.1689
G1 X166.263 Y127.25 E.18369
G1 X164.311 Y125.193 E.20007
G1 X162.156 Y122.71 E.23194
G1 X161.902 Y122.511 E.02277
G1 X161.602 Y122.422 E.02207
G1 X161.289 Y122.448 E.02212
G1 X161.025 Y122.573 E.0206
G1 X160.784 Y122.836 E.0252
G1 X159.894 Y124.37 E.1251
G1 X159.342 Y125.802 E.10827
G1 X159.043 Y127.137 E.09648
G1 X158.928 Y128.612 E.10437
G1 X159.018 Y130.083 E.10399
G1 X159.319 Y131.629 E.11113
G1 X159.771 Y133.038 E.10437
G1 X160.372 Y134.405 E.10535
G1 X161.105 Y135.722 E.10631
G1 X161.957 Y136.978 E.10705
G1 X162.913 Y138.163 E.10744
G1 X163.912 Y139.222 E.10269
G1 X165.084 Y140.283 E.11154
G1 X166.274 Y141.196 E.10581
G1 X167.517 Y141.996 E.1043
G1 X168.778 Y142.662 E.10059
G1 X169.247 Y142.871 E.03619
G1 X169.601 Y143.144 E.03156
G1 X169.279 Y143.381 E.02821
G1 X168.802 Y143.632 E.03803
G1 X168.392 Y143.742 E.02995
G1 X167.957 Y143.773 E.03076
G1 X167.457 Y143.717 E.03551
G1 X166.398 Y143.339 E.07927
G1 X165.308 Y142.695 E.08937
G1 X164.203 Y141.858 E.09773
G1 X163.13 Y140.935 E.0999
G1 X162.005 Y139.933 E.10627
G1 X161.776 Y139.788 E.01912
G1 X161.413 Y139.719 E.02606
G1 X161.16 Y139.766 E.01819
G1 X160.926 Y139.892 E.01878
G1 X160.706 Y140.141 E.0234
G1 X159.762 Y141.771 E.13283
G1 X158.686 Y143.245 E.12881
G1 X157.489 Y144.791 E.13791
G1 X156.336 Y146.418 E.14072
G1 X155.427 Y148.099 E.13481
G1 X155.139 Y148.897 E.05981
G1 X154.925 Y149.97 E.07716
G1 X154.906 Y150.784 E.0575
G1 X154.981 Y151.305 E.03711
G1 X155.113 Y151.943 E.04599
G1 X155.445 Y152.771 E.06294
G1 X155.725 Y153.233 E.0381
G1 X156.192 Y153.911 E.05805
G1 X158.564 Y156.129 E.22908
G1 X161.067 Y158.314 E.23446
G1 X166.374 Y162.736 E.48731
G1 X171.709 Y167.284 E.49456
G1 X174.253 Y169.629 E.2441
G1 X176.657 Y172.045 E.24041
G1 X178.868 Y174.539 E.23513
G1 X180.837 Y177.122 E.22916
G1 X182.526 Y179.817 E.22438
G1 X183.239 Y181.188 E.10901
G1 X183.869 Y182.6 E.10903
G1 X184.405 Y184.042 E.10855
G1 X184.841 Y185.518 E.10856
G1 X185.174 Y187.029 E.10917
G1 X185.396 Y188.579 E.11046
G1 X185.502 Y190.17 E.11252
G1 X185.487 Y191.807 E.11543
G1 X185.333 Y193.556 E.12388
G1 X184.367 Y190.819 E.20476
G1 X182.675 Y186.455 E.33015
G1 X181.672 Y184.242 E.17145
G1 X180.572 Y182.141 E.16731
G1 X179.373 Y180.204 E.16068
G1 X177.906 Y178.26 E.17183
G1 X172.665 Y172.937 E.52697
G1 X167.249 Y167.743 E.52941
G1 X156.766 Y158.015 E1.00889
G1 X156.073 Y157.402 E.06534
G1 X155.391 Y157.043 E.05429
G1 X154.757 Y156.874 E.04636
G1 X153.346 Y156.62 E.1011
G1 X153.003 Y156.67 E.02447
G1 X152.791 Y156.783 E.01696
G1 X152.58 Y157.007 E.02171
G1 X152.469 Y157.268 E.01999
G1 X152.211 Y158.385 E.08087
G1 X152.149 Y159.298 E.06453
G1 X152.231 Y160.462 E.08236
G1 X152.433 Y161.517 E.07579
G1 X152.735 Y162.579 E.07788
G1 X153.13 Y163.663 E.08135
G1 X154.089 Y165.774 E.16358
G1 X155.187 Y167.812 E.16337
G1 X157.425 Y171.601 E.31039
G1 X158.38 Y173.301 E.13756
G1 X160.154 Y175.706 E.21086
G1 X161.876 Y178.209 E.21436
G1 X168.798 Y188.771 E.89081
G1 X170.658 Y191.411 E.22783
G1 X172.585 Y193.944 E.22454
G1 X174.621 Y196.364 E.22313
G1 X176.783 Y198.632 E.22106
G1 X178.946 Y200.584 E.2055
G1 X179.094 Y200.713 E.0139
G1 X181.577 Y202.569 E.21863
G1 X184.223 Y204.148 E.21745
G1 X185.636 Y204.834 E.11081
G1 X187.101 Y205.439 E.11182
G1 X188.57 Y205.943 E.10957
G1 X190.147 Y206.376 E.11534
G1 X191.836 Y206.724 E.12167
G1 X193.49 Y206.956 E.11781
G1 X193.668 Y206.962 E.01259
G1 X195.239 Y206.838 E.11116
G1 X196.551 Y206.517 E.09528
G1 X197.887 Y205.958 E.10215
G1 X199.193 Y205.151 E.1083
G1 X200.202 Y204.325 E.09202
G1 X201.152 Y203.348 E.09614
G1 X201.131 Y204.006 E.04645
G1 X201.13 Y216.604 E.88876
G1 X200.49 Y216.673 E.04543
G1 X198.972 Y216.743 E.10721
G1 X197.424 Y216.726 E.10924
G1 X195.861 Y216.624 E.11049
G1 X192.636 Y216.169 E.22976
G1 X189.367 Y215.404 E.23681
G1 X186.075 Y214.347 E.24392
G1 X182.793 Y213.019 E.2498
G1 X179.553 Y211.443 E.2542
G1 X176.387 Y209.64 E.25697
G1 X173.329 Y207.636 E.258
G1 X170.409 Y205.451 E.25723
G1 X167.661 Y203.11 E.25469
G1 X165.115 Y200.637 E.25038
G1 X162.803 Y198.056 E.24443
G1 X160.757 Y195.392 E.237
G1 X159.007 Y192.669 E.22834
G1 X157.554 Y189.859 E.22318
G1 X154.72 Y184.511 E.42702
G1 X152.081 Y179.007 E.43058
G1 X149.492 Y173.369 E.43769
G1 X146.767 Y167.532 E.4544
G1 X146.687 Y167.395 E.01123
G1 X146.505 Y167.21 E.0183
G1 X146.268 Y167.087 E.01887
G1 X145.901 Y167.049 E.02601
G1 X145.493 Y167.185 E.03032
G1 X144.962 Y167.42 E.04101
G1 X144.387 Y167.783 E.04795
G1 X143.532 Y168.583 E.08255
G1 X142.887 Y169.505 E.07941
G1 X142.388 Y170.508 E.07906
G1 X140.981 Y174.351 E.28869
G1 X137.795 Y181.712 E.56586
G1 X136.084 Y185.3 E.28042
G1 X134.238 Y188.795 E.27886
G1 X132.217 Y192.17 E.27754
G1 X129.979 Y195.403 E.27733
G1 X127.476 Y198.478 E.27977
G1 X126.125 Y199.936 E.14021
G1 X124.632 Y201.406 E.14785
G1 X123.437 Y202.729 E.1257
G1 X122.181 Y203.979 E.12501
G1 X120.849 Y205.175 E.12632
G1 X119.448 Y206.315 E.1274
G1 X117.985 Y207.392 E.12822
G1 X116.465 Y208.404 E.12879
G1 X114.897 Y209.347 E.12907
G1 X113.287 Y210.215 E.12907
G1 X111.641 Y211.006 E.1288
G1 X109.968 Y211.716 E.12824
G1 X108.273 Y212.34 E.12742
G1 X106.564 Y212.876 E.12635
G1 X104.847 Y213.318 E.12506
G1 X103.131 Y213.665 E.12355
G1 X101.42 Y213.912 E.1219
G1 X99.724 Y214.056 E.12012
G1 X98.048 Y214.094 E.11828
G1 X96.399 Y214.022 E.11643
G1 X94.784 Y213.838 E.11468
G1 X93.209 Y213.539 E.11309
G1 X91.68 Y213.122 E.1118
G1 X90.203 Y212.583 E.1109
G1 X88.784 Y211.92 E.11053
G1 X87.426 Y211.129 E.11083
G1 X86.136 Y210.206 E.11192
G1 X84.917 Y209.147 E.11392
G1 X83.775 Y207.945 E.11693
G1 X82.716 Y206.596 E.121
G1 X81.745 Y205.095 E.12618
G1 X80.868 Y203.434 E.13247
G1 X80.093 Y201.609 E.13987
G1 X79.444 Y199.665 E.14459
G1 X78.572 Y193.501 E.43917
G1 X78.239 Y190.386 E.22101
G1 X78.012 Y187.267 E.22062
G1 X77.914 Y184.15 E.21998
G1 X77.97 Y181.037 E.21968
G1 X78.206 Y177.928 E.21995
G1 X78.649 Y174.786 E.22383
G1 X78.839 Y172.785 E.14185
G1 X79.142 Y170.862 E.1373
G1 X80.025 Y166.959 E.28233
G1 X82.153 Y159.083 E.57551
G1 X82.607 Y157.086 E.14451
G1 X82.968 Y155.126 E.14064
G1 X83.222 Y153.118 E.14277
G1 X83.334 Y151.097 E.14276
G1 X83.273 Y149.064 E.1435
G1 X83.011 Y147.02 E.14541
G1 X82.518 Y144.967 E.1489
G1 X81.761 Y142.904 E.15508
G1 X80.234 Y139.002 E.29557
G1 X79.608 Y137.076 E.1429
G1 X79.111 Y135.137 E.14117
G1 X78.778 Y133.185 E.13972
G1 X78.639 Y131.209 E.13974
G1 X78.725 Y129.197 E.14209
G1 X79.071 Y127.124 E.14826
G1 X79.348 Y125.703 E.10212
G1 X79.514 Y124.281 E.10103
G1 X79.537 Y122.959 E.09327
G1 X79.354 Y121.415 E.10965
G1 X78.938 Y120.011 E.10331
G1 X78.251 Y118.666 E.10658
G1 X77.268 Y117.411 E.11242
G1 X76.219 Y116.471 E.09935
G1 X76.044 Y116.15 E.02584
G1 X75.94 Y115.762 E.02833
G1 X75.922 Y115.327 E.03073
G1 X75.999 Y114.825 E.03577
G1 X76.176 Y114.258 E.04195
G1 X76.448 Y113.649 E.04701
G1 X77.299 Y112.252 E.11541
G1 X78.443 Y110.762 E.1325
G1 X79.799 Y109.204 E.14578
G1 X82.793 Y105.992 E.30973
G1 X84.251 Y104.385 E.15309
G1 X85.566 Y102.796 E.14548
G1 X86.631 Y101.26 E.13192
G1 X87.151 Y100.263 E.07927
G1 X87.387 Y99.694 E.04348
G1 X87.598 Y98.892 E.05852
G1 X87.655 Y98.073 E.05789
G1 X87.579 Y97.477 E.04237
G1 X87.422 Y97.013 E.0346
G1 X87.186 Y96.505 E.03947
G1 X86.669 Y95.852 E.05878
G1 X86.116 Y95.388 E.05093
G1 X85.681 Y95.125 E.03588
G1 X85.003 Y94.777 E.05376
G1 X84.143 Y94.443 E.06506
G1 X83.858 Y94.413 E.02024
G1 X81.986 Y94.547 E.13237
G1 X80.795 Y94.665 E.08442
G1 X80.193 Y94.747 E.04287
G1 X79.243 Y94.889 E.06778
G1 X78.327 Y95.058 E.06574
G1 X77.336 Y95.297 E.07189
G1 X76.349 Y95.607 E.07298
G1 X75.32 Y96.051 E.07905
G1 X74.794 Y96.333 E.04213
G1 X74.162 Y96.773 E.0543
G1 X73.574 Y97.329 E.05711
G1 X73.19 Y97.804 E.04304
G1 X72.83 Y98.434 E.05122
G1 X72.435 Y99.626 E.08863
G1 X72.298 Y100.86 E.08758
G1 X72.327 Y102.137 E.09008
G1 X72.583 Y104.835 E.19123
G1 X72.685 Y106.287 E.10267
G1 X72.69 Y107.794 E.10634
G1 X72.542 Y109.363 E.11114
G1 X72.185 Y110.998 E.11807
G1 X71.553 Y112.722 E.12952
G1 X69.99 Y115.856 E.24707
G1 X64.841 Y125.269 E.75692
G1 X63.24 Y128.505 E.25471
G1 X61.855 Y131.782 E.25101
G1 X60.719 Y135.249 E.25734
G1 X60.261 Y137.118 E.1358
G1 X59.927 Y138.926 E.12972
G1 X59.238 Y142.89 E.28384
G1 X58.819 Y144.785 E.13691
G1 X58.33 Y146.623 E.13413
G1 X57.763 Y148.382 E.13041
G1 X57.107 Y150.05 E.12642
G1 X56.353 Y151.612 E.12239
G1 X55.492 Y153.057 E.11868
G1 X54.513 Y154.374 E.11574
G1 X53.407 Y155.554 E.11408
G1 X52.16 Y156.589 E.11428
G1 X50.758 Y157.471 E.1169
G1 X49.181 Y158.191 E.12231
G1 X47.41 Y158.738 E.13072
G1 X45.428 Y159.096 E.14209
G1 X43.253 Y159.246 E.15381
G1 X41.594 Y159.081 E.11761
G1 X39.86 Y158.826 E.12368
G1 X36.3 Y158.133 E.25588
G1 X29.87 Y156.748 E.46403
G1 X29.87 Y152.347 E.31045
G1 X30.688 Y151.906 E.06553
G1 X31.243 Y151.639 E.04347
G1 X31.468 Y151.481 E.01941
G1 X31.888 Y151.069 E.04152
G1 X32.15 Y150.662 E.03412
G1 X32.387 Y150.168 E.03866
G1 X32.566 Y149.425 E.0539
G1 X32.636 Y148.176 E.08829
G1 X32.587 Y146.871 E.09213
G1 X32.621 Y145.947 E.06524
G1 X32.668 Y145.754 E.01398
G1 X32.775 Y145.743 E.00763
G1 X33.271 Y145.824 E.03544
G1 X33.876 Y146.038 E.04529
G1 X34.871 Y147.016 E.09841
G1 X35.972 Y147.846 E.09727
G1 X36.136 Y147.96 E.0141
G1 X37.385 Y148.661 E.10104
G1 X38.899 Y149.265 E.11504
G1 X40.355 Y149.63 E.10588
G1 X41.834 Y149.805 E.10501
G1 X43.208 Y149.8 E.09692
G1 X44.777 Y149.595 E.11169
G1 X46.099 Y149.248 E.09638
G1 X46.753 Y148.989 E.04966
G1 X47.57 Y148.648 E.06245
G1 X48.86 Y147.899 E.10522
G1 X50.045 Y146.972 E.10613
G1 X51.111 Y145.864 E.10844
G1 X52.026 Y144.588 E.11083
G1 X52.727 Y143.253 E.10636
G1 X53.302 Y141.656 E.11972
G1 X53.816 Y139.83 E.13382
G1 X54.4 Y138.126 E.12706
G1 X55.778 Y134.713 E.25969
G1 X57.24 Y131.231 E.26644
G1 X58.576 Y127.526 E.27781
G1 X58.622 Y127.324 E.01463
G1 X58.612 Y127.083 E.01702
G1 X58.485 Y126.77 E.02383
G1 X58.318 Y126.585 E.01755
G1 X58.065 Y126.44 E.02062
G1 X57.591 Y126.354 E.03396
G1 X56.894 Y126.265 E.04959
G1 X56.08 Y126.301 E.05749
G1 X55.322 Y126.476 E.05486
G1 X54.579 Y126.802 E.05719
G1 X53.415 Y127.637 E.10111
G1 X52.417 Y128.705 E.10314
G1 X51.503 Y129.918 E.10713
G1 X50.605 Y131.21 E.11099
G1 X49.667 Y132.513 E.11327
G1 X48.651 Y133.74 E.11237
G1 X47.518 Y134.822 E.11051
G1 X46.204 Y135.714 E.11206
G1 X45.504 Y136.051 E.05479
G1 X44.721 Y136.327 E.05857
G1 X43.865 Y136.526 E.06198
G1 X42.926 Y136.638 E.06675
G1 X41.892 Y136.652 E.07292
G1 X40.756 Y136.557 E.08046
G1 X39.509 Y136.34 E.08931
G1 X38.144 Y135.989 E.09938
G1 X36.657 Y135.492 E.11061
G1 X35.042 Y134.838 E.12292
G1 X33.294 Y134.017 E.13627
G1 X31.471 Y133.05 E.14553
G1 X30.532 Y132.297 E.08493
G1 X29.87 Y131.664 E.06465
G1 X29.869 Y121.956 E.68486
G1 X30.08 Y122.577 E.04624
G1 X30.76 Y124.031 E.11324
G1 X31.649 Y125.493 E.12077
G1 X32.694 Y126.866 E.12171
G1 X33.934 Y128.197 E.12835
G1 X35.201 Y129.332 E.11994
G1 X35.505 Y129.516 E.0251
G1 X36.434 Y129.96 E.07259
G1 X37.443 Y130.326 E.07572
G1 X38.435 Y130.57 E.07208
G1 X39.407 Y130.694 E.06912
G1 X40.354 Y130.703 E.06681
G1 X41.322 Y130.59 E.06879
G1 X42.256 Y130.36 E.06787
G1 X43.04 Y130.074 E.05887
G1 X44.595 Y129.214 E.12537
G1 X45.993 Y128.066 E.12762
G1 X47.171 Y126.766 E.12379
G1 X48.335 Y125.109 E.14283
G1 X49.29 Y123.385 E.13904
G1 X50.104 Y121.55 E.14162
G1 X50.779 Y119.644 E.14266
