; generated by PrusaSlicer 2.5.0+MacOS-x64 on 2022-11-18 at 06:17:50 UTC

; 

; external perimeters extrusion width = 0.63mm
; perimeters extrusion width = 0.66mm
; infill extrusion width = 0.66mm
; solid infill extrusion width = 0.66mm
; top infill extrusion width = 0.60mm
; first layer extrusion width = 0.63mm

M107
;TYPE:Custom
G90 ; use absolute coordinates
M83 ; extruder relative mode
M140 S65 ; set final bed temp
M104 S150 ; set temporary nozzle temp to prevent oozing during homing
G4 S10 ; allow partial nozzle warmup
G28 ; home all axis
G29 ; Level Bed
G1 Z50 F240
G1 X2 Y10 F3000
M104 S210 ; set final nozzle temp
M190 S65 ; wait for bed temp to stabilize
M109 S210 ; wait for nozzle temp to stabilize
G1 Z0.28 F240
G92 E0
G1 Y140 E10 F1500 ; prime the nozzle
G1 X2.3 F5000
G92 E0
G1 Y10 E10 F1200 ; prime the nozzle
G92 E0
G21 ; set units to millimeters
G90 ; use absolute coordinates
M83 ; use relative distances for extrusion
; Filament gcode
M107
;LAYER_CHANGE
;Z:0.3
;HEIGHT:0.3
;BEFORE_LAYER_CHANGE
G92 E0
;0.3


G1 E-5 F2400
G1 Z.3 F9000
;AFTER_LAYER_CHANGE
;0.3
G1 X20.704 Y14.626
G1 E5 F2400
M204 S500
;TYPE:Skirt/Brim
;WIDTH:0.63
G1 F1200
G1 X21.8 Y13.356 E.11831
G1 X23.875 Y12.69 E.15376
G1 X207.125 Y12.69 E12.92777
G1 X208.755 Y13.085 E.11831
G1 X210.024 Y14.18 E.11831
G1 X210.691 Y16.256 E.15376
G1 X210.691 Y45.1 E2.03486
G1 X210.598 Y45.908 E.05742
G1 X178.209 Y185.017 E10.07624
G1 X177.647 Y187.168 E.15684
G1 X176.96 Y189.353 E.16156
G1 X176.101 Y191.652 E.17312
G1 X175.276 Y193.56 E.14666
G1 X174.286 Y195.575 E.15843
G1 X173.11 Y197.682 E.1702
G1 X171.928 Y199.565 E.15683
G1 X170.763 Y201.234 E.14358
G1 X169.416 Y202.98 E.15558
G1 X167.867 Y204.784 E.16772
G1 X166.481 Y206.243 E.14199
G1 X164.9 Y207.754 E.15429
G1 X163.106 Y209.296 E.16685
G1 X161.378 Y210.628 E.15391
G1 X159.536 Y211.898 E.1579
G1 X157.322 Y213.223 E.18199
G1 X154.584 Y214.617 E.2168
G1 X151.965 Y215.719 E.20039
G1 X149.507 Y216.563 E.18336
G1 X146.479 Y217.363 E.22095
G1 X143.626 Y217.889 E.20466
G1 X140.976 Y218.187 E.18817
G1 X137.778 Y218.309 E.22571
G1 X135.606 Y218.245 E.15336
G1 X133.461 Y218.065 E.15182
G1 X131.348 Y217.773 E.15048
G1 X129.344 Y217.388 E.14396
G1 X30.371 Y195.153 E7.1563
G1 X28.198 Y194.593 E.1583
G1 X26.355 Y194.013 E.13629
G1 X24.373 Y193.273 E.14928
G1 X22.442 Y192.431 E.14861
G1 X21.108 Y191.415 E.11831
G1 X20.309 Y189.166 E.16835
G1 X20.309 Y16.256 E12.19833
G1 X20.683 Y14.713 E.11196
G1 E-3.5 F2400
;WIPE_START
G1 F7200
G1 X21.8 Y13.356 E-.55657
G1 X23.875 Y12.69 E-.69021
G1 X24.438 Y12.69 E-.17823
;WIPE_END
G1 E-.075 F2400
G1 X24.856 Y17.236 F9000
G1 E5 F2400
;TYPE:Perimeter
;WIDTH:0.63
G1 F1200
G1 X206.144 Y17.236 E12.7894
G1 X206.144 Y44.119 E1.8965
G1 X190.541 Y44.119 E1.10081
G1 X188.251 Y44.057 E.16156
G1 X187.418 Y44.068 E.05877
G1 X186.695 Y44.133 E.05121
G1 X185.986 Y44.268 E.05096
G1 X185.313 Y44.51 E.05043
G1 X184.703 Y44.882 E.0504
G1 X184.192 Y45.383 E.05043
G1 X183.803 Y45.987 E.05074
G1 X183.572 Y46.544 E.04251
G1 X183.356 Y47.447 E.06555
G1 X183.275 Y48.213 E.0543
G1 X183.042 Y49.879 E.11871
G1 X182.602 Y51.386 E.11074
G1 X181.975 Y52.817 E.11021
G1 X181.188 Y54.192 E.11177
G1 X180.272 Y55.528 E.11429
G1 X179.26 Y56.839 E.1168
G1 X177.067 Y59.475 E.24193
G1 X174.939 Y62.197 E.24375
G1 X173.979 Y63.668 E.12394
G1 X173.155 Y65.223 E.1241
G1 X172.511 Y66.88 E.12541
G1 X172.092 Y68.663 E.12926
G1 X171.943 Y70.566 E.13462
G1 X172.079 Y72.422 E.13131
G1 X172.054 Y76.389 E.27986
G1 X171.822 Y80.34 E.27922
G1 X171.39 Y84.258 E.27808
G1 X170.763 Y88.139 E.2773
G1 X169.947 Y91.977 E.27683
G1 X168.948 Y95.768 E.27659
G1 X167.773 Y99.508 E.27656
G1 X166.427 Y103.192 E.27668
G1 X164.916 Y106.815 E.2769
G1 X163.247 Y110.372 E.27719
G1 X161.425 Y113.858 E.27751
G1 X159.457 Y117.269 E.27783
G1 X157.349 Y120.6 E.27812
G1 X155.106 Y123.847 E.27835
G1 X152.735 Y127.003 E.27849
G1 X150.246 Y130.061 E.27812
G1 X148.353 Y132.156 E.1992
G1 X147.284 Y133.402 E.11584
G1 X146.355 Y134.675 E.11115
G1 X145.821 Y135.7 E.08157
G1 X145.643 Y136.243 E.04035
G1 X145.562 Y136.876 E.04497
G1 X145.618 Y137.421 E.03866
G1 X145.698 Y137.703 E.02066
G1 X145.943 Y138.157 E.03643
G1 X146.307 Y138.526 E.03657
G1 X146.677 Y138.776 E.03151
G1 X149.875 Y140.454 E.25477
G1 X152.887 Y142.313 E.24969
G1 X155.738 Y144.36 E.24758
G1 X158.419 Y146.581 E.24563
G1 X160.922 Y148.963 E.24378
G1 X163.238 Y151.494 E.24199
G1 X165.359 Y154.159 E.24026
G1 X167.274 Y156.946 E.23858
G1 X168.976 Y159.842 E.23696
G1 X170.456 Y162.833 E.23544
G1 X171.705 Y165.907 E.23406
G1 X172.714 Y169.05 E.23289
G1 X173.477 Y172.249 E.23202
G1 X173.982 Y175.492 E.23154
G1 X174.224 Y178.765 E.23157
G1 X174.193 Y182.003 E.2284
G1 X173.781 Y183.985 E.1428
G1 X173.256 Y185.993 E.14646
G1 X172.634 Y187.956 E.14524
G1 X171.918 Y189.87 E.14415
G1 X171.113 Y191.732 E.14317
G1 X170.22 Y193.541 E.14229
G1 X169.243 Y195.292 E.14148
G1 X168.185 Y196.984 E.14077
G1 X167.049 Y198.613 E.14011
G1 X165.837 Y200.176 E.13951
G1 X164.554 Y201.671 E.13898
G1 X163.202 Y203.095 E.13851
G1 X161.784 Y204.444 E.13809
G1 X160.303 Y205.716 E.13773
G1 X158.763 Y206.909 E.13743
G1 X157.173 Y208.014 E.13663
G1 X155.017 Y209.305 E.17727
G1 X152.776 Y210.446 E.17739
G1 X150.456 Y211.43 E.17775
G1 X148.064 Y212.251 E.17842
G1 X145.605 Y212.902 E.17948
G1 X143.083 Y213.375 E.181
G1 X140.505 Y213.665 E.18304
G1 X137.87 Y213.763 E.18603
G1 X135.947 Y213.711 E.13566
G1 X134.047 Y213.557 E.13451
G1 X132.176 Y213.302 E.13323
G1 X130.336 Y212.951 E.13217
G1 X128.529 Y212.504 E.1313
G1 X126.757 Y211.965 E.13062
G1 X125.024 Y211.335 E.13011
G1 X123.33 Y210.619 E.12975
G1 X121.678 Y209.816 E.12953
G1 X120.071 Y208.931 E.12943
G1 X118.511 Y207.966 E.12944
G1 X117 Y206.923 E.12956
G1 X115.54 Y205.804 E.12976
G1 X114.133 Y204.612 E.13005
G1 X112.783 Y203.349 E.13041
G1 X111.381 Y201.917 E.14141
G1 X110.917 Y201.501 E.04395
G1 X110.299 Y200.701 E.07136
G1 X109.583 Y199.582 E.09367
G1 X108.793 Y198.194 E.11267
G1 X107.951 Y196.595 E.1275
G1 X107.074 Y194.84 E.13841
G1 X105.272 Y191.047 E.29626
G1 X101.88 Y183.741 E.56823
G1 X101.152 Y182.245 E.1174
G1 X100.492 Y180.968 E.10142
G1 X99.897 Y179.937 E.08395
G1 X99.506 Y179.383 E.04785
G1 X98.758 Y177.683 E.13099
G1 X97.976 Y176.058 E.12724
G1 X97.204 Y174.589 E.11707
G1 X96.442 Y173.266 E.10773
G1 X95.692 Y172.076 E.09921
G1 X94.837 Y170.851 E.10541
G1 X94.235 Y170.053 E.07049
G1 X93.524 Y169.187 E.07902
G1 X92.188 Y167.737 E.13917
G1 X90.98 Y166.574 E.11826
G1 X89.868 Y165.559 E.10622
G1 X88.881 Y164.613 E.09645
G1 X86.056 Y162.226 E.26091
G1 X83.97 Y160.547 E.18893
G1 X81.705 Y158.916 E.19688
G1 X80.552 Y158.197 E.09585
G1 X79.412 Y157.592 E.09109
G1 X78.285 Y157.138 E.08569
G1 X77.225 Y156.898 E.07671
G1 X76.664 Y156.877 E.03959
G1 X76.105 Y156.953 E.03981
G1 X75.564 Y157.15 E.04059
G1 X75.081 Y157.474 E.04105
G1 X74.692 Y157.905 E.04095
G1 X74.408 Y158.412 E.04098
G1 X74.218 Y158.986 E.04266
G1 X73.895 Y160.837 E.13257
G1 X73.573 Y162.19 E.09815
G1 X72.886 Y165.305 E.22501
G1 X71.952 Y168.271 E.21936
G1 X70.774 Y171.119 E.21743
G1 X69.365 Y173.837 E.21596
G1 X67.737 Y176.411 E.21487
G1 X65.903 Y178.829 E.21409
G1 X63.876 Y181.077 E.21359
G1 X61.668 Y183.143 E.21333
G1 X59.292 Y185.014 E.21333
G1 X56.761 Y186.677 E.21362
G1 X54.089 Y188.119 E.21423
G1 X51.287 Y189.327 E.21526
G1 X48.368 Y190.289 E.2168
G1 X45.345 Y190.992 E.21895
G1 X42.23 Y191.423 E.22186
G1 X39.026 Y191.571 E.2263
G1 X37.072 Y191.516 E.13786
G1 X35.139 Y191.353 E.13687
G1 X33.237 Y191.086 E.13549
G1 X31.369 Y190.717 E.13432
G1 X29.538 Y190.249 E.13333
G1 X27.747 Y189.684 E.13251
G1 X25.997 Y189.027 E.13184
G1 X24.856 Y188.526 E.08797
G1 X24.856 Y61.322 E8.97385
G1 X25.617 Y60.727 E.06818
G1 X26.694 Y59.723 E.10383
G1 X27.697 Y58.603 E.10609
G1 X28.624 Y57.362 E.1093
G1 X29.472 Y55.994 E.11353
G1 X30.24 Y54.495 E.11882
G1 X30.903 Y52.914 E.12095
G1 X31.445 Y51.323 E.11859
G1 X31.527 Y51.073 E.01855
G1 X31.924 Y49.532 E.11227
G1 X32.054 Y48.192 E.09495
G1 X32.007 Y47.544 E.04587
G1 X31.87 Y46.931 E.04431
G1 X31.635 Y46.361 E.04346
G1 X31.304 Y45.852 E.04284
G1 X30.887 Y45.419 E.04237
G1 X30.403 Y45.067 E.04225
G1 X29.864 Y44.79 E.04277
G1 X29.233 Y44.57 E.04712
G1 X28.042 Y44.335 E.08564
G1 X26.463 Y44.245 E.11162
G1 X24.856 Y44.243 E.11337
G1 X24.856 Y17.326 E1.89892
G1 X24.29 Y16.671 F9000
;TYPE:External perimeter
G1 F1200
G1 X206.71 Y16.671 E12.8692
G1 X206.71 Y44.685 E1.9763
G1 X190.533 Y44.685 E1.14125
G1 X188.236 Y44.623 E.1621
G1 X187.466 Y44.631 E.05429
G1 X186.793 Y44.69 E.04766
G1 X186.166 Y44.804 E.04501
G1 X185.593 Y45.002 E.04275
G1 X185.086 Y45.299 E.04145
G1 X184.66 Y45.701 E.04132
G1 X184.325 Y46.204 E.04264
G1 X184.094 Y46.76 E.04251
G1 X183.919 Y47.507 E.0541
G1 X183.837 Y48.282 E.05497
G1 X183.597 Y49.998 E.12229
G1 X183.135 Y51.58 E.11622
G1 X182.481 Y53.072 E.11491
G1 X181.668 Y54.493 E.11552
G1 X180.729 Y55.861 E.11704
G1 X179.702 Y57.192 E.11865
G1 X177.513 Y59.824 E.24147
G1 X175.41 Y62.511 E.24071
G1 X174.477 Y63.935 E.12006
G1 X173.681 Y65.429 E.11948
G1 X173.061 Y67.015 E.12011
G1 X172.656 Y68.71 E.12298
G1 X172.507 Y70.525 E.12842
G1 X172.644 Y72.403 E.13288
G1 X172.619 Y76.407 E.28248
G1 X172.386 Y80.388 E.28129
G1 X171.95 Y84.334 E.28011
G1 X171.319 Y88.243 E.27929
G1 X170.497 Y92.108 E.27877
G1 X169.492 Y95.925 E.27849
G1 X168.308 Y99.69 E.27841
G1 X166.954 Y103.398 E.27849
G1 X165.433 Y107.044 E.27866
G1 X163.754 Y110.623 E.27892
G1 X161.921 Y114.131 E.2792
G1 X159.941 Y117.562 E.27948
G1 X157.82 Y120.913 E.27974
G1 X155.565 Y124.177 E.27995
G1 X153.181 Y127.352 E.28006
G1 X150.676 Y130.429 E.27993
G1 X148.782 Y132.525 E.19928
G1 X147.74 Y133.736 E.11274
G1 X146.837 Y134.971 E.10792
G1 X146.373 Y135.845 E.06979
G1 X146.209 Y136.305 E.0345
G1 X146.125 Y136.818 E.03664
G1 X146.181 Y137.363 E.03866
G1 X146.375 Y137.783 E.0326
G1 X146.701 Y138.121 E.03316
G1 X146.94 Y138.275 E.02007
G1 X150.156 Y139.962 E.25617
G1 X153.201 Y141.843 E.25247
G1 X156.083 Y143.912 E.25035
G1 X158.795 Y146.158 E.24839
G1 X161.326 Y148.567 E.24653
G1 X163.669 Y151.126 E.24475
G1 X165.814 Y153.822 E.24304
G1 X167.751 Y156.642 E.24139
G1 X169.474 Y159.573 E.23981
G1 X170.972 Y162.601 E.23834
G1 X172.237 Y165.714 E.23702
G1 X173.26 Y168.898 E.23593
G1 X174.032 Y172.14 E.23513
G1 X174.545 Y175.427 E.23473
G1 X174.79 Y178.747 E.23485
G1 X174.758 Y182.064 E.23397
G1 X174.332 Y184.114 E.14773
G1 X173.799 Y186.15 E.1485
G1 X173.168 Y188.14 E.14727
G1 X172.443 Y190.081 E.14618
G1 X171.626 Y191.97 E.14518
G1 X170.721 Y193.804 E.1443
G1 X169.73 Y195.58 E.14349
G1 X168.657 Y197.296 E.14277
G1 X167.504 Y198.948 E.14211
G1 X166.276 Y200.534 E.14151
G1 X164.974 Y202.05 E.14099
G1 X163.602 Y203.494 E.14052
G1 X162.164 Y204.864 E.14011
G1 X160.661 Y206.155 E.13976
G1 X159.098 Y207.365 E.13948
G1 X157.48 Y208.49 E.13902
G1 X155.29 Y209.8 E.17999
G1 X153.015 Y210.959 E.18014
G1 X150.659 Y211.959 E.18055
G1 X148.229 Y212.793 E.18127
G1 X145.73 Y213.454 E.18238
G1 X143.167 Y213.935 E.18393
G1 X140.547 Y214.229 E.186
G1 X137.873 Y214.329 E.1888
G1 X135.917 Y214.276 E.13802
G1 X133.986 Y214.119 E.13667
G1 X132.084 Y213.861 E.13538
G1 X130.214 Y213.503 E.13431
G1 X128.378 Y213.049 E.13343
G1 X126.578 Y212.501 E.13273
G1 X124.817 Y211.862 E.13221
G1 X123.096 Y211.134 E.13182
G1 X121.418 Y210.319 E.13158
G1 X119.786 Y209.42 E.13147
G1 X118.201 Y208.44 E.13145
G1 X116.667 Y207.38 E.13155
G1 X115.185 Y206.244 E.13174
G1 X113.757 Y205.034 E.13201
G1 X112.387 Y203.753 E.13235
G1 X111.619 Y202.962 E.07774
G1 X110.49 Y201.874 E.11067
G1 X109.836 Y201.027 E.07551
G1 X109.099 Y199.874 E.09647
G1 X108.297 Y198.466 E.11435
G1 X107.448 Y196.853 E.12858
G1 X106.566 Y195.087 E.13923
G1 X104.76 Y191.287 E.29683
G1 X101.372 Y183.989 E.56767
G1 X100.651 Y182.507 E.11624
G1 X100.001 Y181.249 E.0999
G1 X99.435 Y180.263 E.08018
G1 X99.011 Y179.663 E.05186
G1 X98.249 Y177.931 E.13346
G1 X97.475 Y176.321 E.12601
G1 X96.713 Y174.871 E.11555
G1 X95.963 Y173.567 E.10614
G1 X95.226 Y172.397 E.09756
G1 X94.385 Y171.191 E.10373
G1 X93.798 Y170.412 E.06883
G1 X93.107 Y169.569 E.07687
G1 X91.796 Y168.144 E.13661
G1 X90.588 Y166.982 E.11826
G1 X89.481 Y165.972 E.10566
G1 X88.49 Y165.021 E.09694
G1 X85.704 Y162.669 E.25718
G1 X83.636 Y161.004 E.18731
G1 X81.405 Y159.395 E.19404
G1 X80.288 Y158.697 E.09296
G1 X79.196 Y158.115 E.08728
G1 X78.153 Y157.688 E.0795
G1 X77.242 Y157.47 E.06613
G1 X76.769 Y157.438 E.03344
G1 X76.332 Y157.48 E.03095
G1 X75.919 Y157.605 E.03048
G1 X75.541 Y157.825 E.03083
G1 X75.199 Y158.164 E.03393
G1 X74.942 Y158.6 E.03577
G1 X74.775 Y159.083 E.03598
G1 X74.45 Y160.951 E.13381
G1 X74.125 Y162.312 E.0987
G1 X73.433 Y165.451 E.22677
G1 X72.484 Y168.464 E.22286
G1 X71.288 Y171.358 E.22089
G1 X69.856 Y174.118 E.21939
G1 X68.202 Y176.733 E.21828
G1 X66.339 Y179.189 E.21748
G1 X64.28 Y181.474 E.21698
G1 X62.036 Y183.573 E.21672
G1 X59.623 Y185.473 E.21674
G1 X57.052 Y187.163 E.21706
G1 X54.336 Y188.628 E.21771
G1 X51.488 Y189.857 E.21878
G1 X48.521 Y190.834 E.22037
G1 X45.448 Y191.549 E.22256
G1 X42.282 Y191.987 E.22551
G1 X39.031 Y192.137 E.2296
G1 X37.041 Y192.081 E.14045
G1 X35.076 Y191.916 E.1391
G1 X33.143 Y191.644 E.13771
G1 X31.244 Y191.269 E.13653
G1 X29.383 Y190.793 E.13552
G1 X27.562 Y190.219 E.13469
G1 X25.784 Y189.551 E.13401
G1 X24.29 Y188.895 E.11511
G1 X24.29 Y61.045 E9.01945
G1 X25.232 Y60.312 E.08421
G1 X26.273 Y59.345 E.10025
G1 X27.245 Y58.264 E.10253
G1 X28.144 Y57.063 E.10584
G1 X28.969 Y55.736 E.11024
G1 X29.718 Y54.276 E.11575
G1 X30.382 Y52.695 E.12095
G1 X30.909 Y51.141 E.11577
G1 X30.981 Y50.929 E.01579
G1 X31.361 Y49.472 E.10623
G1 X31.49 Y48.226 E.08837
G1 X31.453 Y47.657 E.04024
G1 X31.348 Y47.15 E.03655
G1 X31.163 Y46.674 E.03601
G1 X30.895 Y46.244 E.03573
G1 X30.546 Y45.871 E.03602
G1 X30.139 Y45.567 E.03587
G1 X29.669 Y45.321 E.0374
G1 X29.124 Y45.125 E.04088
G1 X27.892 Y44.885 E.08849
G1 X26.419 Y44.809 E.1041
G1 X24.29 Y44.809 E.15018
G1 X24.29 Y16.761 E1.97872
G1 X24.817 Y16.958 F9000
G1 E-3.5 F2400
;WIPE_START
G1 F7200
G1 X28.79 Y16.759 E-1.425
;WIPE_END
G1 E-.075 F2400
G1 X60.805 Y97.778 F9000
G1 E5 F2400
;TYPE:Perimeter
G1 F1200
G1 X60.668 Y97.753 E.00983
G1 X59.248 Y97.258 E.10609
G1 X58.724 Y96.979 E.04188
G1 X57.95 Y96.543 E.06267
G1 X56.677 Y95.522 E.11512
G1 X55.666 Y94.391 E.10703
G1 X54.827 Y93.097 E.10882
G1 X54.191 Y91.662 E.11072
G1 X53.791 Y90.112 E.11295
G1 X53.657 Y88.554 E.11027
G1 X53.68 Y82.673 E.41494
G1 X54.03 Y65.028 E1.24499
G1 X54.094 Y64.447 E.04129
G1 X54.09 Y63.905 E.0382
G1 X53.943 Y62.457 E.10269
G1 X53.524 Y59.123 E.23704
G1 X53.513 Y57.461 E.11729
G1 X53.633 Y56.63 E.05924
G1 X53.877 Y55.879 E.05569
G1 X54.14 Y55.389 E.03923
G1 X54.597 Y54.867 E.04897
G1 X55.008 Y54.556 E.03635
G1 X55.487 Y54.326 E.03745
G1 X55.97 Y54.192 E.03537
G1 X56.817 Y54.129 E.05995
G1 X57.899 Y54.205 E.07651
G1 X58.456 Y54.346 E.04048
G1 X58.914 Y54.547 E.03534
G1 X59.391 Y54.872 E.0407
G1 X59.753 Y55.253 E.0371
G1 X60.114 Y55.876 E.05081
G1 X60.365 Y56.708 E.06125
G1 X60.457 Y57.526 E.05811
G1 X60.467 Y59.021 E.10548
G1 X60.356 Y68.48 E.66735
G1 X60.42 Y77.849 E.66091
G1 X60.572 Y82.519 E.32966
G1 X60.832 Y87.201 E.33083
G1 X61.222 Y91.901 E.33271
G1 X61.79 Y96.855 E.35177
G1 X61.776 Y97.134 E.01971
G1 X61.649 Y97.428 E.02259
G1 X61.411 Y97.662 E.02355
G1 X61.101 Y97.786 E.02356
G1 X60.895 Y97.78 E.01451
G1 X60.854 Y97.219 F9000
;TYPE:External perimeter
G1 F1200
G1 X59.434 Y96.724 E.10609
G1 X58.227 Y96.05 E.0975
G1 X57.096 Y95.142 E.10235
G1 X56.138 Y94.08 E.10088
G1 X55.342 Y92.864 E.10255
G1 X54.738 Y91.516 E.1042
G1 X54.355 Y90.062 E.10612
G1 X54.223 Y88.557 E.10659
G1 X54.246 Y82.675 E.41494
G1 X54.596 Y65.04 E1.24436
G1 X54.66 Y64.477 E.03992
G1 X54.656 Y63.874 E.04255
G1 X54.505 Y62.393 E.10504
G1 X54.085 Y59.053 E.23752
G1 X54.078 Y57.459 E.11243
G1 X54.192 Y56.718 E.0529
G1 X54.412 Y56.062 E.0488
G1 X54.619 Y55.693 E.02986
G1 X55.02 Y55.242 E.04254
G1 X55.368 Y55 E.0299
G1 X55.701 Y54.85 E.02577
G1 X56.091 Y54.747 E.02848
G1 X56.857 Y54.693 E.05414
G1 X57.855 Y54.769 E.07061
G1 X58.344 Y54.906 E.03584
G1 X58.719 Y55.085 E.02934
G1 X59.037 Y55.314 E.02762
