; generated by PrusaSlicer 2.4.2+x64 on 2022-09-09 at 03:52:47 UTC

; 

; external perimeters extrusion width = 0.45mm
; perimeters extrusion width = 0.45mm
; infill extrusion width = 0.45mm
; solid infill extrusion width = 0.45mm
; top infill extrusion width = 0.40mm
; first layer extrusion width = 0.42mm

; external perimeters extrusion width = 0.45mm
; perimeters extrusion width = 0.45mm
; infill extrusion width = 0.45mm
; solid infill extrusion width = 0.45mm
; top infill extrusion width = 0.40mm
; first layer extrusion width = 0.42mm

M107
;TYPE:Custom
G90 ; use absolute coordinates
M83 ; extruder relative mode
M140 S65 ; set final bed temp
M104 S150 ; set temporary nozzle temp to prevent oozing during homing
G4 S10 ; allow partial nozzle warmup
G28 ; home all axis
G29 ;
G1 Z50 F240
G1 X2 Y10 F3000
M104 S200 ; set final nozzle temp
M190 S65 ; wait for bed temp to stabilize
M109 S200 ; wait for nozzle temp to stabilize
G1 Z0.28 F240
G92 E0
G1 Y140 E10 F1500 ; prime the nozzle
G1 X2.3 F5000
G92 E0
G1 Y10 E10 F1200 ; prime the nozzle
G92 E0
G21 ; set units to millimeters
G90 ; use absolute coordinates
M83 ; use relative distances for extrusion
; Filament gcode
M107
;LAYER_CHANGE
;Z:0.2
;HEIGHT:0.2
;BEFORE_LAYER_CHANGE
G92 E0
;0.2


G1 E-5 F3600
G1 Z.2 F9000
;AFTER_LAYER_CHANGE
;0.2
G1 X25.879 Y26.257
G1 E5 F2400
M204 S500
;TYPE:Skirt/Brim
;WIDTH:0.42
G1 F1200
G1 X26.812 Y25.337 E.04107
G1 X27.6 Y24.759 E.03065
G1 X45.512 Y15.257 E.63575
G1 X47.008 Y14.621 E.05097
G1 X47.86 Y14.393 E.02764
G1 X49.154 Y14.223 E.04093
G1 X181.433 Y15.299 E4.14767
G1 X183.14 Y15.498 E.05387
G1 X183.992 Y15.727 E.02764
G1 X185.488 Y16.363 E.05097
G1 X203.4 Y25.864 E.63575
G1 X204.188 Y26.443 E.03065
G1 X219.024 Y41.065 E.65313
G1 X219.941 Y42.697 E.05869
G1 X224.693 Y62.903 E.65083
G1 X224.782 Y63.676 E.0244
G1 X224.782 Y147.676 E2.63376
G1 X224.693 Y148.449 E.0244
G1 X219.941 Y168.655 E.65083
G1 X219.024 Y170.287 E.05869
G1 X204.188 Y184.91 E.65313
G1 X203.126 Y185.618 E.04003
G1 X137.395 Y213.243 E2.23557
G1 X136.667 Y213.456 E.02379
G1 X117.754 Y216.756 E.60194
G1 X114.174 Y216.806 E.11227
G1 X94.681 Y213.456 E.62014
G1 X93.915 Y213.226 E.02508
G1 X27.836 Y184.496 E2.25922
G1 X26.812 Y183.804 E.03875
G1 X11.976 Y169.182 E.65313
G1 X11.059 Y167.55 E.05869
G1 X6.307 Y147.344 E.65083
G1 X6.218 Y146.571 E.0244
G1 X6.218 Y62.571 E2.63376
G1 X6.307 Y61.798 E.0244
G1 X11.059 Y41.592 E.65083
G1 X11.976 Y39.96 E.05869
G1 X25.836 Y26.299 E.61018
G1 E-3.5 F3600
;WIPE_START
G1 F7200
G1 X26.812 Y25.337 E-.65066
G1 X27.6 Y24.759 E-.46426
G1 X28.177 Y24.453 E-.31007
;WIPE_END
G1 E-.075 F3600
G1 X49.595 Y114.274 F9000
G1 E5 F2400
;TYPE:Perimeter
G1 F1200
G1 X55.284 Y123.032 E.32745
G1 X50.027 Y133.991 E.38109
G1 X49.162 Y133.991 E.02712
G1 X43.906 Y123.032 E.38109
G1 X49.562 Y114.324 E.32557
G1 X49.595 Y114.966 F9000
;TYPE:External perimeter
G1 F1200
G1 X54.852 Y123.06 E.30261
G1 X49.79 Y133.614 E.36701
G1 X49.4 Y133.614 E.01224
G1 X44.337 Y123.06 E.36701
G1 X49.562 Y115.017 E.30073
G1 X49.842 Y114.652 F9000
G1 E-3.5 F3600
;WIPE_START
G1 F7200
G1 X51.211 Y117.523 E-1.425
;WIPE_END
G1 E-.075 F3600
G1 X40.42 Y121.322 F9000
G1 E5 F2400
;TYPE:Perimeter
G1 F1200
G1 X38.325 Y127.25 E.19714
G1 X32.444 Y125.172 E.19555
G1 X33.338 Y117.687 E.23634
G1 X40.367 Y121.295 E.24773
G1 X39.955 Y121.507 F9000
;TYPE:External perimeter
G1 F1200
G1 X38.095 Y126.769 E.17499
G1 X32.855 Y124.917 E.17427
G1 X33.648 Y118.27 E.20988
G1 X39.902 Y121.48 E.22039
G1 X40.354 Y121.538 F9000
G1 E-3.5 F3600
;WIPE_START
G1 F7200
G1 X38.932 Y124.319 E-1.425
;WIPE_END
G1 E-.075 F3600
G1 X32.646 Y129.582 F9000
G1 E5 F2400
;TYPE:Perimeter
G1 F1200
G1 X38.796 Y139.678 E.37065
G1 X38.344 Y140.398 E.02664
G1 X26.588 Y139.25 E.37036
G1 X22.068 Y129.827 E.32769
G1 X32.586 Y129.584 E.32987
G1 X32.438 Y129.964 F9000
;TYPE:External perimeter
G1 F1200
G1 X38.353 Y139.675 E.35652
G1 X38.149 Y140 E.01202
G1 X26.836 Y138.896 E.35638
G1 X22.661 Y130.191 E.30272
G1 X32.378 Y129.966 E.30474
G1 X32.743 Y129.706 F9000
G1 E-3.5 F3600
;WIPE_START
G1 F7200
G1 X33.95 Y132.521 E-1.425
;WIPE_END
G1 E-.075 F3600
G1 X40.846 Y131.351 F9000
G1 E5 F2400
;TYPE:Perimeter
G1 F1200
G1 X44.743 Y133.536 E.14008
G1 X45.494 Y138.258 E.1499
G1 X44.74 Y138.743 E.0281
G1 X40.709 Y136.082 E.15147
G1 X40.844 Y131.411 E.14653
G1 X41.205 Y131.984 F9000
;TYPE:External perimeter
G1 F1200
G1 X44.399 Y133.776 E.11483
G1 X45.083 Y138.074 E.13646
G1 X44.743 Y138.293 E.01268
G1 X41.092 Y135.883 E.13717
G1 X41.203 Y132.044 E.12041
G1 X41.273 Y131.59 F9000
G1 E-3.5 F3600
;WIPE_START
G1 F7200
G1 X43.841 Y133.473 E-1.425
;WIPE_END
G1 E-.075 F3600
G1 X35.811 Y143.449 F9000
G1 E5 F2400
;TYPE:Perimeter
G1 F1200
G1 X35.979 Y143.35 E.00611
G1 X42.187 Y146.125 E.21322
G1 X42.187 Y147.016 E.02793
G1 X35.979 Y149.792 E.21322
G1 X30.524 Y146.571 E.19861
G1 X35.759 Y143.479 E.19062
G1 X36.003 Y143.774 F9000
;TYPE:External perimeter
G1 F1200
G1 X41.81 Y146.37 E.19945
G1 X41.81 Y146.772 E.0126
G1 X36.003 Y149.368 E.19945
G1 X31.266 Y146.571 E.17248
G1 X35.951 Y143.804 E.1706
G1 X36.113 Y143.389 F9000
G1 E-3.5 F3600
;WIPE_START
G1 F7200
G1 X38.699 Y145.008 E-1.425
;WIPE_END
G1 E-.075 F3600
G1 X38.344 Y152.744 F9000
G1 E5 F2400
;TYPE:Perimeter
G1 F1200
G1 X38.796 Y153.463 E.02664
G1 X32.646 Y163.559 E.37065
G1 X22.068 Y163.315 E.33175
G1 X26.588 Y153.891 E.32769
G1 X38.285 Y152.75 E.36848
G1 X38.149 Y153.142 F9000
;TYPE:External perimeter
G1 F1200
G1 X38.353 Y153.466 E.01202
G1 X32.438 Y163.177 E.35652
G1 X22.661 Y162.951 E.30662
G1 X26.836 Y154.246 E.30272
G1 X38.089 Y153.148 E.3545
G1 X38.473 Y152.938 F9000
G1 E-3.5 F3600
;WIPE_START
G1 F7200
G1 X38.353 Y153.466 E-.1965
G1 X37.007 Y155.675 E-1.2285
;WIPE_END
G1 E-.075 F3600
G1 X40.709 Y157.06 F9000
G1 E5 F2400
;TYPE:Perimeter
G1 F1200
G1 X44.74 Y154.398 E.15147
G1 X45.494 Y154.884 E.0281
G1 X44.743 Y159.606 E.1499
G1 X40.846 Y161.791 E.14008
G1 X40.71 Y157.12 E.14653
G1 X41.092 Y157.259 F9000
;TYPE:External perimeter
G1 F1200
G1 X44.743 Y154.849 E.13717
G1 X45.083 Y155.068 E.01268
G1 X44.399 Y159.366 E.13646
G1 X41.205 Y161.157 E.11483
G1 X41.093 Y157.319 E.12041
G1 X40.827 Y156.959 F9000
G1 E-3.5 F3600
;WIPE_START
G1 F7200
G1 X43.578 Y155.637 E-1.425
;WIPE_END
G1 E-.075 F3600
G1 X53.696 Y154.884 F9000
G1 E5 F2400
;TYPE:Perimeter
G1 F1200
G1 X54.449 Y154.398 E.0281
G1 X58.481 Y157.06 E.15147
G1 X58.344 Y161.791 E.14841
G1 X54.447 Y159.606 E.14008
G1 X53.705 Y154.943 E.14802
G1 X54.126 Y155.185 F9000
;TYPE:External perimeter
G1 F1200
G1 X54.107 Y155.068 E.00374
G1 X54.447 Y154.849 E.01268
G1 X58.098 Y157.259 E.13717
G1 X57.985 Y161.157 E.12229
G1 X54.791 Y159.366 E.11483
G1 X54.135 Y155.245 E.13085
G1 X54.01 Y155.159 F9000
G1 E-3.5 F3600
;WIPE_START
G1 F7200
G1 X54.107 Y155.068 E-.08509
G1 X54.447 Y154.849 E-.1921
G1 X56.464 Y156.18 E-1.14781
;WIPE_END
G1 E-.075 F3600
G1 X60.394 Y153.463 F9000
G1 E5 F2400
;TYPE:Perimeter
G1 F1200
G1 X60.845 Y152.744 E.02664
G1 X72.602 Y153.891 E.37036
G1 X77.121 Y163.315 E.32769
G1 X66.543 Y163.559 E.33175
G1 X60.425 Y153.515 E.36877
G1 X60.837 Y153.466 F9000
;TYPE:External perimeter
G1 F1200
G1 X61.041 Y153.142 E.01202
G1 X72.353 Y154.246 E.35638
G1 X76.529 Y162.951 E.30272
G1 X66.752 Y163.177 E.30662
G1 X60.868 Y153.518 E.35464
G1 X60.511 Y153.264 F9000
G1 E-3.5 F3600
;WIPE_START
G1 F7200
G1 X61.041 Y153.142 E-.1965
G1 X63.615 Y153.393 E-1.2285
;WIPE_END
G1 E-.075 F3600
G1 X63.211 Y143.35 F9000
G1 E5 F2400
;TYPE:Perimeter
G1 F1200
G1 X68.666 Y146.571 E.19861
G1 X63.211 Y149.792 E.19861
G1 X57.003 Y147.016 E.21322
G1 X57.003 Y146.125 E.02793
G1 X63.156 Y143.374 E.21134
G1 X63.187 Y143.774 F9000
;TYPE:External perimeter
G1 F1200
G1 X67.924 Y146.571 E.17248
G1 X63.187 Y149.368 E.17248
G1 X57.38 Y146.772 E.19945
G1 X57.38 Y146.37 E.0126
G1 X63.132 Y143.798 E.19757
G1 X63.451 Y143.473 F9000
G1 E-3.5 F3600
;WIPE_START
G1 F7200
G1 X65.729 Y145.301 E-1.425
;WIPE_END
G1 E-.075 F3600
G1 X70.233 Y146.571 F9000
G1 E5 F2400
;TYPE:Perimeter
G1 F1200
G1 X75.817 Y141.741 E.2315
G1 X81.5 Y146.571 E.23385
G1 X75.817 Y151.401 E.23385
G1 X70.278 Y146.61 E.22962
G1 X70.809 Y146.571 F9000
;TYPE:External perimeter
G1 F1200
G1 X75.819 Y142.237 E.2077
G1 X80.918 Y146.571 E.2098
G1 X75.819 Y150.904 E.2098
G1 X70.854 Y146.61 E.20582
G1 X70.473 Y146.354 F9000
G1 E-3.5 F3600
;WIPE_START
G1 F7200
G1 X73.106 Y144.627 E-1.425
;WIPE_END
G1 E-.075 F3600
G1 X58.481 Y136.082 F9000
G1 E5 F2400
;TYPE:Perimeter
G1 F1200
G1 X54.449 Y138.743 E.15147
G1 X53.696 Y138.258 E.0281
G1 X54.447 Y133.536 E.1499
G1 X58.344 Y131.351 E.14008
G1 X58.479 Y136.022 E.14653
G1 X58.098 Y135.883 F9000
;TYPE:External perimeter
G1 F1200
G1 X54.447 Y138.293 E.13717
G1 X54.107 Y138.074 E.01268
G1 X54.791 Y133.776 E.13646
G1 X57.985 Y131.984 E.11483
G1 X58.096 Y135.823 E.12041
G1 X58.363 Y136.183 F9000
G1 E-3.5 F3600
;WIPE_START
G1 F7200
G1 X55.612 Y137.504 E-1.425
;WIPE_END
G1 E-.075 F3600
G1 X66.543 Y129.582 F9000
G1 E5 F2400
;TYPE:Perimeter
G1 F1200
G1 X77.121 Y129.827 E.33175
G1 X72.602 Y139.25 E.32769
G1 X60.845 Y140.398 E.37036
G1 X60.394 Y139.678 E.02664
G1 X66.512 Y129.633 E.36877
G1 X66.752 Y129.964 F9000
;TYPE:External perimeter
G1 F1200
G1 X76.529 Y130.191 E.30662
G1 X72.353 Y138.896 E.30272
G1 X61.041 Y140 E.35638
G1 X60.837 Y139.675 E.01202
G1 X66.721 Y130.015 E.35464
G1 X66.827 Y129.571 F9000
G1 E-3.5 F3600
;WIPE_START
G1 F7200
G1 X69.72 Y130.069 E-1.425
;WIPE_END
G1 E-.075 F3600
G1 X65.852 Y117.687 F9000
G1 E5 F2400
;TYPE:Perimeter
G1 F1200
G1 X66.745 Y125.172 E.23634
G1 X60.865 Y127.25 E.19555
G1 X58.769 Y121.322 E.19714
G1 X65.799 Y117.714 E.24773
G1 X65.542 Y118.27 F9000
;TYPE:External perimeter
G1 F1200
G1 X66.335 Y124.917 E.20988
G1 X61.095 Y126.769 E.17427
G1 X59.235 Y121.507 E.17499
G1 X65.488 Y118.297 E.22039
G1 X65.903 Y118.099 F9000
G1 E-3.5 F3600
;WIPE_START
G1 F7200
G1 X65.869 Y121.273 E-1.425
;WIPE_END
G1 E-.075 F3600
G1 X28.957 Y146.571 F9000
G1 E5 F2400
;TYPE:Perimeter
G1 F1200
G1 X23.373 Y151.401 E.2315
G1 X17.69 Y146.571 E.23385
G1 X23.373 Y141.741 E.23385
G1 X28.912 Y146.532 E.22962
G1 X28.381 Y146.571 F9000
;TYPE:External perimeter
G1 F1200
G1 X23.371 Y150.904 E.2077
G1 X18.272 Y146.571 E.2098
G1 X23.371 Y142.237 E.2098
G1 X28.335 Y146.532 E.20582
G1 X28.717 Y146.787 F9000
G1 E-3.5 F3600
;WIPE_START
G1 F7200
G1 X26.084 Y148.514 E-1.425
;WIPE_END
G1 E-.075 F3600
G1 X38.325 Y165.892 F9000
G1 E5 F2400
;TYPE:Perimeter
G1 F1200
G1 X40.42 Y171.82 E.19714
G1 X33.338 Y175.455 E.24961
G1 X32.444 Y167.97 E.23634
G1 X38.268 Y165.912 E.19367
G1 X38.095 Y166.373 F9000
;TYPE:External perimeter
G1 F1200
G1 X39.955 Y171.635 E.17499
G1 X33.648 Y174.872 E.22228
G1 X32.855 Y168.225 E.20988
G1 X38.038 Y166.393 E.17239
G1 X38.428 Y166.15 F9000
G1 E-3.5 F3600
;WIPE_START
G1 F7200
G1 X39.069 Y169.21 E-1.425
;WIPE_END
G1 E-.075 F3600
G1 X58.769 Y171.82 F9000
G1 E5 F2400
;TYPE:Perimeter
G1 F1200
G1 X60.865 Y165.892 E.19714
G1 X66.745 Y167.97 E.19555
G1 X65.852 Y175.455 E.23634
G1 X58.823 Y171.847 E.24773
G1 X59.235 Y171.635 F9000
;TYPE:External perimeter
G1 F1200
G1 X61.095 Y166.373 E.17499
G1 X66.335 Y168.225 E.17427
G1 X65.542 Y174.872 E.20988
G1 X59.288 Y171.662 E.22039
G1 X58.836 Y171.604 F9000
G1 E-3.5 F3600
;WIPE_START
G1 F7200
G1 X60.258 Y168.823 E-1.425
;WIPE_END
G1 E-.075 F3600
G1 X58.159 Y174.785 F9000
G1 E5 F2400
;TYPE:Perimeter
G1 F1200
G1 X52.067 Y182.391 E.30553
G1 X51.765 Y182.79 E.01569
G1 X51.78 Y182.232 E.01752
G1 X51.782 Y175.501 E.21104
G1 X55.284 Y170.11 E.20157
G1 X51.782 Y162.809 E.25389
G1 X51.782 Y149.6 E.41415
G1 X53.957 Y149.6 E.06819
G1 X54.301 Y148.613 E.03278
G1 X53.156 Y147.703 E.04585
G1 X54.771 Y146.571 E.06184
G1 X53.156 Y145.439 E.06184
G1 X54.301 Y144.529 E.04585
G1 X53.957 Y143.542 E.03278
G1 X51.444 Y143.542 E.07879
G1 X50.002 Y140.911 E.09406
G1 X49.188 Y140.911 E.02552
G1 X47.746 Y143.542 E.09406
G1 X45.233 Y143.542 E.07879
G1 X44.888 Y144.529 E.03278
G1 X46.033 Y145.439 E.04585
G1 X44.418 Y146.571 E.06184
G1 X46.033 Y147.703 E.06184
G1 X44.888 Y148.613 E.04585
G1 X45.233 Y149.6 E.03278
G1 X47.408 Y149.6 E.06819
G1 X47.408 Y162.809 E.41415
G1 X43.906 Y170.11 E.25389
G1 X47.408 Y175.501 E.20157
G1 X47.41 Y182.232 E.21104
G1 X47.425 Y182.79 E.01752
G1 X47.123 Y182.391 E.01569
G1 X41.031 Y174.785 E.30553
G1 X29.87 Y180.294 E.39026
G1 X29.87 Y168.398 E.37297
G1 X15.394 Y166.238 E.4589
G1 X21.608 Y154.092 E.42779
G1 X10.798 Y146.571 E.41289
G1 X21.608 Y139.05 E.41289
G1 X15.394 Y126.903 E.42779
G1 X29.87 Y124.743 E.4589
G1 X29.87 Y112.848 E.37297
G1 X41.031 Y118.356 E.39026
G1 X49.595 Y107.67 E.42939
G1 X58.159 Y118.356 E.42939
G1 X69.32 Y112.848 E.39026
G1 X69.32 Y124.743 E.37297
G1 X83.796 Y126.903 E.4589
G1 X77.582 Y139.05 E.42779
G1 X88.392 Y146.571 E.41289
G1 X77.582 Y154.092 E.41289
G1 X83.796 Y166.238 E.42779
G1 X69.32 Y168.398 E.4589
G1 X69.32 Y180.294 E.37297
G1 X58.212 Y174.812 E.38838
G1 X58.263 Y175.258 F9000
;TYPE:External perimeter
G1 F1200
G1 X52.364 Y182.623 E.29587
G1 X52.067 Y183.016 E.01545
G1 X51.53 Y183.82 E.03034
G1 X51.305 Y184.101 E.01128
G1 X51.305 Y183.718 E.012
G1 X51.391 Y182.731 E.03107
G1 X51.403 Y182.227 E.01581
G1 X51.405 Y175.389 E.21441
G1 X54.852 Y170.082 E.19843
G1 X51.405 Y162.894 E.24994
G1 X51.405 Y149.223 E.42866
G1 X53.689 Y149.223 E.07162
G1 X53.857 Y148.741 E.01599
G1 X52.526 Y147.684 E.05328
G1 X54.115 Y146.571 E.06081
G1 X52.526 Y145.457 E.06081
G1 X53.857 Y144.4 E.05328
G1 X53.689 Y143.919 E.01599
G1 X51.221 Y143.919 E.0774
G1 X49.778 Y141.288 E.09406
G1 X49.411 Y141.288 E.01151
G1 X47.969 Y143.919 E.09406
G1 X45.501 Y143.919 E.0774
G1 X45.333 Y144.4 E.01599
G1 X46.663 Y145.457 E.05328
G1 X45.075 Y146.571 E.06081
G1 X46.663 Y147.684 E.06081
G1 X45.333 Y148.741 E.05328
G1 X45.501 Y149.223 E.01599
G1 X47.785 Y149.223 E.07162
G1 X47.785 Y162.894 E.42866
G1 X44.337 Y170.082 E.24994
G1 X47.785 Y175.389 E.19843
G1 X47.787 Y182.227 E.21441
G1 X47.798 Y182.731 E.01581
G1 X47.885 Y183.718 E.03107
G1 X47.885 Y184.101 E.012
G1 X47.66 Y183.82 E.01128
G1 X47.123 Y183.016 E.03034
G1 X46.825 Y182.623 E.01545
G1 X40.926 Y175.258 E.29587
G1 X29.493 Y180.901 E.39978
G1 X29.493 Y168.723 E.3818
G1 X14.819 Y166.534 E.46516
G1 X21.122 Y154.213 E.43392
G1 X10.138 Y146.571 E.41956
G1 X21.122 Y138.928 E.41956
G1 X14.819 Y126.608 E.43392
G1 X29.493 Y124.418 E.46516
G1 X29.493 Y112.241 E.3818
G1 X40.926 Y117.884 E.39978
G1 X49.595 Y107.067 E.43464
G1 X58.263 Y117.884 E.43464
G1 X69.697 Y112.241 E.39978
G1 X69.697 Y124.418 E.3818
G1 X84.37 Y126.608 E.46516
G1 X78.068 Y138.928 E.43392
G1 X89.052 Y146.571 E.41956
G1 X78.068 Y154.213 E.41956
G1 X84.37 Y166.534 E.43392
G1 X69.697 Y168.723 E.46516
G1 X69.697 Y180.901 E.3818
G1 X58.317 Y175.284 E.3979
G1 X57.879 Y175.148 F9000
G1 E-3.5 F3600
;WIPE_START
G1 F7200
G1 X56.427 Y177.614 E-1.425
;WIPE_END
G1 E-.075 F3600
G1 X85.905 Y144.979 F9000
G1 E5 F2400
;TYPE:Solid infill
;WIDTH:0.420402
G1 F1200
G1 X87.661 Y146.735 E.07795
G1 X87.346 Y146.954 E.01204
G1 X84.83 Y144.437 E.1117
G1 X83.075 Y143.216 E.06709
G1 X87.032 Y147.173 E.17561
G1 X86.717 Y147.392 E.01204
G1 X81.321 Y141.996 E.23952
G1 X79.566 Y140.775 E.06709
G1 X86.524 Y147.733 E.30884
G1 E-3.5 F3600
;WIPE_START
G1 F7200
G1 X84.403 Y145.611 E-1.425
;WIPE_END
G1 E-.075 F3600
G1 X83.367 Y127.493 F9000
G1 E5 F2400
G1 F1200
G1 X82.935 Y127.061 E.01918
G1 X82.307 Y126.967 E.01991
G1 X83.06 Y127.72 E.03342
G1 X82.88 Y128.073 E.01245
G1 X81.68 Y126.873 E.05325
G1 X81.052 Y126.78 E.01991
G1 X82.699 Y128.426 E.07309
G1 X82.518 Y128.779 E.01245
G1 X80.425 Y126.686 E.09292
G1 X79.797 Y126.592 E.01991
G1 X82.338 Y129.133 E.11275
G1 X82.157 Y129.486 E.01245
G1 X79.17 Y126.499 E.13259
G1 X78.543 Y126.405 E.01991
G1 X81.976 Y129.839 E.15242
G1 X81.796 Y130.192 E.01245
G1 X77.915 Y126.312 E.17225
G1 X77.288 Y126.218 E.01991
G1 X81.615 Y130.545 E.19209
G1 X81.434 Y130.898 E.01245
G1 X76.66 Y126.124 E.21192
G1 X76.033 Y126.031 E.01991
G1 X81.254 Y131.252 E.23175
G1 X81.073 Y131.605 E.01245
G1 X75.405 Y125.937 E.25159
G1 X74.778 Y125.843 E.01991
G1 X80.892 Y131.958 E.27142
G1 X80.712 Y132.311 E.01245
G1 X74.15 Y125.75 E.29125
G1 X73.523 Y125.656 E.01991
