; generated by PrusaSlicer 2.4.2+x64 on 2022-09-09 at 03:59:20 UTC

; 

; external perimeters extrusion width = 0.45mm
; perimeters extrusion width = 0.45mm
; infill extrusion width = 0.45mm
; solid infill extrusion width = 0.45mm
; top infill extrusion width = 0.40mm
; first layer extrusion width = 0.42mm

M107
;TYPE:Custom
G90 ; use absolute coordinates
M83 ; extruder relative mode
M140 S65 ; set final bed temp
M104 S150 ; set temporary nozzle temp to prevent oozing during homing
G4 S10 ; allow partial nozzle warmup
G28 ; home all axis
G29 ;
G1 Z50 F240
G1 X2 Y10 F3000
M104 S200 ; set final nozzle temp
M190 S65 ; wait for bed temp to stabilize
M109 S200 ; wait for nozzle temp to stabilize
G1 Z0.28 F240
G92 E0
G1 Y140 E10 F1500 ; prime the nozzle
G1 X2.3 F5000
G92 E0
G1 Y10 E10 F1200 ; prime the nozzle
G92 E0
G21 ; set units to millimeters
G90 ; use absolute coordinates
M83 ; use relative distances for extrusion
; Filament gcode
M107
;LAYER_CHANGE
;Z:0.2
;HEIGHT:0.2
;BEFORE_LAYER_CHANGE
G92 E0
;0.2


G1 E-5 F3600
G1 Z.2 F9000
;AFTER_LAYER_CHANGE
;0.2
G1 X41.616 Y55.959
G1 E5 F2400
M204 S500
;TYPE:Skirt/Brim
;WIDTH:0.42
G1 F1200
G1 X77.305 Y29.417 E1.39453
G1 X78.023 Y29.009 E.02592
G1 X112.208 Y14.795 E1.16079
G1 X113.187 Y14.471 E.03232
G1 X114.156 Y14.313 E.03081
G1 X114.896 Y14.301 E.02319
G1 X115.87 Y14.429 E.03081
G1 X117.14 Y14.844 E.04188
G1 X182.782 Y46.851 E2.28982
G1 X183.642 Y47.415 E.03224
G1 X213.13 Y70.013 E1.16485
G1 X213.898 Y70.697 E.03224
G1 X214.52 Y71.458 E.03081
G1 X214.9 Y72.092 E.02319
G1 X215.277 Y73 E.03081
G1 X215.554 Y74.329 E.04256
G1 X220.201 Y147.547 E2.30032
G1 X220.142 Y148.576 E.03232
G1 X215.305 Y185.281 E1.16079
G1 X214.638 Y186.894 E.05474
G1 X212.813 Y189.275 E.09406
G1 X211.429 Y190.339 E.05474
G1 X177.244 Y204.552 E1.16079
G1 X176.266 Y204.877 E.03232
G1 X175.56 Y205.02 E.0226
G1 X51.803 Y216.673 E3.89747
G1 X50.8 Y216.699 E.03146
G1 X49.825 Y216.571 E.03081
G1 X49.114 Y216.369 E.02319
G1 X48.218 Y215.967 E.03081
G1 X47.358 Y215.403 E.03224
G1 X17.87 Y192.805 E1.16485
G1 X17.102 Y192.121 E.03224
G1 X16.48 Y191.36 E.03081
G1 X16.1 Y190.725 E.02319
G1 X15.723 Y189.818 E.03081
G1 X15.542 Y189.101 E.02319
G1 X15.446 Y188.489 E.01942
G1 X10.799 Y115.271 E2.30031
G1 X10.858 Y114.242 E.03232
G1 X15.695 Y77.537 E1.16079
G1 X16.362 Y75.924 E.05474
G1 X18.187 Y73.543 E.09406
G1 X18.852 Y72.887 E.02929
G1 X41.567 Y55.995 E.88758
G1 E-3.5 F3600
;WIPE_START
G1 F7200
G1 X43.975 Y54.204 E-1.425
;WIPE_END
G1 E-.075 F3600
G1 X61.972 Y142.607 F9000
G1 E5 F2400
;TYPE:Perimeter
G1 F1200
G1 X63.076 Y143.854 E.05222
G1 X66.678 Y142.08 E.12589
G1 X67.475 Y142.931 E.03656
G1 X67.415 Y143.391 E.01455
G1 X60.769 Y150.863 E.31354
G1 X60.296 Y154.478 E.1143
G1 X61.025 Y154.949 E.02723
G1 X67.749 Y150.799 E.24776
G1 X68.557 Y151.575 E.03513
G1 X68.498 Y152.02 E.01409
G1 X60.064 Y161.913 E.40761
G1 X59.454 Y166.569 E.14722
G1 X61.879 Y168.427 E.0958
G1 X66.216 Y166.628 E.14722
G1 X73.576 Y155.911 E.40761
G1 X73.991 Y155.739 E.01409
G1 X74.95 Y156.318 E.03513
G1 X72.69 Y163.889 E.24776
G1 X73.335 Y164.471 E.02723
G1 X76.702 Y163.074 E.1143
G1 X82.19 Y154.714 E.31354
G1 X82.618 Y154.536 E.01455
G1 X83.647 Y155.085 E.03656
G1 X82.871 Y159.024 E.12589
G1 X84.516 Y159.843 E.05761
G1 X89.435 Y157.802 E.16697
G1 X90.027 Y157.531 E.0204
G1 X90.559 Y157.458 E.01685
G1 X91.09 Y157.541 E.01685
G1 X91.575 Y157.774 E.01685
G1 X91.972 Y158.136 E.01685
G1 X92.248 Y158.597 E.01685
G1 X92.379 Y159.118 E.01685
G1 X92.355 Y159.655 E.01685
G1 X92.178 Y160.163 E.01685
G1 X91.862 Y160.597 E.01685
G1 X91.434 Y160.923 E.01685
G1 X90.824 Y161.151 E.0204
G1 X85.906 Y163.192 E.16697
G1 X85.324 Y164.934 E.05761
G1 X88.661 Y167.167 E.12589
G1 X88.322 Y168.283 E.03656
G1 X87.894 Y168.461 E.01455
G1 X78.1 Y166.442 E.31354
G1 X74.733 Y167.839 E.1143
G1 X74.689 Y168.706 E.02723
G1 X81.646 Y172.453 E.24776
G1 X81.378 Y173.541 E.03513
G1 X80.962 Y173.714 E.01409
G1 X68.178 Y171.356 E.40761
G1 X63.841 Y173.155 E.14722
G1 X63.444 Y176.185 E.0958
G1 X67.171 Y179.041 E.14722
G1 X80.131 Y180.056 E.40761
G1 X80.488 Y180.329 E.01409
G1 X80.467 Y181.45 E.03513
G1 X72.779 Y183.279 E.24776
G1 X72.682 Y183.734 E.01459
G1 X56.728 Y171.507 E.63022
G1 X54.068 Y174.979 E.13715
G1 X70.022 Y187.205 E.63022
G1 X69.608 Y187.418 E.01459
G1 X69.84 Y195.316 E.24776
G1 X68.764 Y195.628 E.03513
G1 X68.408 Y195.354 E.01409
G1 X64.057 Y183.104 E.40761
G1 X60.331 Y180.248 E.14722
G1 X57.508 Y181.419 E.0958
G1 X56.898 Y186.074 E.14722
G1 X62.499 Y197.806 E.40761
G1 X62.441 Y198.252 E.01409
G1 X61.46 Y198.793 E.03513
G1 X56.032 Y193.05 E.24776
G1 X55.206 Y193.318 E.02723
G1 X54.733 Y196.933 E.1143
G1 X59.229 Y205.865 E.31354
G1 X59.169 Y206.325 E.01455
G1 X58.179 Y206.942 E.03656
G1 X55.156 Y204.3 E.12589
G1 X53.624 Y205.315 E.05761
G1 X52.932 Y210.595 E.16697
G1 X52.871 Y211.243 E.0204
G1 X52.668 Y211.741 E.01685
G1 X52.33 Y212.159 E.01685
G1 X51.887 Y212.462 E.01685
G1 X51.374 Y212.625 E.01685
G1 X50.837 Y212.634 E.01685
G1 X50.32 Y212.487 E.01685
G1 X49.867 Y212.198 E.01685
G1 X49.516 Y211.79 E.01685
G1 X49.298 Y211.299 E.01685
G1 X49.23 Y210.766 E.01685
G1 X49.337 Y210.124 E.0204
G1 X50.029 Y204.844 E.16697
G1 X48.811 Y203.468 E.05761
G1 X45.209 Y205.242 E.12589
G1 X44.412 Y204.391 E.03656
G1 X44.472 Y203.931 E.01455
G1 X51.118 Y196.459 E.31354
G1 X51.591 Y192.844 E.1143
G1 X50.862 Y192.373 E.02723
G1 X44.138 Y196.524 E.24776
G1 X43.33 Y195.747 E.03513
G1 X43.389 Y195.302 E.01409
G1 X51.823 Y185.409 E.40761
G1 X52.433 Y180.754 E.14722
G1 X51.759 Y180.237 E.02662
G1 X50.008 Y178.895 E.06918
G1 X45.671 Y180.695 E.14722
G1 X38.311 Y191.411 E.40761
G1 X37.896 Y191.583 E.01409
G1 X36.937 Y191.005 E.03513
G1 X39.196 Y183.433 E.24776
G1 X38.552 Y182.851 E.02723
G1 X35.185 Y184.248 E.1143
G1 X29.697 Y192.608 E.31354
G1 X29.269 Y192.786 E.01455
G1 X28.24 Y192.238 E.03656
G1 X29.016 Y188.298 E.12589
G1 X27.371 Y187.48 E.05761
G1 X22.452 Y189.52 E.16697
G1 X21.86 Y189.791 E.0204
G1 X21.328 Y189.864 E.01685
G1 X20.797 Y189.781 E.01685
G1 X20.312 Y189.548 E.01685
G1 X19.915 Y189.186 E.01685
G1 X19.639 Y188.725 E.01685
G1 X19.508 Y188.204 E.01685
G1 X19.532 Y187.667 E.01685
G1 X19.709 Y187.159 E.01685
G1 X20.025 Y186.725 E.01685
G1 X20.453 Y186.399 E.01685
G1 X21.063 Y186.171 E.0204
G1 X25.981 Y184.131 E.16697
G1 X26.563 Y182.388 E.05761
G1 X23.226 Y180.155 E.12589
G1 X23.565 Y179.039 E.03656
G1 X23.993 Y178.862 E.01455
G1 X33.787 Y180.881 E.31354
G1 X37.154 Y179.484 E.1143
G1 X37.198 Y178.616 E.02723
G1 X30.241 Y174.869 E.24776
G1 X30.509 Y173.781 E.03513
G1 X30.924 Y173.609 E.01409
G1 X43.709 Y175.967 E.40761
G1 X48.046 Y174.167 E.14722
G1 X48.443 Y171.137 E.0958
G1 X44.716 Y168.281 E.14722
G1 X31.756 Y167.266 E.40761
G1 X31.399 Y166.993 E.01409
G1 X31.42 Y165.872 E.03513
G1 X39.107 Y164.044 E.24776
G1 X39.289 Y163.194 E.02723
G1 X36.395 Y160.977 E.1143
G1 X26.412 Y160.405 E.31354
G1 X26.043 Y160.122 E.01455
G1 X26.004 Y158.957 E.03656
G1 X29.804 Y157.659 E.12589
G1 X29.69 Y155.826 E.05761
G1 X25.463 Y152.586 E.16697
G1 X24.933 Y152.209 E.0204
G1 X24.603 Y151.785 E.01685
G1 X24.41 Y151.283 E.01685
G1 X24.369 Y150.747 E.01685
G1 X24.484 Y150.222 E.01685
G1 X24.746 Y149.753 E.01685
G1 X25.131 Y149.378 E.01685
G1 X25.608 Y149.13 E.01685
G1 X26.136 Y149.03 E.01685
G1 X26.671 Y149.087 E.01685
G1 X27.167 Y149.295 E.01685
G1 X27.669 Y149.709 E.0204
G1 X31.895 Y152.948 E.16697
G1 X33.696 Y152.581 E.05761
G1 X33.961 Y148.574 E.12589
G1 X35.096 Y148.309 E.03656
G1 X35.465 Y148.592 E.01455
G1 X38.613 Y158.083 E.31354
G1 X41.506 Y160.3 E.1143
G1 X42.279 Y159.905 E.02723
G1 X42.047 Y152.006 E.24776
G1 X43.123 Y151.694 E.03513
G1 X43.479 Y151.968 E.01409
G1 X47.829 Y164.218 E.40761
G1 X51.556 Y167.075 E.14722
G1 X54.379 Y165.903 E.0958
G1 X54.989 Y161.248 E.14722
G1 X49.388 Y149.516 E.40761
G1 X49.446 Y149.071 E.01409
G1 X50.427 Y148.529 E.03513
G1 X55.854 Y154.272 E.24776
G1 X56.68 Y154.004 E.02723
G1 X57.154 Y150.39 E.1143
G1 X52.658 Y141.458 E.31354
G1 X52.718 Y140.997 E.01455
G1 X53.708 Y140.381 E.03656
G1 X56.731 Y143.022 E.12589
G1 X58.263 Y142.007 E.05761
G1 X58.954 Y136.727 E.16697
G1 X59.016 Y136.079 E.0204
G1 X59.219 Y135.582 E.01685
G1 X59.557 Y135.163 E.01685
G1 X60 Y134.86 E.01685
G1 X60.513 Y134.697 E.01685
G1 X61.05 Y134.689 E.01685
G1 X61.567 Y134.835 E.01685
G1 X62.02 Y135.125 E.01685
G1 X62.371 Y135.532 E.01685
G1 X62.589 Y136.023 E.01685
G1 X62.657 Y136.556 E.01685
G1 X62.55 Y137.198 E.0204
G1 X61.858 Y142.478 E.16697
G1 X61.932 Y142.562 E.00351
G1 E-3.5 F3600
;WIPE_START
G1 F7200
G1 X63.076 Y143.854 E-.81961
G1 X64.219 Y143.291 E-.60539
;WIPE_END
G1 E-.075 F3600
G1 X76.139 Y186.382 F9000
G1 E5 F2400
G1 F1200
G1 X85.475 Y186.918 E.29323
G1 X85.844 Y187.2 E.01455
G1 X85.883 Y188.365 E.03656
G1 X82.083 Y189.663 E.12589
G1 X82.166 Y191.002 E.04207
G1 X76.186 Y186.419 E.23623
G1 E-3.5 F3600
;WIPE_START
G1 F7200
G1 X79.182 Y186.58 E-1.425
;WIPE_END
G1 E-.075 F3600
G1 X73.478 Y189.854 F9000
G1 E5 F2400
G1 F1200
G1 X79.506 Y194.474 E.23812
G1 X78.191 Y194.742 E.04207
G1 X77.926 Y198.748 E.12589
G1 X76.791 Y199.013 E.03656
G1 X76.422 Y198.731 E.01455
G1 X73.497 Y189.911 E.29135
G1 E-3.5 F3600
;WIPE_START
G1 F7200
G1 X75.886 Y191.725 E-1.425
;WIPE_END
G1 E-.075 F3600
G1 X63.167 Y143.388 F9000
G1 E5 F2400
;TYPE:External perimeter
G1 F1200
G1 X66.762 Y141.618 E.12563
G1 X67.872 Y142.803 E.05091
G1 X67.774 Y143.555 E.02377
G1 X61.128 Y151.027 E.31354
G1 X60.701 Y154.291 E.10319
G1 X61.029 Y154.503 E.01228
G1 X67.799 Y150.324 E.24945
G1 X68.955 Y151.435 E.05027
G1 X68.858 Y152.18 E.02356
G1 X60.424 Y162.073 E.40761
G1 X59.856 Y166.402 E.1369
G1 X61.936 Y167.995 E.08215
G1 X65.969 Y166.322 E.1369
G1 X73.328 Y155.606 E.40761
G1 X74.022 Y155.318 E.02356
G1 X75.395 Y156.146 E.05027
G1 X73.12 Y163.769 E.24945
G1 X73.411 Y164.031 E.01228
G1 X76.451 Y162.77 E.10319
G1 X81.938 Y154.41 E.31354
G1 X82.638 Y154.12 E.02377
G1 X84.071 Y154.883 E.05091
G1 X83.297 Y158.815 E.12563
G1 X84.53 Y159.428 E.0432
G1 X89.284 Y157.456 E.16137
G1 X89.92 Y157.165 E.02193
G1 X90.563 Y157.077 E.02033
G1 X91.203 Y157.177 E.02033
G1 X91.788 Y157.458 E.02033
G1 X92.267 Y157.895 E.02033
G1 X92.6 Y158.451 E.02033
G1 X92.759 Y159.08 E.02033
G1 X92.73 Y159.728 E.02033
G1 X92.515 Y160.34 E.02033
G1 X92.134 Y160.864 E.02033
G1 X91.618 Y161.256 E.02033
G1 X90.963 Y161.502 E.02193
G1 X86.209 Y163.474 E.16137
G1 X85.772 Y164.781 E.0432
G1 X89.103 Y167.009 E.12563
G1 X88.631 Y168.563 E.05091
G1 X87.931 Y168.853 E.02377
G1 X78.137 Y166.834 E.31354
G1 X75.097 Y168.096 E.10319
G1 X75.078 Y168.487 E.01228
G1 X82.082 Y172.26 E.24945
G1 X81.698 Y173.817 E.05027
G1 X81.004 Y174.105 E.02356
G1 X68.22 Y171.747 E.40761
G1 X64.187 Y173.42 E.1369
G1 X63.846 Y176.018 E.08215
G1 X67.312 Y178.674 E.1369
G1 X80.272 Y179.689 E.40761
G1 X80.869 Y180.146 E.02356
G1 X80.838 Y181.749 E.05027
G1 X73.099 Y183.59 E.24945
G1 X73.017 Y183.973 E.01228
G1 X75.629 Y185.975 E.10319
G1 X85.613 Y186.548 E.31354
G1 X86.214 Y187.009 E.02377
G1 X86.269 Y188.632 E.05091
G1 X82.478 Y189.927 E.12563
G1 X82.563 Y191.302 E.0432
G1 X86.649 Y194.433 E.16143
G1 X87.24 Y194.838 E.02245
G1 X87.691 Y195.323 E.02077
G1 X87.948 Y195.936 E.02082
G1 X87.955 Y196.036 E.00315
G1 X87.542 Y195.722 E.01626
G1 X86.802 Y195.046 E.03142
G1 X86.01 Y194.422 E.03163
G1 X56.798 Y172.036 E1.15392
G1 X54.596 Y174.909 E.1135
G1 X83.808 Y197.295 E1.15392
G1 X84.616 Y197.898 E.03163
G1 X85.462 Y198.437 E.03142
G1 X85.872 Y198.754 E.01626
G1 X85.773 Y198.773 E.00315
G1 X85.115 Y198.685 E.02082
G1 X84.53 Y198.375 E.02077
G1 X83.985 Y197.91 E.02246
G1 X79.898 Y194.778 E.16143
G1 X78.548 Y195.054 E.0432
G1 X78.284 Y199.052 E.12563
G1 X76.703 Y199.421 E.05091
G1 X76.101 Y198.959 E.02377
G1 X72.953 Y189.468 E.31354
G1 X70.34 Y187.466 E.10319
G1 X69.992 Y187.645 E.01228
G1 X70.226 Y195.597 E.24945
G1 X68.686 Y196.043 E.05027
G1 X68.09 Y195.586 E.02356
G1 X63.739 Y183.335 E.40761
G1 X60.274 Y180.679 E.1369
G1 X57.854 Y181.684 E.08215
G1 X57.287 Y186.013 E.1369
G1 X62.888 Y197.744 E.40761
G1 X62.79 Y198.489 E.02356
G1 X61.387 Y199.265 E.05027
G1 X55.922 Y193.482 E.24945
G1 X55.549 Y193.603 E.01228
G1 X55.122 Y196.867 E.10319
G1 X59.618 Y205.799 E.31354
G1 X59.52 Y206.55 E.02377
G1 X58.142 Y207.409 E.05091
G1 X55.124 Y204.773 E.12563
G1 X53.976 Y205.534 E.0432
G1 X53.307 Y210.637 E.16137
G1 X53.241 Y211.334 E.02193
G1 X52.996 Y211.934 E.02033
G1 X52.589 Y212.439 E.02033
G1 X52.054 Y212.805 E.02033
G1 X51.436 Y213.001 E.02033
G1 X50.787 Y213.011 E.02033
G1 X50.164 Y212.835 E.02033
G1 X49.617 Y212.486 E.02033
G1 X49.194 Y211.994 E.02033
G1 X48.931 Y211.402 E.02033
G1 X48.849 Y210.758 E.02033
G1 X48.964 Y210.068 E.02193
G1 X49.633 Y204.965 E.16137
G1 X48.72 Y203.934 E.0432
G1 X45.125 Y205.704 E.12563
G1 X44.015 Y204.519 E.05091
G1 X44.113 Y203.767 E.02377
G1 X50.759 Y196.295 E.31354
G1 X51.186 Y193.032 E.10319
G1 X50.857 Y192.819 E.01228
G1 X44.088 Y196.998 E.24945
G1 X42.931 Y195.887 E.05027
G1 X43.029 Y195.142 E.02356
G1 X51.463 Y185.25 E.40761
G1 X52.031 Y180.921 E.1369
G1 X51.53 Y180.536 E.0198
G1 X49.951 Y179.327 E.06235
G1 X45.918 Y181 E.1369
G1 X38.559 Y191.716 E.40761
G1 X37.865 Y192.004 E.02356
G1 X36.492 Y191.177 E.05027
G1 X38.767 Y183.553 E.24945
G1 X38.476 Y183.291 E.01228
G1 X35.436 Y184.552 E.10319
G1 X29.949 Y192.912 E.31354
G1 X29.248 Y193.203 E.02377
G1 X27.816 Y192.439 E.05091
G1 X28.59 Y188.508 E.12563
G1 X27.357 Y187.894 E.0432
G1 X22.603 Y189.866 E.16137
G1 X21.967 Y190.157 E.02193
G1 X21.324 Y190.245 E.02033
G1 X20.684 Y190.145 E.02033
G1 X20.099 Y189.864 E.02033
G1 X19.62 Y189.427 E.02033
G1 X19.287 Y188.871 E.02033
G1 X19.128 Y188.242 E.02033
G1 X19.157 Y187.595 E.02033
G1 X19.372 Y186.983 E.02033
G1 X19.753 Y186.458 E.02033
G1 X20.269 Y186.066 E.02033
G1 X20.924 Y185.821 E.02193
G1 X25.678 Y183.848 E.16137
G1 X26.115 Y182.541 E.0432
G1 X22.784 Y180.313 E.12563
G1 X23.255 Y178.759 E.05091
G1 X23.956 Y178.469 E.02377
G1 X33.75 Y180.488 E.31354
G1 X36.79 Y179.227 E.10319
G1 X36.809 Y178.835 E.01228
G1 X29.805 Y175.062 E.24945
G1 X30.189 Y173.506 E.05027
G1 X30.883 Y173.218 E.02356
G1 X43.667 Y175.576 E.40761
G1 X47.7 Y173.902 E.1369
G1 X48.041 Y171.304 E.08215
G1 X44.575 Y168.649 E.1369
G1 X31.615 Y167.633 E.40761
G1 X31.018 Y167.176 E.02356
G1 X31.049 Y165.573 E.05027
G1 X38.788 Y163.732 E.24945
G1 X38.87 Y163.349 E.01228
G1 X36.258 Y161.347 E.10319
G1 X26.274 Y160.775 E.31354
G1 X25.672 Y160.313 E.02377
G1 X25.618 Y158.691 E.05091
G1 X29.409 Y157.396 E.12563
G1 X29.324 Y156.02 E.0432
G1 X25.239 Y152.89 E.16137
G1 X24.669 Y152.484 E.02193
G1 X24.272 Y151.972 E.02033
G1 X24.038 Y151.367 E.02033
G1 X23.989 Y150.721 E.02033
G1 X24.128 Y150.087 E.02033
G1 X24.443 Y149.521 E.02033
G1 X24.908 Y149.069 E.02033
G1 X25.484 Y148.77 E.02033
G1 X25.814 Y148.708 E.01055
G1 X26.121 Y148.65 E.00978
G1 X26.766 Y148.718 E.02033
G1 X27.364 Y148.969 E.02033
G1 X27.903 Y149.413 E.02193
G1 X31.988 Y152.544 E.16137
G1 X33.338 Y152.269 E.0432
G1 X33.603 Y148.271 E.12563
G1 X35.184 Y147.902 E.05091
G1 X35.786 Y148.363 E.02377
G1 X38.934 Y157.854 E.31354
G1 X41.547 Y159.856 E.10319
G1 X41.895 Y159.678 E.01228
G1 X41.661 Y151.725 E.24945
G1 X43.201 Y151.279 E.05027
G1 X43.797 Y151.736 E.02356
G1 X48.147 Y163.987 E.40761
G1 X51.613 Y166.643 E.1369
G1 X54.033 Y165.639 E.08215
G1 X54.6 Y161.309 E.1369
G1 X48.999 Y149.578 E.40761
G1 X49.097 Y148.833 E.02356
G1 X50.5 Y148.058 E.05027
G1 X55.965 Y153.84 E.24945
G1 X56.338 Y153.719 E.01228
G1 X56.765 Y150.456 E.10319
G1 X52.269 Y141.523 E.31354
G1 X52.367 Y140.772 E.02377
G1 X53.745 Y139.913 E.05091
G1 X56.763 Y142.549 E.12563
G1 X57.911 Y141.788 E.0432
G1 X58.58 Y136.685 E.16137
G1 X58.646 Y135.988 E.02193
G1 X58.891 Y135.388 E.02033
G1 X59.298 Y134.883 E.02033
G1 X59.833 Y134.517 E.02033
G1 X60.451 Y134.321 E.02033
G1 X61.1 Y134.311 E.02033
G1 X61.723 Y134.488 E.02033
G1 X62.27 Y134.837 E.02033
G1 X62.693 Y135.328 E.02033
G1 X62.956 Y135.921 E.02033
G1 X63.038 Y136.564 E.02033
G1 X62.923 Y137.254 E.02193
G1 X62.254 Y142.357 E.16137
G1 X63.128 Y143.343 E.04132
G1 X63.293 Y143.768 F9000
G1 E-3.5 F3600
;WIPE_START
G1 F7200
