; generated by PrusaSlicer 2.5.0+MacOS-x64 on 2022-09-12 at 05:26:18 UTC

; 

; external perimeters extrusion width = 0.45mm
; perimeters extrusion width = 0.45mm
; infill extrusion width = 0.45mm
; solid infill extrusion width = 0.45mm
; top infill extrusion width = 0.40mm
; first layer extrusion width = 0.70mm

M107
;TYPE:Custom
G90 ; use absolute coordinates
M83 ; extruder relative mode
M140 S0 ; set final bed temp
M104 S150 ; set temporary nozzle temp to prevent oozing during homing
G4 S10 ; allow partial nozzle warmup
G28 ; home all axis
G29 ;
G1 Z50 F240
G1 X2 Y10 F3000
M104 S200 ; set final nozzle temp
M190 S0 ; wait for bed temp to stabilize
M109 S200 ; wait for nozzle temp to stabilize
G1 Z0.28 F240
G92 E0
G1 Y140 E10 F1500 ; prime the nozzle
G1 X2.3 F5000
G92 E0
G1 Y10 E10 F1200 ; prime the nozzle
G92 E0
G21 ; set units to millimeters
G90 ; use absolute coordinates
M83 ; use relative distances for extrusion
; Filament gcode
M107
;LAYER_CHANGE
;Z:0.35
;HEIGHT:0.35
;BEFORE_LAYER_CHANGE
G92 E0
;0.35


G1 E-5 F3600
G1 Z.35 F7800
;AFTER_LAYER_CHANGE
;0.35
G1 X92.011 Y82.883
G1 E5 F2400
;TYPE:Skirt/Brim
;WIDTH:0.7
G1 F1800
G1 X93.767 Y81.408 E.20854
G1 X95.921 Y80.62 E.20854
G1 X97.085 Y80.517 E.10629
G1 X98.833 Y80.517 E.15888
G1 X100.865 Y80.836 E.18707
G1 X125.06 Y88.635 E2.31154
G1 X127.089 Y89.706 E.20854
G1 X128.63 Y91.404 E.20854
G1 X129.259 Y92.691 E.1303
G1 X138.494 Y118.277 E2.4734
G1 X138.888 Y120.536 E.20854
G1 X138.487 Y122.794 E.20854
G1 X137.389 Y124.723 E.20176
G1 X127.293 Y137.055 E1.4492
G1 X125.555 Y138.551 E.20854
G1 X123.411 Y139.365 E.20854
G1 X120.135 Y139.164 E.29848
G1 X95.939 Y131.365 E2.31154
G1 X93.911 Y130.294 E.20854
G1 X92.874 Y129.291 E.13127
G1 X82.639 Y116.958 E1.45723
G1 X81.502 Y114.967 E.20854
G1 X81.112 Y112.707 E.20854
G1 X81.515 Y110.454 E.20807
G1 X90.863 Y84.868 E2.47692
G1 X91.981 Y82.935 E.20309
G1 E-3.5 F3600
;WIPE_START
G1 F6240
G1 X93.767 Y81.408 E-1.28795
G1 X94.002 Y81.322 E-.13705
;WIPE_END
G1 E-.075 F3600
G1 X97.624 Y93.791 F7800
G1 E5 F2400
;TYPE:Perimeter
;WIDTH:0.835371
G1 F1800
G1 X97.909 Y93.383 E.05507
G1 X97.959 Y93.206 E.02032
G1 X98.009 Y93.383 E.02032
G1 X98.228 Y93.729 E.04537
G1 X98.398 Y93.902 E.02682
G1 X98.348 Y94.549 E.07177
;WIDTH:0.786686
G1 X98.32 Y95.011 E.04786
;WIDTH:0.738001
G1 X98.291 Y95.472 E.04458
;WIDTH:0.689316
G1 X98.263 Y95.933 E.04131
;WIDTH:0.640631
G1 X98.234 Y96.394 E.03803
;WIDTH:0.591947
G1 X98.206 Y96.856 E.03476
;WIDTH:0.543262
G1 X98.177 Y97.317 E.03148
;WIDTH:0.494577
G1 X98.149 Y97.778 E.02821
;WIDTH:0.445892
G1 X98.12 Y98.24 E.02494
;WIDTH:0.397208
G1 X98.109 Y98.548 E.01444
;WIDTH:0.435694
G1 X98.095 Y98.603 E.00297
;WIDTH:0.480098
G1 X98.082 Y98.658 E.00333
;WIDTH:0.524502
G1 X98.069 Y98.713 E.0037
;WIDTH:0.568905
G1 X98.055 Y98.767 E.00407
;WIDTH:0.613309
G1 X98.042 Y98.822 E.00443
;WIDTH:0.657713
G1 X98.028 Y98.877 E.0048
;WIDTH:0.7
G1 X98.227 Y99.69 E.07606
G1 X98.665 Y101.29 E.15086
G1 X100.475 Y106.702 E.51892
G1 X100.732 Y107.084 E.04181
G1 X105.341 Y112.118 E.62066
G1 X101.295 Y113.781 E.39777
G1 X100.862 Y114.049 E.04624
G1 X100.658 Y114.264 E.02703
G1 X100.44 Y114.643 E.03974
G1 X97.948 Y120.834 E.60683
G1 X95.387 Y114.671 E.60683
G1 X95.266 Y114.424 E.02504
G1 X94.952 Y114.048 E.04451
G1 X94.519 Y113.781 E.04631
G1 X90.466 Y112.118 E.39829
G1 X94.592 Y107.618 E.5551
G1 X95.256 Y106.855 E.09195
G1 X95.418 Y106.504 E.0352
G1 X97.853 Y98.872 E.72847
;WIDTH:0.657713
G1 X97.843 Y98.812 E.00515
;WIDTH:0.610048
G1 X97.833 Y98.752 E.00473
;WIDTH:0.562383
G1 X97.823 Y98.692 E.00431
;WIDTH:0.514718
G1 X97.813 Y98.632 E.00389
;WIDTH:0.467053
G1 X97.803 Y98.572 E.00347
;WIDTH:0.419388
G1 X97.8 Y98.237 E.0168
;WIDTH:0.445892
G1 X97.78 Y97.775 E.02494
;WIDTH:0.494577
G1 X97.76 Y97.313 E.02821
;WIDTH:0.543262
G1 X97.74 Y96.852 E.03148
;WIDTH:0.591947
G1 X97.72 Y96.39 E.03476
;WIDTH:0.640631
G1 X97.7 Y95.928 E.03803
;WIDTH:0.689316
G1 X97.68 Y95.466 E.04131
;WIDTH:0.738001
G1 X97.66 Y95.005 E.04458
;WIDTH:0.786686
G1 X97.64 Y94.543 E.04786
;WIDTH:0.835371
G1 X97.595 Y93.841 E.07775
G1 X96.804 Y93.602 F7800
;WIDTH:0.7
G1 F1800
G1 X97.078 Y93.371 E.03265
G1 X97.282 Y93.089 E.03164
G1 X97.365 Y92.794 E.02781
G1 X97.747 Y89.358 E.31443
G1 X97.928 Y88.117 E.11402
G1 X97.99 Y88.117 E.00559
G1 X98.171 Y89.357 E.11401
G1 X98.553 Y92.794 E.31443
G1 X98.636 Y93.089 E.02781
G1 X98.792 Y93.322 E.02552
G1 X99.281 Y93.69 E.05567
G1 X99.105 Y93.851 E.02169
G1 X99.09 Y93.942 E.00841
G1 X98.583 Y98.361 E.40448
G1 X98.61 Y98.714 E.03217
G1 X99.258 Y101.093 E.22423
G1 X100.98 Y106.279 E.49684
G1 X101.039 Y106.433 E.015
G1 X101.193 Y106.662 E.02509
G1 X106.406 Y112.356 E.702
G1 X101.533 Y114.359 E.47911
G1 X101.214 Y114.576 E.035
G1 X101.019 Y114.876 E.03258
G1 X97.957 Y122.485 E.74575
G1 X94.81 Y114.911 E.74575
G1 X94.6 Y114.575 E.03598
G1 X94.281 Y114.359 E.03505
G1 X89.4 Y112.356 E.47975
G1 X94.673 Y106.6 E.70978
G1 X94.823 Y106.314 E.0294
G1 X97.008 Y99.476 E.6527
G1 X97.282 Y98.676 E.07695
G1 X97.329 Y98.282 E.03606
G1 X96.913 Y93.959 E.39489
G1 X96.822 Y93.66 E.02846
G1 X96.255 Y93.9 F7800
;TYPE:External perimeter
G1 F1800
G1 X95.98 Y93.737 E.02907
G1 X95.802 Y93.737 E.01619
G1 X95.802 Y93.51 E.02057
G1 X96.648 Y92.917 E.09398
G1 X96.744 Y92.725 E.01951
G1 X97.127 Y89.278 E.31541
G1 X97.388 Y87.492 E.16412
G1 X98.53 Y87.492 E.10385
G1 X98.791 Y89.278 E.16411
G1 X99.174 Y92.725 E.31541
G1 X99.202 Y92.823 E.00927
G1 X99.307 Y92.948 E.01482
G1 X100.116 Y93.507 E.08946
G1 X100.116 Y93.737 E.02086
G1 X99.983 Y93.739 E.01217
G1 X99.711 Y94.013 E.03509
G1 X99.212 Y98.365 E.3983
G1 X99.213 Y98.55 E.01684
G1 X99.851 Y100.896 E.22109
G1 X101.573 Y106.082 E.49684
G1 X101.654 Y106.24 E.01614
G1 X107.471 Y112.594 E.78334
G1 X101.77 Y114.937 E.56046
G1 X101.722 Y114.962 E.00495
G1 X101.6 Y115.106 E.01713
G1 X97.966 Y124.135 E.88499
G1 X94.194 Y115.066 E.8932
G1 X94.044 Y114.937 E.01793
G1 X88.334 Y112.594 E.56121
G1 X93.671 Y106.774 E.71803
G1 X94.227 Y106.127 E.07754
G1 X96.415 Y99.28 E.65363
G1 X96.691 Y98.473 E.07755
G1 X96.707 Y98.342 E.01202
G1 X96.309 Y94.207 E.37771
G1 X96.265 Y93.959 E.0229
G1 X96.357 Y93.597 F7800
G1 E-3.5 F3600
;WIPE_START
G1 F6240
G1 X95.98 Y93.737 E-.19831
G1 X95.802 Y93.737 E-.09758
G1 X95.802 Y93.51 E-.124
G1 X96.648 Y92.917 E-.56648
G1 X96.744 Y92.725 E-.11762
G1 X96.809 Y92.143 E-.32101
;WIPE_END
G1 E-.075 F3600
G1 X98.668 Y101.895 F7800
G1 E5 F2400
;TYPE:Solid infill
;WIDTH:0.708185
G1 F1800
G1 X97.695 Y100.922 E.12678
G1 X97.478 Y101.6 E.06561
G1 X98.67 Y102.792 E.15524
G1 X99.115 Y104.132 E.13012
G1 X97.261 Y102.278 E.24151
G1 X97.044 Y102.957 E.06561
G1 X99.56 Y105.473 E.32777
G1 X100.022 Y106.83 E.13207
G1 X96.827 Y103.635 E.4162
G1 X96.61 Y104.314 E.06561
G1 X104.326 Y112.029 E1.00514
G1 X103.691 Y112.29 E.0632
G1 X96.393 Y104.992 E.95073
G1 X96.177 Y105.671 E.06561
G1 X103.057 Y112.551 E.89632
G1 X102.422 Y112.811 E.0632
G1 X95.96 Y106.349 E.84191
G1 X95.856 Y106.673 E.0313
G1 X95.712 Y106.997 E.03267
G1 X101.788 Y113.072 E.79151
G1 X101.153 Y113.333 E.0632
G1 X95.329 Y107.508 E.75881
G1 X94.9 Y107.975 E.05837
G1 X100.592 Y113.667 E.74147
G1 X100.29 Y113.973 E.03963
G1 X100.173 Y114.144 E.01901
G1 X94.472 Y108.443 E.74272
G1 X94.044 Y108.91 E.05837
G1 X99.889 Y114.755 E.76155
G1 X99.632 Y115.394 E.06339
G1 X93.616 Y109.377 E.78386
G1 X93.187 Y109.844 E.05837
G1 X99.376 Y116.032 E.80618
G1 X99.119 Y116.67 E.06339
G1 X92.759 Y110.311 E.8285
G1 X92.331 Y110.778 E.05837
G1 X98.862 Y117.309 E.85081
G1 X98.605 Y117.947 E.06339
G1 X96.296 Y115.638 E.30076
G1 X96.933 Y117.17 E.15283
G1 X98.348 Y118.585 E.18434
G1 X98.091 Y119.224 E.06339
G1 X97.048 Y118.181 E.1358
G1 E-3.5 F3600
;WIPE_START
G1 F6240
G1 X98.091 Y119.224 E-.80794
G1 X98.348 Y118.585 E-.37715
G1 X98.038 Y118.276 E-.23991
;WIPE_END
G1 E-.075 F3600
G1 X94.039 Y113.382 F7800
G1 E5 F2400
G1 F1800
G1 X91.903 Y111.245 E.27836
G1 X91.474 Y111.712 E.05837
G1 X92.521 Y112.759 E.13635
G1 E-3.5 F3600
;WIPE_START
G1 F6240
G1 X91.474 Y111.712 E-.81124
G1 X91.903 Y111.245 E-.3473
G1 X92.246 Y111.589 E-.26646
;WIPE_END
G1 E-.075 F3600
G1 X121.82 Y101.589 F7800
G1 E5 F2400
;TYPE:Perimeter
;WIDTH:0.835371
G1 F1800
G1 X122.105 Y101.181 E.05507
G1 X122.154 Y101.004 E.02032
G1 X122.204 Y101.181 E.02032
G1 X122.424 Y101.528 E.04537
G1 X122.593 Y101.701 E.02682
G1 X122.543 Y102.348 E.07177
;WIDTH:0.786686
G1 X122.515 Y102.809 E.04786
;WIDTH:0.738001
G1 X122.487 Y103.27 E.04458
;WIDTH:0.689316
G1 X122.458 Y103.732 E.04131
;WIDTH:0.640631
G1 X122.43 Y104.193 E.03803
;WIDTH:0.591947
G1 X122.401 Y104.654 E.03476
;WIDTH:0.543262
G1 X122.373 Y105.116 E.03148
;WIDTH:0.494577
G1 X122.344 Y105.577 E.02821
;WIDTH:0.445892
G1 X122.316 Y106.038 E.02494
;WIDTH:0.397208
G1 X122.304 Y106.346 E.01444
;WIDTH:0.435694
G1 X122.291 Y106.401 E.00297
;WIDTH:0.480098
G1 X122.277 Y106.456 E.00333
;WIDTH:0.524502
G1 X122.264 Y106.511 E.0037
;WIDTH:0.568905
G1 X122.251 Y106.566 E.00407
;WIDTH:0.613309
G1 X122.237 Y106.621 E.00443
;WIDTH:0.657713
G1 X122.224 Y106.676 E.0048
;WIDTH:0.7
G1 X122.423 Y107.488 E.07606
G1 X122.86 Y109.089 E.15086
G1 X124.671 Y114.501 E.51892
G1 X124.928 Y114.882 E.04181
G1 X129.537 Y119.917 E.62066
G1 X125.49 Y121.58 E.39777
G1 X125.058 Y121.847 E.04624
G1 X124.853 Y122.063 E.02703
G1 X124.635 Y122.441 E.03974
G1 X122.143 Y128.632 E.60683
G1 X119.582 Y122.47 E.60683
G1 X119.461 Y122.222 E.02504
G1 X119.147 Y121.847 E.04451
G1 X118.714 Y121.579 E.04631
G1 X114.662 Y119.917 E.39829
G1 X118.787 Y115.417 E.5551
G1 X119.451 Y114.654 E.09195
G1 X119.614 Y114.303 E.0352
G1 X122.049 Y106.67 E.72847
;WIDTH:0.657713
G1 X122.039 Y106.61 E.00515
;WIDTH:0.610048
G1 X122.029 Y106.55 E.00473
;WIDTH:0.562383
G1 X122.019 Y106.49 E.00431
;WIDTH:0.514718
G1 X122.009 Y106.43 E.00389
;WIDTH:0.467053
G1 X121.999 Y106.37 E.00347
;WIDTH:0.419388
G1 X121.996 Y106.035 E.0168
;WIDTH:0.445892
G1 X121.976 Y105.573 E.02494
;WIDTH:0.494577
G1 X121.956 Y105.112 E.02821
;WIDTH:0.543262
G1 X121.936 Y104.65 E.03148
;WIDTH:0.591947
G1 X121.916 Y104.188 E.03476
;WIDTH:0.640631
G1 X121.896 Y103.726 E.03803
;WIDTH:0.689316
G1 X121.876 Y103.265 E.04131
;WIDTH:0.738001
G1 X121.856 Y102.803 E.04458
;WIDTH:0.786686
G1 X121.836 Y102.341 E.04786
;WIDTH:0.835371
G1 X121.791 Y101.64 E.07775
G1 X121 Y101.401 F7800
;WIDTH:0.7
G1 F1800
G1 X121.274 Y101.169 E.03265
G1 X121.478 Y100.887 E.03164
G1 X121.56 Y100.593 E.02781
G1 X121.942 Y97.156 E.31443
G1 X122.124 Y95.915 E.11402
G1 X122.185 Y95.915 E.00559
G1 X122.366 Y97.156 E.11401
G1 X122.748 Y100.593 E.31443
G1 X122.831 Y100.887 E.02781
G1 X122.987 Y101.121 E.02552
G1 X123.477 Y101.488 E.05567
G1 X123.301 Y101.649 E.02169
G1 X123.286 Y101.74 E.00841
G1 X122.778 Y106.16 E.40448
G1 X122.805 Y106.513 E.03217
G1 X123.453 Y108.892 E.22423
G1 X125.176 Y114.077 E.49684
G1 X125.234 Y114.231 E.015
G1 X125.389 Y114.46 E.02509
G1 X130.602 Y120.155 E.702
G1 X125.728 Y122.158 E.47911
G1 X125.41 Y122.374 E.035
G1 X125.215 Y122.675 E.03258
G1 X122.153 Y130.283 E.74575
G1 X119.005 Y122.71 E.74575
G1 X118.796 Y122.374 E.03598
G1 X118.477 Y122.157 E.03505
G1 X113.596 Y120.155 E.47975
G1 X118.868 Y114.399 E.70978
G1 X119.018 Y114.112 E.0294
G1 X121.203 Y107.275 E.6527
G1 X121.478 Y106.474 E.07695
G1 X121.524 Y106.081 E.03606
G1 X121.108 Y101.758 E.39489
G1 X121.017 Y101.458 E.02846
G1 X120.45 Y101.699 F7800
;TYPE:External perimeter
G1 F1800
G1 X120.175 Y101.535 E.02907
G1 X119.997 Y101.535 E.01619
G1 X119.997 Y101.309 E.02057
G1 X120.844 Y100.716 E.09398
G1 X120.939 Y100.524 E.01951
G1 X121.323 Y97.076 E.31541
G1 X121.583 Y95.29 E.16412
G1 X122.725 Y95.29 E.10385
G1 X122.986 Y97.076 E.16411
G1 X123.369 Y100.524 E.31541
G1 X123.397 Y100.622 E.00927
G1 X123.502 Y100.746 E.01482
G1 X124.312 Y101.306 E.08946
G1 X124.312 Y101.535 E.02086
G1 X124.178 Y101.537 E.01217
G1 X123.907 Y101.812 E.03509
G1 X123.407 Y106.163 E.3983
G1 X123.408 Y106.349 E.01684
G1 X124.046 Y108.695 E.22109
G1 X125.769 Y113.88 E.49684
G1 X125.85 Y114.038 E.01614
G1 X131.666 Y120.393 E.78334
G1 X125.966 Y122.736 E.56046
G1 X125.917 Y122.761 E.00495
G1 X125.796 Y122.905 E.01713
G1 X122.162 Y131.934 E.88499
G1 X118.389 Y122.864 E.8932
G1 X118.24 Y122.736 E.01793
G1 X112.53 Y120.393 E.56121
G1 X117.866 Y114.572 E.71803
G1 X118.422 Y113.926 E.07754
G1 X120.61 Y107.078 E.65363
G1 X120.887 Y106.272 E.07755
G1 X120.902 Y106.14 E.01202
G1 X120.505 Y102.006 E.37771
G1 X120.461 Y101.758 E.0229
G1 X120.552 Y101.395 F7800
G1 E-3.5 F3600
;WIPE_START
G1 F6240
G1 X120.175 Y101.535 E-.19831
G1 X119.997 Y101.535 E-.09758
G1 X119.997 Y101.309 E-.124
G1 X120.844 Y100.716 E-.56648
G1 X120.939 Y100.524 E-.11762
G1 X121.004 Y99.942 E-.32101
;WIPE_END
G1 E-.075 F3600
G1 X122.863 Y109.693 F7800
G1 E5 F2400
;TYPE:Solid infill
;WIDTH:0.708185
G1 F1800
G1 X121.89 Y108.72 E.12678
G1 X121.673 Y109.399 E.06561
G1 X122.865 Y110.59 E.15524
G1 X123.31 Y111.931 E.13012
G1 X121.457 Y110.077 E.24151
G1 X121.24 Y110.755 E.06561
G1 X123.756 Y113.271 E.32777
G1 X124.217 Y114.628 E.13207
G1 X121.023 Y111.434 E.4162
G1 X120.806 Y112.112 E.06561
G1 X128.521 Y119.827 E1.00514
G1 X127.887 Y120.088 E.0632
G1 X120.589 Y112.791 E.95073
G1 X120.372 Y113.469 E.06561
G1 X127.252 Y120.349 E.89632
G1 X126.618 Y120.61 E.0632
G1 X120.155 Y114.147 E.84191
G1 X120.052 Y114.471 E.0313
G1 X119.908 Y114.795 E.03267
G1 X125.983 Y120.871 E.79151
G1 X125.349 Y121.131 E.0632
G1 X119.524 Y115.307 E.75881
G1 X119.096 Y115.774 E.05837
G1 X124.787 Y121.465 E.74147
G1 X124.485 Y121.772 E.03963
G1 X124.369 Y121.942 E.01901
G1 X118.668 Y116.241 E.74272
G1 X118.239 Y116.708 E.05837
G1 X124.085 Y122.554 E.76155
G1 X123.828 Y123.192 E.06339
G1 X117.811 Y117.175 E.78386
G1 X117.383 Y117.642 E.05837
G1 X123.571 Y123.83 E.80618
G1 X123.314 Y124.469 E.06339
G1 X116.955 Y118.109 E.8285
G1 X116.526 Y118.576 E.05837
G1 X123.057 Y125.107 E.85081
G1 X122.8 Y125.745 E.06339
G1 X120.492 Y123.437 E.30076
G1 X121.128 Y124.969 E.15283
G1 X122.543 Y126.384 E.18434
G1 X122.286 Y127.022 E.06339
G1 X121.244 Y125.98 E.1358
G1 E-3.5 F3600
;WIPE_START
G1 F6240
G1 X122.286 Y127.022 E-.80794
G1 X122.543 Y126.384 E-.37715
G1 X122.234 Y126.074 E-.23991
;WIPE_END
G1 E-.075 F3600
G1 X118.235 Y121.18 F7800
G1 E5 F2400
G1 F1800
G1 X116.098 Y119.043 E.27836
G1 X115.67 Y119.51 E.05837
G1 X116.716 Y120.557 E.13635
;LAYER_CHANGE
;Z:0.65
;HEIGHT:0.3
;BEFORE_LAYER_CHANGE
G92 E0
;0.65


G1 E-3.5 F3600
;WIPE_START
G1 F6240
G1 X115.67 Y119.51 E-.81124
G1 X116.098 Y119.043 E-.3473
G1 X116.442 Y119.387 E-.26646
;WIPE_END
G1 E-.075 F3600
G1 Z.65 F7800
;AFTER_LAYER_CHANGE
;0.65
G1 X96.686 Y93.41
G1 E5 F2400
;TYPE:Perimeter
;WIDTH:0.45
G1 F3600
G1 X96.675 Y93.393 E.00097
G1 X96.907 Y93.167 E.01559
G1 X96.986 Y93.036 E.00736
G1 X97.085 Y92.691 E.01728
G1 X97.504 Y88.138 E.21991
G1 X98.414 Y88.138 E.04374
G1 X98.832 Y92.691 E.21989
G1 X98.869 Y92.878 E.00916
G1 X99.027 Y93.188 E.01677
G1 X99.33 Y93.465 E.01972
G1 X99.222 Y93.523 E.00588
G1 X99.115 Y93.738 E.01155
G1 X99.065 Y93.978 E.01177
G1 X98.915 Y94.978 E.04863
G1 X98.532 Y98.355 E.16347
G1 X98.56 Y98.716 E.01744
G1 X99.082 Y100.633 E.09555
G1 X101.02 Y106.442 E.29449
G1 X101.178 Y106.677 E.01365
G1 X106.37 Y112.348 E.36979
G1 X101.527 Y114.339 E.25184
G1 X101.199 Y114.561 E.01904
G1 X100.999 Y114.87 E.01772
G1 X97.957 Y122.428 E.39184
G1 X94.812 Y114.86 E.39417
G1 X94.615 Y114.561 E.01721
G1 X94.287 Y114.338 E.01907
G1 X89.437 Y112.348 E.25218
G1 X94.689 Y106.614 E.37401
G1 X94.843 Y106.321 E.01589
G1 X97.308 Y98.666 E.38679
G1 X97.35 Y98.279 E.01876
G1 X96.935 Y93.962 E.20857
G1 X96.856 Y93.662 E.01492
G1 X96.72 Y93.46 E.01173
G1 X96.331 Y93.627 F7800
G1 F3600
G1 X95.975 Y93.476 E.01862
G1 X95.871 Y93.476 E.00499
G1 X96.451 Y93.081 E.03374
G1 X96.594 Y92.942 E.00961
G1 X96.701 Y92.656 E.01467
G1 X97.158 Y87.752 E.23685
G1 X98.76 Y87.752 E.07707
G1 X99.216 Y92.655 E.23683
G1 X99.276 Y92.863 E.01037
G1 X99.434 Y93.057 E.01204
G1 X99.99 Y93.495 E.03406
G1 X99.544 Y93.736 E.0244
G1 X99.448 Y94.02 E.01445
G1 X99.299 Y95.021 E.04867
G1 X98.923 Y98.332 E.16026
G1 X98.932 Y98.615 E.01363
G1 X99.448 Y100.512 E.09453
G1 X101.328 Y106.172 E.28685
