;FLAVOR:Marlin
;TIME:3149
;Filament used: 5.7372m
;Layer height: 0.32
;MINX:62.791
;MINY:62.791
;MINZ:0.32
;MAXX:172.21
;MAXY:172.21
;MAXZ:5.12
;POSTPROCESSED
;Generated with Cura_SteamEngine main
M140 S60
M105
M190 S60
M104 S215
M105
M109 S215
M82 ;absolute extrusion mode
; Script based on an original created by tjjfvi (https://github.com/tjjfvi)
; An up-to-date version of the tjjfvi's original script can be found
; here:  https://csi.t6.fyi/
; Note - This script will only work in Cura V4.2 and above!
; --- Global Settings
; layer_height = 0.32
; smooth_spiralized_contours = True
; magic_mesh_surface_mode = normal
; machine_extruder_count = 1
; --- Single Extruder Settings
; speed_z_hop = 10
; retraction_amount = 5
; retraction_hop = 0.2
; retraction_hop_enabled = False
; retraction_enable = True
; retraction_speed = 45.0
; retraction_retract_speed = 45.0
; retraction_prime_speed = 45.0
; speed_travel = 150.0

; Ender 3 Custom Start G-code
G92 E0 ; Reset Extruder
G28 ; Home all axes
M501 ;load bed level data
M420 S1 ;enable bed leveling
G1 Z2.0 F3000 ; Move Z Axis up little to prevent scratching of Heat Bed
G1 X1.0 Y20 Z0.3 F5000.0 ; Move to start position
G1 X1.0 Y200.0 Z0.3 F1500.0 E15 ; Draw the first line
G1 X1.3 Y200.0 Z0.3 F5000.0 ; Move to side a little
G1 X0.4 Y20 Z0.3 F1500.0 E30 ; Draw the second line
G92 E0 ; Reset Extruder
G1 Z2.0 F3000 ; Move Z Axis up little to prevent scratching of Heat Bed
G1 X5 Y20 Z0.3 F5000.0 ; Move over to prevent blob squish
G92 E0
G92 E0
G1 F2700 E-5
;LAYER_COUNT:16
;LAYER:0
M117 Printing CE3_Califlower v9 - Layer 1 of 16
M106 S127.5
M204 S500
M205 X11 Y11
;MESH:Califlower v9.stl
G0 F8100 X77.57 Y93.598 Z0.32
M205 X12 Y12
;TYPE:WALL-INNER
G1 F2700 E0
G1 F2520 X77.183 Y93.308 E0.05012
G1 X76.999 Y93.007 E0.08668
G1 X76.944 Y92.845 E0.10441
G1 X76.894 Y92.495 E0.14105
G1 X76.986 Y92.1 E0.18308
G1 X77.147 Y91.797 E0.21863
G1 X91.706 Y77.236 E2.35252
G1 X92.143 Y76.962 E2.40597
G1 X92.619 Y76.896 E2.45577
G1 X93.031 Y76.997 E2.49974
G1 X93.386 Y77.258 E2.5454
G1 X93.631 Y77.645 E2.59286
G1 X93.708 Y78.068 E2.63742
G1 X93.709 Y92.724 E4.15626
G1 X93.532 Y93.167 E4.20569
G1 X93.363 Y93.369 E4.23299
G1 X93.129 Y93.545 E4.26333
G1 X92.724 Y93.709 E4.30861
G1 X78.068 Y93.709 E5.82745
G1 X77.57 Y93.598 E5.88032
M205 X11 Y11
G1 F2700 E0.88032
G0 F8100 X92.709 Y93.615
G0 X93.267 Y93.397
G0 X93.515 Y93.107
G1 F2700 E5.88032
G0 F8100 X92.91 Y92.839
M205 X12 Y12
;TYPE:WALL-OUTER
G1 F2520 X92.798 Y92.94 E5.89494
G1 X92.574 Y93.017 E5.91791
G1 X78.068 Y93.019 E7.32421
G1 X77.926 Y92.987 E7.33832
G1 X77.701 Y92.851 E7.36381
G1 X77.6 Y92.63 E7.38737
G1 X77.584 Y92.515 E7.39862
G1 X77.687 Y92.24 E7.42709
G1 X92.194 Y77.724 E9.41666
G1 X92.319 Y77.645 E9.43099
G1 X92.573 Y77.585 E9.4563
G1 X92.887 Y77.735 E9.49003
G1 X93.018 Y77.99 E9.51782
G1 X93.017 Y92.575 E10.93179
G1 X92.91 Y92.839 E10.9594
M205 X11 Y11
G0 F8100 X92.798 Y92.94
G0 X92.751 Y92.956
G1 F2700 E5.9594
G0 F8100 X92.989 Y93.572
G0 X92.694 Y94.038
G0 X92.605 Y95.944
G0 X93.59 Y96.871
G0 X93.69 Y97.114
G0 X94.141 Y115.9
M205 X12 Y12
;TYPE:WALL-INNER
G1 F2700 E10.9594
G1 F2520 X93.99 Y116.229 E10.99692
G1 X93.502 Y116.603 E11.06063
G1 X93.161 Y116.708 E11.09761
G1 X71.965 Y116.708 E13.2942
G1 X71.483 Y116.608 E13.34521
G1 X71 Y116.22 E13.40942
G1 X70.859 Y115.9 E13.44566
G1 X70.795 Y115.623 E13.47512
G1 X70.791 Y96.464 E15.46061
G1 X70.877 Y96.05 E15.50443
G1 X71.039 Y95.745 E15.54022
G1 X71.251 Y95.532 E15.57136
G1 X71.497 Y95.396 E15.60049
G1 X71.837 Y95.291 E15.63737
G1 X92.223 Y95.292 E17.75002
G1 X92.514 Y95.333 E17.78047
G1 X92.912 Y95.496 E17.82504
G1 X93.997 Y96.587 E17.9845
G1 X94.168 Y96.985 E18.02939
G1 X94.209 Y97.276 E18.05985
G1 X94.205 Y115.624 E19.96129
G1 X94.141 Y115.9 E19.99065
M205 X11 Y11
G1 F2700 E14.99065
G0 F8100 X93.828 Y116.371
G0 X93.326 Y116.567
G0 X88.923 Y117.045
G0 X88.587 Y118.071
G0 X88.518 Y118.391
M205 X12 Y12
G1 F2700 E19.99065
G1 F2520 X88.97 Y118.754 E20.05073
G1 X89.081 Y118.944 E20.07353
G1 X89.209 Y119.322 E20.11489
G1 X89.209 Y138.649 E22.11779
G1 X89.122 Y138.949 E22.15016
G1 X89.012 Y139.177 E22.1764
G1 X88.808 Y139.419 E22.2092
G1 X88.502 Y139.603 E22.2462
G1 X88.162 Y139.708 E22.28308
G1 X66.965 Y139.708 E24.47977
G1 X66.552 Y139.622 E24.52349
G1 X66.246 Y139.46 E24.55937
G1 X66.034 Y139.249 E24.59037
G1 X65.897 Y139.002 E24.61964
G1 X65.792 Y138.663 E24.65642
G1 X65.791 Y119.464 E26.64605
G1 X65.877 Y119.051 E26.68977
G1 X66.038 Y118.746 E26.72551
G1 X66.251 Y118.532 E26.7568
G1 X66.497 Y118.396 E26.78593
G1 X66.837 Y118.291 E26.82281
G1 X88.036 Y118.291 E29.01971
G1 X88.518 Y118.391 E29.07072
M205 X11 Y11
G1 F2700 E24.07072
G0 F8100 X71.2 Y117.955
G0 X69.251 Y116.46
G0 X69.141 Y115.9
M205 X12 Y12
G1 F2700 E29.07072
G1 F2520 X68.99 Y116.229 E29.10824
G1 X68.502 Y116.603 E29.17195
G1 X68.163 Y116.708 E29.20873
G1 X65.581 Y116.71 E29.47631
G1 X65.156 Y116.766 E29.52074
G1 X64.858 Y116.891 E29.55422
G1 X64.594 Y117.092 E29.58861
G1 X64.384 Y117.373 E29.62496
G1 X64.262 Y117.671 E29.65834
G1 X64.208 Y118.08 E29.70109
G1 X64.21 Y139.921 E31.96452
G1 X64.265 Y140.341 E32.00842
G1 X64.391 Y140.643 E32.04233
G1 X64.591 Y140.904 E32.07641
G1 X64.874 Y141.115 E32.11299
G1 X65.174 Y141.238 E32.14659
G1 X65.578 Y141.291 E32.18882
G1 X72.513 Y141.291 E32.90751
G1 X72.968 Y141.382 E32.95559
G1 X73.339 Y141.633 E33.00201
G1 X93.366 Y161.662 E35.93728
G1 X93.617 Y162.036 E35.98396
G1 X93.708 Y162.487 E36.03164
G1 X93.709 Y164.421 E36.23206
G1 X93.766 Y164.844 E36.27629
G1 X93.89 Y165.143 E36.30984
G1 X94.09 Y165.404 E36.34392
G1 X94.373 Y165.615 E36.3805
G1 X94.674 Y165.738 E36.41419
G1 X95.078 Y165.791 E36.45642
G1 X115.668 Y165.792 E38.59021
G1 X115.901 Y165.858 E38.61531
G1 X116.231 Y166.012 E38.65304
G1 X116.629 Y166.533 E38.72099
G1 X116.708 Y166.965 E38.7665
G1 X116.709 Y169.421 E39.02102
G1 X116.765 Y169.841 E39.06493
G1 X116.891 Y170.143 E39.09884
G1 X117.091 Y170.404 E39.13292
G1 X117.374 Y170.615 E39.1695
G1 X117.675 Y170.738 E39.2032
G1 X118.079 Y170.792 E39.24544
G1 X139.919 Y170.791 E41.50877
G1 X140.344 Y170.734 E41.55321
G1 X140.643 Y170.61 E41.58675
G1 X140.906 Y170.407 E41.62118
G1 X141.115 Y170.127 E41.65739
G1 X141.237 Y169.826 E41.69105
G1 X141.291 Y169.421 E41.73339
G1 X141.292 Y162.488 E42.45187
G1 X141.383 Y162.036 E42.49965
G1 X141.634 Y161.662 E42.54633
G1 X161.662 Y141.634 E45.4816
G1 X161.988 Y141.415 E45.5223
G1 X162.357 Y141.292 E45.56261
G1 X169.419 Y141.291 E46.29446
G1 X169.844 Y141.234 E46.3389
G1 X170.143 Y141.11 E46.37244
G1 X170.406 Y140.907 E46.40687
G1 X170.615 Y140.627 E46.44308
G1 X170.738 Y140.325 E46.47687
G1 X170.792 Y139.921 E46.51911
G1 X170.791 Y118.079 E48.78265
G1 X170.734 Y117.655 E48.82698
G1 X170.61 Y117.358 E48.86034
G1 X170.409 Y117.096 E48.89456
G1 X170.127 Y116.885 E48.93106
G1 X169.826 Y116.762 E48.96476
G1 X169.421 Y116.71 E49.00707
G1 X166.964 Y116.708 E49.2617
G1 X166.483 Y116.608 E49.31261
G1 X166 Y116.22 E49.37681
G1 X165.859 Y115.9 E49.41305
G1 X165.795 Y115.623 E49.44252
G1 X165.791 Y95.079 E51.57154
G1 X165.734 Y94.655 E51.61587
G1 X165.61 Y94.358 E51.64923
G1 X165.409 Y94.096 E51.68345
G1 X165.127 Y93.885 E51.71995
G1 X164.826 Y93.762 E51.75364
G1 X164.422 Y93.71 E51.79586
G1 X162.487 Y93.709 E51.99638
G1 X162.035 Y93.618 E52.04417
G1 X161.661 Y93.367 E52.09084
G1 X141.634 Y73.338 E55.02611
G1 X141.414 Y73.012 E55.06687
G1 X141.292 Y72.643 E55.10714
G1 X141.291 Y65.579 E55.8392
G1 X141.234 Y65.155 E55.88354
G1 X141.11 Y64.858 E55.91689
G1 X140.909 Y64.596 E55.95111
G1 X140.627 Y64.385 E55.98761
G1 X140.326 Y64.262 E56.02131
G1 X139.921 Y64.209 E56.06364
G1 X118.081 Y64.209 E58.32697
G1 X117.656 Y64.266 E58.37141
G1 X117.358 Y64.391 E58.40489
G1 X117.094 Y64.592 E58.43928
G1 X116.884 Y64.873 E58.47563
G1 X116.763 Y65.171 E58.50897
G1 X116.71 Y65.579 E58.5516
G1 X116.708 Y68.174 E58.82053
G1 X116.572 Y68.56 E58.86294
G1 X116.245 Y68.969 E58.91721
G1 X116.055 Y69.08 E58.94001
G1 X115.673 Y69.208 E58.98176
G1 X95.081 Y69.209 E61.11576
G1 X94.656 Y69.266 E61.1602
G1 X94.358 Y69.391 E61.19369
G1 X94.094 Y69.592 E61.22807
G1 X93.884 Y69.874 E61.26451
G1 X93.763 Y70.172 E61.29784
G1 X93.709 Y70.579 E61.34039
G1 X93.708 Y72.651 E61.55511
G1 X93.585 Y73.012 E61.59464
G1 X93.366 Y73.338 E61.63534
G1 X73.338 Y93.366 E64.5706
G1 X73.012 Y93.586 E64.61136
G1 X72.643 Y93.708 E64.65164
G1 X70.581 Y93.71 E64.86533
G1 X70.156 Y93.766 E64.90975
G1 X69.858 Y93.891 E64.94324
G1 X69.594 Y94.092 E64.97763
G1 X69.384 Y94.373 E65.01398
G1 X69.263 Y94.671 E65.04731
G1 X69.209 Y95.079 E65.08996
G1 X69.205 Y115.624 E67.21909
G1 X69.141 Y115.9 E67.24845
M205 X11 Y11
G0 F8100 X68.406 Y115.843
M205 X12 Y12
;TYPE:WALL-OUTER
G1 F2520 X68.255 Y115.958 E67.26685
G1 X68.092 Y116.014 E67.28356
G1 X65.536 Y116.02 E67.53135
G1 X64.975 Y116.094 E67.58621
G1 X64.509 Y116.288 E67.63515
G1 X64.099 Y116.603 E67.68527
G1 X63.779 Y117.031 E67.73708
G1 X63.59 Y117.493 E67.78547
G1 X63.518 Y118.034 E67.83838
G1 X63.52 Y139.967 E69.96471
G1 X63.593 Y140.522 E70.01898
G1 X63.788 Y140.991 E70.06822
G1 X64.101 Y141.399 E70.11807
G1 X64.531 Y141.721 E70.17015
G1 X64.996 Y141.911 E70.21885
G1 X65.534 Y141.981 E70.27144
G1 X72.513 Y141.981 E70.94803
G1 X72.793 Y142.063 E70.97632
G1 X92.878 Y162.15 E73.73016
G1 X93.018 Y162.405 E73.75837
G1 X93.019 Y164.466 E73.95817
G1 X93.094 Y165.025 E74.01285
G1 X93.288 Y165.491 E74.06179
G1 X93.601 Y165.899 E74.11164
G1 X94.031 Y166.221 E74.16372
G1 X94.496 Y166.411 E74.21242
G1 X95.034 Y166.481 E74.26501
G1 X115.598 Y166.487 E76.25862
G1 X115.843 Y166.595 E76.28457
G1 X115.958 Y166.745 E76.3029
G1 X116.018 Y166.965 E76.32501
G1 X116.019 Y169.467 E76.56757
G1 X116.093 Y170.022 E76.62185
G1 X116.288 Y170.491 E76.67109
G1 X116.601 Y170.899 E76.72094
G1 X117.031 Y171.221 E76.77302
G1 X117.496 Y171.411 E76.82172
G1 X118.034 Y171.482 E76.87433
G1 X139.965 Y171.481 E79.00046
G1 X140.525 Y171.406 E79.05523
G1 X140.991 Y171.212 E79.10417
G1 X141.402 Y170.896 E79.15443
G1 X141.721 Y170.469 E79.2061
G1 X141.911 Y170.004 E79.2548
G1 X141.981 Y169.466 E79.3074
G1 X141.982 Y162.488 E79.98389
G1 X142.008 Y162.358 E79.99674
G1 X142.122 Y162.15 E80.01973
G1 X162.15 Y142.122 E82.76563
G1 X162.43 Y141.986 E82.79581
G1 X169.464 Y141.981 E83.47773
G1 X170.025 Y141.906 E83.5326
G1 X170.491 Y141.712 E83.58153
G1 X170.902 Y141.396 E83.63179
G1 X171.221 Y140.969 E83.68347
G1 X171.411 Y140.504 E83.73216
G1 X171.482 Y139.966 E83.78477
G1 X171.481 Y118.033 E85.9111
G1 X171.406 Y117.473 E85.96587
G1 X171.212 Y117.009 E86.01463
G1 X170.899 Y116.601 E86.06448
G1 X170.469 Y116.279 E86.11656
G1 X170.004 Y116.089 E86.16526
G1 X169.466 Y116.02 E86.21784
G1 X166.964 Y116.018 E86.4604
G1 X166.719 Y115.941 E86.4853
G1 X166.586 Y115.834 E86.50185
G1 X166.487 Y115.597 E86.52675
G1 X166.481 Y95.033 E88.52035
G1 X166.406 Y94.473 E88.57513
G1 X166.212 Y94.009 E88.62388
G1 X165.899 Y93.601 E88.67374
G1 X165.469 Y93.279 E88.72582
G1 X165.004 Y93.089 E88.77451
G1 X164.466 Y93.02 E88.8271
G1 X162.404 Y93.019 E89.027
G1 X162.149 Y92.879 E89.0552
G1 X142.122 Y72.85 E91.8011
G1 X141.986 Y72.57 E91.83128
G1 X141.981 Y65.534 E92.51339
G1 X141.906 Y64.973 E92.56826
G1 X141.712 Y64.509 E92.61702
G1 X141.399 Y64.101 E92.66687
G1 X140.969 Y63.779 E92.71895
G1 X140.504 Y63.589 E92.76765
G1 X139.966 Y63.519 E92.82024
G1 X118.035 Y63.519 E94.94637
G1 X117.475 Y63.594 E95.00115
G1 X117.009 Y63.788 E95.05008
G1 X116.599 Y64.103 E95.10021
G1 X116.279 Y64.531 E95.15202
G1 X116.09 Y64.992 E95.20032
G1 X116.02 Y65.534 E95.2533
G1 X116.014 Y68.093 E95.50139
G1 X115.941 Y68.281 E95.52094
G1 X115.835 Y68.414 E95.53743
G1 X115.597 Y68.513 E95.56242
G1 X95.035 Y68.519 E97.55583
G1 X94.475 Y68.594 E97.6106
G1 X94.009 Y68.788 E97.65954
G1 X93.599 Y69.103 E97.70966
G1 X93.279 Y69.531 E97.76147
G1 X93.089 Y69.994 E97.80999
G1 X93.019 Y70.534 E97.86278
G1 X93.014 Y72.57 E98.06016
G1 X92.878 Y72.85 E98.09034
G1 X72.85 Y92.878 E100.83623
G1 X72.57 Y93.014 E100.86641
G1 X70.536 Y93.02 E101.0636
G1 X69.975 Y93.094 E101.11846
G1 X69.509 Y93.288 E101.16739
G1 X69.099 Y93.603 E101.21752
G1 X68.779 Y94.031 E101.26933
G1 X68.59 Y94.492 E101.31763
G1 X68.519 Y95.034 E101.37062
G1 X68.517 Y115.564 E103.36093
G1 X68.406 Y115.843 E103.39004
M205 X11 Y11
G0 F8100 X68.255 Y115.958
G0 X68.245 Y115.961
G1 F2700 E98.39004
G0 F8100 X68.481 Y116.574
G0 X66.295 Y117.066
G0 X66.478 Y118.044
G0 X65.988 Y118.887
G1 F2700 E103.39004
G0 F8100 X66.594 Y119.155
M205 X12 Y12
G1 F2520 X66.664 Y119.085 E103.39964
G1 X66.907 Y118.985 E103.42511
G1 X88.036 Y118.981 E105.47349
G1 X88.282 Y119.058 E105.49848
G1 X88.415 Y119.164 E105.51497
G1 X88.514 Y119.402 E105.53996
G1 X88.519 Y138.6 E107.40113
G1 X88.355 Y138.898 E107.43411
G1 X88.092 Y139.014 E107.46198
G1 X66.965 Y139.018 E109.51016
G1 X66.63 Y138.884 E109.54514
G1 X66.486 Y138.592 E109.5767
G1 X66.481 Y119.464 E111.43109
G1 X66.594 Y119.155 E111.46299
M205 X11 Y11
G0 F8100 X66.664 Y119.085
G0 X66.758 Y119.047
G1 F2700 E106.46299
G0 F8100 X66.518 Y118.425
G0 X68.035 Y117.954
G0 X70.455 Y115.535
G0 X70.885 Y96.268
G0 X70.988 Y95.887
G1 F2700 E111.46299
G0 F8100 X71.594 Y96.155
M205 X12 Y12
G1 F2520 X71.664 Y96.085 E111.47259
G1 X71.907 Y95.985 E111.49806
G1 X92.281 Y95.986 E113.47325
G1 X92.532 Y96.096 E113.49981
G1 X93.421 Y96.982 E113.62149
G1 X93.519 Y97.211 E113.64564
G1 X93.517 Y115.564 E115.4249
G1 X93.406 Y115.843 E115.45401
G1 X93.255 Y115.958 E115.47241
G1 X93.092 Y116.014 E115.48912
G1 X71.965 Y116.018 E117.5373
G1 X71.719 Y115.941 E117.56229
G1 X71.586 Y115.834 E117.57884
G1 X71.487 Y115.597 E117.60374
G1 X71.481 Y96.464 E119.45861
G1 X71.594 Y96.155 E119.49051
M205 X11 Y11
G0 F8100 X71.664 Y96.085
G0 X71.758 Y96.047
G1 F2700 E114.49051
G0 F8100 X71.518 Y95.425
G0 X71.791 Y95.385
G0 X92.406 Y95.386
G0 X92.854 Y95.572
G0 X93.929 Y96.644
G0 X94.079 Y97.007
G0 X94.545 Y109.264
G0 X96.324 Y109.263
G0 X96.286 Y115.633
G0 X96.442 Y116.029
G0 X96.854 Y116.214
G0 X108.133 Y116.214
G0 X108.529 Y116.058
G0 X108.714 Y115.646
G0 X109.115 Y110.479
G0 X110.156 Y109.266
M205 X12 Y12
;TYPE:WALL-INNER
G1 F2700 E119.49051
G1 F2520 X109.857 Y109.39 E119.52405
G1 X109.594 Y109.592 E119.55842
G1 X109.384 Y109.873 E119.59478
G1 X109.262 Y110.172 E119.62824
G1 X109.209 Y110.578 E119.67067
G1 X109.207 Y115.599 E120.19101
G1 X109.155 Y115.862 E120.21879
G1 X109.032 Y116.141 E120.25039
G1 X108.821 Y116.406 E120.2855
G1 X108.555 Y116.58 E120.31844
G1 X108.177 Y116.708 E120.35979
G1 X96.965 Y116.708 E121.52172
G1 X96.483 Y116.608 E121.57273
G1 X96 Y116.22 E121.63694
G1 X95.859 Y115.9 E121.67318
G1 X95.795 Y115.623 E121.70264
G1 X95.791 Y96.964 E123.63631
G1 X95.831 Y96.676 E123.66645
G1 X95.975 Y96.342 E123.70414
G1 X96.137 Y96.131 E123.73171
G1 X96.371 Y95.955 E123.76205
G1 X96.782 Y95.79 E123.80795
G1 X115.759 Y95.791 E125.77458
G1 X116.232 Y96.011 E125.82864
G1 X116.628 Y96.53 E125.89629
G1 X116.709 Y96.965 E125.94215
G1 X116.705 Y108.124 E127.09858
G1 X116.622 Y108.483 E127.13677
G1 X116.4 Y108.827 E127.17919
G1 X116.055 Y109.08 E127.22353
G1 X115.688 Y109.207 E127.26378
G1 X110.581 Y109.209 E127.79303
G1 X110.156 Y109.266 E127.83746
M205 X11 Y11
G1 F2700 E122.83746
G0 F8100 X115.708 Y109.114
G0 X116.21 Y108.918
G0 X117.022 Y108.29
G0 X117.978 Y108.29
G0 X118.629 Y108.828
G0 X119.205 Y109.085
G0 X125.791 Y109.209
M205 X12 Y12
G1 F2700 E127.83746
G1 F2520 X119.401 Y109.207 E128.49967
G1 X119.138 Y109.155 E128.52746
G1 X118.858 Y109.032 E128.55915
G1 X118.593 Y108.821 E128.59426
G1 X118.42 Y108.555 E128.62714
G1 X118.295 Y108.186 E128.66751
G1 X118.291 Y91.964 E130.34864
G1 X118.391 Y91.482 E130.39965
G1 X118.754 Y91.03 E130.45973
G1 X118.945 Y90.919 E130.48262
G1 X119.313 Y90.794 E130.5229
G1 X138.036 Y90.791 E132.46321
G1 X138.312 Y90.829 E132.49208
G1 X138.658 Y90.964 E132.53057
G1 X138.89 Y91.159 E132.56197
G1 X139.132 Y91.542 E132.60892
G1 X139.209 Y91.965 E132.65348
G1 X139.205 Y115.624 E135.10532
G1 X139.141 Y115.9 E135.13468
G1 X138.988 Y116.231 E135.17247
G1 X138.502 Y116.603 E135.23589
G1 X138.161 Y116.708 E135.27287
G1 X126.876 Y116.705 E136.44236
G1 X126.523 Y116.625 E136.47987
