;FLAVOR:Marlin
;TIME:10273
;Filament used: 6.75902m
;Layer height: 0.2
;MINX:52.06
;MINY:52.059
;MINZ:0.2
;MAXX:182.941
;MAXY:182.94
;MAXZ:5
;POSTPROCESSED
;Generated with Cura_SteamEngine main
M140 S80
M105
M190 S80
M104 S240
M105
M109 S240
M82 ;absolute extrusion mode
; Script based on an original created by tjjfvi (https://github.com/tjjfvi)
; An up-to-date version of the tjjfvi's original script can be found
; here:  https://csi.t6.fyi/
; Note - This script will only work in Cura V4.2 and above!
; --- Global Settings
; layer_height = 0.2
; smooth_spiralized_contours = True
; magic_mesh_surface_mode = normal
; machine_extruder_count = 1
; --- Single Extruder Settings
; speed_z_hop = 5
; retraction_amount = 5
; retraction_hop = 0.2
; retraction_hop_enabled = False
; retraction_enable = True
; retraction_speed = 45
; retraction_retract_speed = 45
; retraction_prime_speed = 45
; speed_travel = 150.0

; Ender 3 Custom Start G-code
G92 E0 ; Reset Extruder
G28 ; Home all axes
M501 ;load bed level data
M420 S1 ;enable bed leveling
G1 Z2.0 F3000 ; Move Z Axis up little to prevent scratching of Heat Bed
G1 X1.0 Y20 Z0.3 F5000.0 ; Move to start position
G1 X1.0 Y200.0 Z0.3 F1500.0 E15 ; Draw the first line
G1 X1.3 Y200.0 Z0.3 F5000.0 ; Move to side a little
G1 X0.4 Y20 Z0.3 F1500.0 E30 ; Draw the second line
G92 E0 ; Reset Extruder
G1 Z2.0 F3000 ; Move Z Axis up little to prevent scratching of Heat Bed
G1 X5 Y20 Z0.3 F5000.0 ; Move over to prevent blob squish
G92 E0
G92 E0
G1 F2700 E-5
;LAYER_COUNT:25
;LAYER:0
M117 Printing CE3_Califlower v9 - Layer 1 of 25
M107
G0 F6000 X62.59 Y84.166 Z0.2
G0 X57.153 Y93.616
;TYPE:SKIRT
G1 F2700 E0
G1 F1200 X57.254 Y92.86 E0.02537
G1 X57.425 Y91.938 E0.05656
G1 X57.674 Y91.033 E0.08778
G1 X57.936 Y90.306 E0.11348
G1 X58.173 Y89.715 E0.13466
G1 X58.559 Y88.86 E0.16586
G1 X59.016 Y88.041 E0.19705
G1 X59.572 Y87.223 E0.22995
G1 X59.942 Y86.728 E0.2505
G1 X60.535 Y86.002 E0.28168
G1 X61.188 Y85.328 E0.31289
G1 X61.838 Y84.759 E0.34163
G1 X62.198 Y84.468 E0.35702
G1 X62.59 Y84.166 E0.37348
G1 X65.189 Y82.252 E0.48084
G1 X67.165 Y80.707 E0.56426
G1 X69.113 Y79.093 E0.6484
G1 X71.001 Y77.434 E0.732
G1 X72.873 Y75.697 E0.81693
G1 X74.627 Y73.974 E0.89871
G1 X76.391 Y72.139 E0.98337
G1 X78.08 Y70.278 E1.06696
G1 X79.71 Y68.38 E1.15017
G1 X81.3 Y66.417 E1.23419
G1 X83.261 Y63.833 E1.34208
G1 X84.246 Y62.486 E1.39758
G1 X84.588 Y62.039 E1.4163
G1 X85.197 Y61.325 E1.44752
G1 X85.864 Y60.666 E1.4787
G1 X86.413 Y60.2 E1.50265
G1 X86.962 Y59.764 E1.52597
G1 X87.721 Y59.213 E1.55717
G1 X88.523 Y58.728 E1.58834
G1 X89.778 Y58.141 E1.63442
G1 X90.335 Y57.922 E1.65433
G1 X91.222 Y57.616 E1.68554
G1 X92.131 Y57.387 E1.71671
G1 X92.733 Y57.28 E1.73705
G1 X93.519 Y57.168 E1.76346
G1 X95.392 Y56.95 E1.82617
G1 X97.938 Y56.61 E1.91161
G1 X100.408 Y56.208 E1.99484
G1 X102.872 Y55.734 E2.07829
G1 X105.331 Y55.19 E2.16206
G1 X107.781 Y54.576 E2.24607
G1 X110.184 Y53.899 E2.3291
G1 X112.815 Y53.074 E2.42081
G1 X113.903 Y52.714 E2.45893
G1 X114.805 Y52.458 E2.49011
G1 X115.883 Y52.257 E2.52658
G1 X116.541 Y52.168 E2.54867
G1 X117.665 Y52.075 E2.58618
G1 X118.265 Y52.061 E2.60614
G1 X139.29 Y52.059 E3.30544
G1 X140.217 Y52.071 E3.33627
G1 X141.604 Y52.179 E3.38254
G1 X142.154 Y52.257 E3.40102
G1 X143.076 Y52.428 E3.43221
G1 X143.98 Y52.677 E3.46339
G1 X144.728 Y52.948 E3.48986
G1 X145.31 Y53.183 E3.51073
G1 X146.163 Y53.571 E3.5419
G1 X146.981 Y54.03 E3.5731
G1 X147.777 Y54.572 E3.60513
G1 X148.272 Y54.942 E3.62568
G1 X148.998 Y55.535 E3.65686
G1 X149.672 Y56.188 E3.68807
G1 X150.233 Y56.828 E3.71638
G1 X150.519 Y57.181 E3.73149
G1 X150.914 Y57.696 E3.75308
G1 X151.644 Y58.807 E3.79729
G1 X153.18 Y61.485 E3.89997
G1 X154.49 Y63.62 E3.98329
G1 X155.862 Y65.72 E4.06672
G1 X157.303 Y67.794 E4.15071
G1 X158.794 Y69.815 E4.23425
G1 X160.339 Y71.791 E4.31767
G1 X161.964 Y73.752 E4.40238
G1 X163.605 Y75.622 E4.48513
G1 X165.327 Y77.476 E4.56929
G1 X167.098 Y79.277 E4.6533
G1 X168.892 Y81.001 E4.73605
G1 X170.757 Y82.697 E4.8199
G1 X173.318 Y84.878 E4.93178
G1 X174.005 Y85.516 E4.96296
G1 X174.73 Y86.325 E4.99909
G1 X175.017 Y86.679 E5.01425
G1 X175.406 Y87.184 E5.03545
G1 X175.938 Y87.956 E5.06664
G1 X176.403 Y88.771 E5.09784
G1 X176.852 Y89.761 E5.134
G1 X177.071 Y90.315 E5.15381
G1 X177.378 Y91.201 E5.185
G1 X177.609 Y92.11 E5.2162
G1 X177.719 Y92.723 E5.23691
G1 X177.831 Y93.51 E5.26335
G1 X178.049 Y95.386 E5.32617
G1 X178.39 Y97.938 E5.4118
G1 X178.792 Y100.408 E5.49503
G1 X179.266 Y102.872 E5.57849
G1 X179.81 Y105.331 E5.66225
G1 X180.424 Y107.781 E5.74626
G1 X181.101 Y110.184 E5.8293
G1 X181.926 Y112.815 E5.921
G1 X182.286 Y113.903 E5.95912
G1 X182.542 Y114.805 E5.99031
G1 X182.742 Y115.878 E6.02661
G1 X182.831 Y116.534 E6.04863
G1 X182.925 Y117.654 E6.08601
G1 X182.939 Y118.257 E6.10607
G1 X182.941 Y139.252 E6.80437
G1 X182.929 Y140.21 E6.83623
G1 X182.82 Y141.61 E6.88294
G1 X182.742 Y142.158 E6.90135
G1 X182.571 Y143.08 E6.93254
G1 X182.321 Y143.984 E6.96373
G1 X182.054 Y144.72 E6.98977
G1 X181.819 Y145.303 E7.01068
G1 X181.432 Y146.158 E7.0419
G1 X180.973 Y146.976 E7.07309
G1 X180.428 Y147.777 E7.10532
G1 X180.058 Y148.272 E7.12587
G1 X179.465 Y148.998 E7.15705
G1 X178.812 Y149.672 E7.18826
G1 X178.1 Y150.29 E7.21962
G1 X177.594 Y150.693 E7.24113
G1 X176.888 Y151.212 E7.27028
G1 X175.987 Y151.819 E7.30641
G1 X173.883 Y153.279 E7.39159
G1 X171.832 Y154.79 E7.47632
G1 X169.879 Y156.316 E7.55875
G1 X167.924 Y157.935 E7.64318
G1 X166.035 Y159.591 E7.72673
G1 X164.199 Y161.294 E7.81002
G1 X162.386 Y163.076 E7.89457
G1 X160.663 Y164.867 E7.97723
G1 X158.953 Y166.748 E8.06178
G1 X157.315 Y168.657 E8.14545
G1 X155.744 Y170.594 E8.2284
G1 X154.196 Y172.618 E8.31315
G1 X152.718 Y174.669 E8.39723
G1 X151.265 Y176.805 E8.48316
G1 X150.98 Y177.205 E8.49949
G1 X150.557 Y177.771 E8.52299
G1 X149.964 Y178.498 E8.5542
G1 X149.312 Y179.171 E8.58536
G1 X148.683 Y179.723 E8.6132
G1 X148.331 Y180.009 E8.62828
G1 X147.822 Y180.402 E8.64967
G1 X147.05 Y180.935 E8.68087
G1 X146.236 Y181.4 E8.71205
G1 X145.222 Y181.859 E8.74907
G1 X144.668 Y182.077 E8.76887
G1 X143.781 Y182.383 E8.80008
G1 X142.872 Y182.612 E8.83126
G1 X142.267 Y182.72 E8.8517
G1 X141.839 Y182.784 E8.86609
G1 X141.237 Y182.86 E8.88627
G1 X140.335 Y182.925 E8.91635
G1 X139.735 Y182.939 E8.93631
G1 X118.552 Y182.94 E9.64086
G1 X117.781 Y182.929 E9.66651
G1 X116.845 Y182.876 E9.69769
G1 X116.361 Y182.816 E9.71391
G1 X115.802 Y182.735 E9.7327
G1 X114.88 Y182.561 E9.76391
G1 X113.937 Y182.297 E9.79648
G1 X112.202 Y181.726 E9.85723
G1 X109.8 Y180.987 E9.94081
G1 X107.372 Y180.315 E10.02461
G1 X104.907 Y179.707 E10.10905
G1 X102.44 Y179.173 E10.193
G1 X100.001 Y178.716 E10.27554
G1 X97.5 Y178.32 E10.35976
G1 X94.987 Y177.995 E10.44403
G1 X93.616 Y177.847 E10.4899
G1 X92.839 Y177.742 E10.51598
G1 X91.917 Y177.569 E10.54718
G1 X91.013 Y177.319 E10.57837
G1 X90.307 Y177.064 E10.60334
G1 X89.718 Y176.828 E10.62444
G1 X88.863 Y176.442 E10.65565
G1 X88.044 Y175.985 E10.68684
G1 X87.206 Y175.415 E10.72055
G1 X86.693 Y175.03 E10.74188
G1 X85.968 Y174.436 E10.77305
G1 X85.296 Y173.781 E10.80427
G1 X84.961 Y173.41 E10.82089
G1 X84.592 Y172.98 E10.83974
G1 X83.595 Y171.782 E10.89158
G1 X81.942 Y169.907 E10.97471
G1 X80.216 Y168.057 E11.05887
G1 X78.455 Y166.272 E11.14226
G1 X76.646 Y164.542 E11.22552
G1 X74.761 Y162.836 E11.31008
G1 X72.86 Y161.213 E11.39321
G1 X70.884 Y159.619 E11.47765
G1 X68.91 Y158.118 E11.56013
G1 X66.842 Y156.635 E11.64477
G1 X64.77 Y155.237 E11.72791
G1 X62.63 Y153.879 E11.81221
G1 X59.869 Y152.247 E11.91888
G1 X58.895 Y151.694 E11.95613
G1 X57.75 Y150.947 E12.0016
G1 X57.239 Y150.566 E12.0228
G1 X56.512 Y149.973 E12.05401
G1 X55.837 Y149.322 E12.0852
G1 X55.267 Y148.672 E12.11395
G1 X54.981 Y148.319 E12.12906
G1 X54.594 Y147.816 E12.15017
G1 X54.062 Y147.044 E12.18135
G1 X53.597 Y146.229 E12.21256
G1 X53.146 Y145.233 E12.24893
G1 X52.927 Y144.678 E12.26877
G1 X52.62 Y143.791 E12.29999
G1 X52.39 Y142.882 E12.33118
G1 X52.28 Y142.267 E12.35196
G1 X52.216 Y141.839 E12.36635
G1 X52.14 Y141.237 E12.38653
G1 X52.075 Y140.335 E12.41661
G1 X52.061 Y139.735 E12.43657
G1 X52.06 Y118.539 E13.14155
G1 X52.072 Y117.762 E13.1674
G1 X52.127 Y116.826 E13.19859
G1 X52.184 Y116.36 E13.2142
G1 X52.264 Y115.806 E13.23282
G1 X52.437 Y114.884 E13.26402
G1 X52.704 Y113.934 E13.29684
G1 X53.27 Y112.217 E13.35697
G1 X54.013 Y109.8 E13.44107
G1 X54.685 Y107.372 E13.52486
G1 X55.293 Y104.907 E13.60931
G1 X55.827 Y102.44 E13.69326
G1 X56.284 Y100.001 E13.77579
G1 X56.68 Y97.5 E13.86001
G1 X57.005 Y94.987 E13.94429
G1 X57.153 Y93.616 E13.99016
G1 F2700 E8.99016
G0 F6000 X57.078 Y97.542
G1 F2700 E13.99016
G1 F1200 X57.403 Y95.032 E14.07434
G1 X57.551 Y93.659 E14.12027
G1 X57.65 Y92.916 E14.1452
G1 X57.819 Y92.011 E14.17582
G1 X58.065 Y91.124 E14.20644
G1 X58.308 Y90.455 E14.23011
G1 X58.545 Y89.864 E14.25129
G1 X58.924 Y89.025 E14.28191
G1 X59.375 Y88.222 E14.31254
G1 X59.893 Y87.463 E14.3431
G1 X60.263 Y86.968 E14.36366
G1 X60.845 Y86.255 E14.39427
G1 X61.488 Y85.595 E14.42492
G1 X62.089 Y85.07 E14.45146
G1 X62.449 Y84.779 E14.46685
G1 X62.827 Y84.488 E14.48272
G1 X65.427 Y82.573 E14.59012
G1 X67.421 Y81.014 E14.67431
G1 X69.386 Y79.385 E14.7592
G1 X71.274 Y77.728 E14.84275
G1 X73.124 Y76.011 E14.9267
G1 X74.913 Y74.253 E15.01012
G1 X76.692 Y72.402 E15.09551
G1 X78.363 Y70.562 E15.17818
G1 X80.04 Y68.609 E15.2638
G1 X81.618 Y66.661 E15.34718
G1 X83.569 Y64.089 E15.45455
G1 X84.569 Y62.722 E15.51089
G1 X84.903 Y62.285 E15.52918
G1 X85.501 Y61.585 E15.5598
G1 X86.158 Y60.94 E15.59042
G1 X86.662 Y60.513 E15.61239
G1 X87.211 Y60.077 E15.63571
G1 X87.956 Y59.537 E15.66631
G1 X88.745 Y59.063 E15.69693
G1 X89.924 Y58.513 E15.7402
G1 X90.481 Y58.294 E15.76011
G1 X91.352 Y57.995 E15.79073
G1 X92.245 Y57.772 E15.82135
G1 X92.792 Y57.676 E15.83982
G1 X93.565 Y57.566 E15.86579
G1 X95.435 Y57.349 E15.9284
G1 X97.984 Y57.008 E16.01394
G1 X100.476 Y56.603 E16.09791
G1 X102.936 Y56.13 E16.18123
G1 X105.435 Y55.577 E16.26636
G1 X107.882 Y54.963 E16.35027
G1 X110.306 Y54.28 E16.43403
G1 X112.952 Y53.45 E16.52626
G1 X114.029 Y53.094 E16.56399
G1 X114.915 Y52.843 E16.59462
G1 X115.936 Y52.654 E16.62915
G1 X116.594 Y52.565 E16.65124
G1 X117.677 Y52.474 E16.68739
G1 X118.265 Y52.461 E16.70695
G1 X139.29 Y52.459 E17.40624
G1 X140.211 Y52.471 E17.43688
G1 X141.547 Y52.575 E17.48145
G1 X142.097 Y52.653 E17.49992
G1 X143.002 Y52.822 E17.53054
G1 X143.889 Y53.068 E17.56116
G1 X144.578 Y53.319 E17.58555
G1 X145.16 Y53.554 E17.60642
G1 X145.998 Y53.935 E17.63704
G1 X146.799 Y54.388 E17.66765
G1 X147.537 Y54.893 E17.69739
G1 X148.032 Y55.263 E17.71795
G1 X148.745 Y55.845 E17.74856
G1 X149.405 Y56.488 E17.7792
G1 X149.922 Y57.08 E17.80535
G1 X150.208 Y57.433 E17.82046
G1 X150.594 Y57.936 E17.84155
G1 X151.297 Y59.006 E17.88413
G1 X152.844 Y61.703 E17.98754
G1 X154.147 Y63.827 E18.07042
G1 X155.531 Y65.945 E18.15457
G1 X156.968 Y68.013 E18.23833
G1 X158.473 Y70.053 E18.32264
G1 X160.032 Y72.047 E18.40683
G1 X161.671 Y74.025 E18.49227
G1 X163.294 Y75.875 E18.57412
G1 X165.048 Y77.764 E18.65986
G1 X166.8 Y79.546 E18.74298
G1 X168.629 Y81.303 E18.82733
G1 X170.494 Y82.998 E18.91115
G1 X173.058 Y85.182 E19.02317
G1 X173.733 Y85.809 E19.05382
G1 X174.419 Y86.576 E19.08804
G1 X174.706 Y86.93 E19.1032
G1 X175.087 Y87.425 E19.12397
G1 X175.608 Y88.183 E19.15457
G1 X176.062 Y88.984 E19.18519
G1 X176.48 Y89.908 E19.21892
G1 X176.699 Y90.462 E19.23873
G1 X177 Y91.332 E19.26935
G1 X177.224 Y92.225 E19.29997
G1 X177.323 Y92.783 E19.31882
G1 X177.433 Y93.556 E19.34479
G1 X177.65 Y95.429 E19.40751
G1 X177.992 Y97.984 E19.49324
G1 X178.397 Y100.476 E19.57721
G1 X178.87 Y102.936 E19.66053
G1 X179.423 Y105.435 E19.74566
G1 X180.033 Y107.868 E19.82909
G1 X180.72 Y110.306 E19.91333
G1 X181.55 Y112.952 E20.00557
G1 X181.906 Y114.029 E20.0433
G1 X182.157 Y114.915 E20.07392
G1 X182.346 Y115.932 E20.10833
G1 X182.435 Y116.588 E20.13035
G1 X182.525 Y117.667 E20.16636
G1 X182.539 Y118.257 E20.18599
G1 X182.541 Y139.252 E20.88428
G1 X182.529 Y140.204 E20.91595
G1 X182.424 Y141.554 E20.96099
G1 X182.346 Y142.102 E20.9794
G1 X182.177 Y143.007 E21.01002
G1 X181.93 Y143.894 E21.04064
G1 X181.683 Y144.571 E21.06461
G1 X181.448 Y145.154 E21.08552
G1 X181.067 Y145.992 E21.11614
G1 X180.615 Y146.794 E21.14676
G1 X180.107 Y147.537 E21.17669
G1 X179.737 Y148.032 E21.19725
G1 X179.155 Y148.745 E21.22786
G1 X178.512 Y149.405 E21.25851
G1 X177.851 Y149.978 E21.2876
G1 X177.345 Y150.381 E21.30912
G1 X176.664 Y150.88 E21.3372
G1 X175.774 Y151.479 E21.37288
G1 X173.664 Y152.944 E21.45831
G1 X171.594 Y154.469 E21.54383
G1 X169.623 Y156.009 E21.62702
G1 X167.671 Y157.625 E21.71131
G1 X165.763 Y159.299 E21.79573
G1 X163.912 Y161.015 E21.87968
G1 X162.118 Y162.779 E21.96336
G1 X160.362 Y164.604 E22.0476
G1 X158.652 Y166.484 E22.13212
G1 X157.001 Y168.408 E22.21645
G1 X155.431 Y170.345 E22.29938
G1 X153.869 Y172.386 E22.38486
G1 X152.395 Y174.432 E22.46873
G1 X150.934 Y176.58 E22.55513
G1 X150.66 Y176.966 E22.57088
G1 X150.237 Y177.532 E22.59438
G1 X149.654 Y178.244 E22.62498
G1 X149.012 Y178.904 E22.65561
G1 X148.43 Y179.413 E22.68132
G1 X148.078 Y179.699 E22.69641
G1 X147.581 Y180.083 E22.7173
G1 X146.823 Y180.605 E22.74791
G1 X146.022 Y181.06 E22.77855
G1 X145.075 Y181.487 E22.8131
G1 X144.521 Y181.705 E22.8329
G1 X143.651 Y182.004 E22.8635
G1 X142.758 Y182.227 E22.89411
G1 X142.208 Y182.324 E22.91269
G1 X141.78 Y182.388 E22.92708
G1 X141.191 Y182.462 E22.94683
G1 X140.323 Y182.526 E22.97577
G1 X139.735 Y182.539 E22.99534
G1 X118.71 Y182.541 E23.69463
G1 X117.787 Y182.529 E23.72533
G1 X116.418 Y182.42 E23.77101
G1 X115.859 Y182.339 E23.7898
G1 X114.954 Y182.168 E23.82043
G1 X114.062 Y181.917 E23.85125
G1 X112.348 Y181.352 E23.91127
G1 X109.91 Y180.603 E23.9961
G1 X107.469 Y179.927 E24.08035
G1 X104.99 Y179.316 E24.16527
G1 X102.52 Y178.781 E24.24932
G1 X100.072 Y178.322 E24.33216
G1 X97.542 Y177.922 E24.41736
G1 X95.032 Y177.597 E24.50154
G1 X93.659 Y177.449 E24.54747
G1 X92.895 Y177.346 E24.57311
G1 X91.99 Y177.176 E24.60373
G1 X91.104 Y176.928 E24.63434
G1 X90.455 Y176.693 E24.65729
G1 X89.866 Y176.457 E24.6784
G1 X89.028 Y176.077 E24.709
G1 X88.225 Y175.627 E24.73962
G1 X87.446 Y175.095 E24.77099
G1 X86.933 Y174.71 E24.79233
G1 X86.222 Y174.126 E24.82293
G1 X85.264 Y173.149 E24.86844
G1 X84.9 Y172.724 E24.88705
G1 X83.904 Y171.527 E24.93884
G1 X82.233 Y169.633 E25.02285
G1 X80.511 Y167.786 E25.10684
G1 X78.751 Y166.002 E25.19019
G1 X76.909 Y164.241 E25.27495
G1 X75.04 Y162.55 E25.35878
G1 X73.108 Y160.9 E25.44328
G1 X71.131 Y159.305 E25.52777
G1 X69.123 Y157.778 E25.61167
G1 X67.07 Y156.306 E25.69569
G1 X64.987 Y154.9 E25.77928
G1 X62.87 Y153.556 E25.86268
G1 X60.046 Y151.888 E25.97177
G1 X59.092 Y151.346 E26.00826
G1 X57.989 Y150.626 E26.05207
G1 X57.478 Y150.245 E26.07327
G1 X56.764 Y149.663 E26.10391
G1 X56.104 Y149.022 E26.13451
G1 X55.578 Y148.42 E26.1611
G1 X55.292 Y148.067 E26.17621
G1 X54.913 Y147.575 E26.19687
G1 X54.392 Y146.817 E26.22746
G1 X53.938 Y146.016 E26.25808
G1 X53.518 Y145.086 E26.29202
G1 X53.299 Y144.531 E26.31187
G1 X52.998 Y143.66 E26.34252
G1 X52.775 Y142.767 E26.37313
G1 X52.676 Y142.208 E26.39201
G1 X52.612 Y141.78 E26.40641
G1 X52.538 Y141.191 E26.42615
G1 X52.474 Y140.323 E26.4551
G1 X52.461 Y139.735 E26.47466
G1 X52.46 Y118.545 E27.17944
G1 X52.472 Y117.768 E27.20529
G1 X52.58 Y116.417 E27.25037
G1 X52.66 Y115.863 E27.26899
G1 X52.831 Y114.958 E27.29962
G1 X53.084 Y114.06 E27.33065
G1 X53.639 Y112.378 E27.38956
G1 X54.397 Y109.91 E27.47543
G1 X55.073 Y107.469 E27.55967
G1 X55.684 Y104.99 E27.64459
G1 X56.219 Y102.52 E27.72865
G1 X56.678 Y100.072 E27.81149
G1 X57.078 Y97.542 E27.89668
G1 F2700 E22.89668
G0 F6000 X56.608 Y102.614
G1 F2700 E27.89668
G1 F1200 X57.074 Y100.13 E27.98074
G1 X57.47 Y97.624 E28.06513
G1 X57.806 Y95.03 E28.15212
G1 X57.949 Y93.702 E28.19655
G1 X58.046 Y92.972 E28.22104
G1 X58.212 Y92.084 E28.25109
G1 X58.456 Y91.214 E28.28114
G1 X58.679 Y90.604 E28.30274
G1 X58.916 Y90.013 E28.32392
G1 X59.289 Y89.19 E28.35398
G1 X59.733 Y88.404 E28.384
G1 X60.213 Y87.702 E28.41229
