;FLAVOR:Marlin
;TIME:1085
;Filament used: 1.45277m
;Layer height: 0.28
;MINX:96.3
;MINY:96.3
;MINZ:0.28
;MAXX:138.7
;MAXY:138.7
;MAXZ:19.88
;POSTPROCESSED
;Generated with Cura_SteamEngine main
M140 S60
M105
M190 S60
M104 S205
M105
M109 S205
M82 ;absolute extrusion mode
; Script based on an original created by tjjfvi (https://github.com/tjjfvi)
; An up-to-date version of the tjjfvi's original script can be found
; here:  https://csi.t6.fyi/
; Note - This script will only work in Cura V4.2 and above!
; --- Global Settings
; layer_height = 0.28
; smooth_spiralized_contours = True
; magic_mesh_surface_mode = normal
; machine_extruder_count = 1
; --- Single Extruder Settings
; speed_z_hop = 10
; retraction_amount = 6
; retraction_hop = 0.2
; retraction_hop_enabled = False
; retraction_enable = True
; retraction_speed = 45
; retraction_retract_speed = 45
; retraction_prime_speed = 45
; speed_travel = 150.0

; Ender 3 Custom Start G-code
G92 E0 ; Reset Extruder
G28 ; Home all axes
M501 ;load bed level data
M420 S1 ;enable bed leveling
G1 Z2.0 F3000 ; Move Z Axis up little to prevent scratching of Heat Bed
G1 X1.0 Y20 Z0.3 F5000.0 ; Move to start position
G1 X1.0 Y200.0 Z0.3 F1500.0 E15 ; Draw the first line
G1 X1.3 Y200.0 Z0.3 F5000.0 ; Move to side a little
G1 X0.4 Y20 Z0.3 F1500.0 E30 ; Draw the second line
G92 E0 ; Reset Extruder
G1 Z2.0 F3000 ; Move Z Axis up little to prevent scratching of Heat Bed
G1 X5 Y20 Z0.3 F5000.0 ; Move over to prevent blob squish
G92 E0
G92 E0
G1 F2700 E-6
;LAYER_COUNT:71
;LAYER:0
M117 Printing CE3_chep - Layer 1 of 71
M107
M204 S500
M205 X5 Y5
G0 F7500 X99.504 Y99.765 Z0.28
G0 X96.301 Y108.17
M205 X8 Y8
;TYPE:SKIRT
G1 F2700 E0
G1 F1500 X96.31 Y107.505 E0.03773
G1 X96.363 Y106.554 E0.09177
G1 X96.495 Y105.611 E0.14579
G1 X96.706 Y104.682 E0.19983
G1 X96.995 Y103.774 E0.25389
G1 X97.358 Y102.893 E0.30795
G1 X97.794 Y102.046 E0.362
G1 X98.3 Y101.238 E0.41608
G1 X98.871 Y100.476 E0.4701
G1 X99.504 Y99.765 E0.52411
G1 X100.195 Y99.108 E0.57821
G1 X100.938 Y98.513 E0.63221
G1 X101.729 Y97.981 E0.68629
G1 X102.562 Y97.518 E0.74036
G1 X103.43 Y97.126 E0.79439
G1 X104.328 Y96.809 E0.84842
G1 X105.25 Y96.568 E0.90248
G1 X106.189 Y96.405 E0.95655
G1 X107.341 Y96.313 E1.02211
G1 X107.98 Y96.3 E1.05837
G1 X126.806 Y96.301 E2.12642
G1 X127.504 Y96.311 E2.16603
G1 X128.455 Y96.365 E2.22007
G1 X129.398 Y96.498 E2.27409
G1 X130.327 Y96.71 E2.32815
G1 X131.235 Y96.999 E2.38221
G1 X132.115 Y97.363 E2.43624
G1 X132.962 Y97.8 E2.49031
G1 X133.769 Y98.306 E2.54435
G1 X134.531 Y98.878 E2.5984
G1 X135.242 Y99.512 E2.65245
G1 X135.897 Y100.203 E2.70646
G1 X136.493 Y100.947 E2.76055
G1 X137.023 Y101.738 E2.81456
G1 X137.486 Y102.571 E2.86863
G1 X137.877 Y103.439 E2.92264
G1 X138.194 Y104.338 E2.97672
G1 X138.434 Y105.26 E3.03077
G1 X138.597 Y106.198 E3.08479
G1 X138.687 Y107.341 E3.14983
G1 X138.7 Y107.98 E3.18609
G1 X138.699 Y126.754 E4.25119
G1 X138.69 Y127.481 E4.29244
G1 X138.638 Y128.433 E4.34653
G1 X138.507 Y129.376 E4.40054
G1 X138.297 Y130.306 E4.45463
G1 X138.01 Y131.214 E4.50866
G1 X137.647 Y132.095 E4.56271
G1 X137.212 Y132.943 E4.61678
G1 X136.708 Y133.751 E4.67081
G1 X136.137 Y134.514 E4.72488
G1 X135.505 Y135.226 E4.77889
G1 X134.815 Y135.883 E4.83294
G1 X134.072 Y136.48 E4.88701
G1 X133.282 Y137.012 E4.94105
G1 X132.45 Y137.476 E4.99509
G1 X131.582 Y137.869 E5.04915
G1 X130.684 Y138.187 E5.1032
G1 X129.763 Y138.43 E5.15723
G1 X128.824 Y138.594 E5.21131
G1 X127.659 Y138.687 E5.27762
G1 X127.02 Y138.7 E5.31388
G1 X108.211 Y138.699 E6.38096
G1 X107.513 Y138.69 E6.42056
G1 X106.561 Y138.638 E6.47465
G1 X105.618 Y138.506 E6.52867
G1 X104.689 Y138.295 E6.58272
G1 X103.781 Y138.008 E6.63675
G1 X102.9 Y137.645 E6.6908
G1 X102.052 Y137.21 E6.74487
G1 X101.244 Y136.705 E6.79893
G1 X100.482 Y136.134 E6.85295
G1 X99.77 Y135.501 E6.907
G1 X99.113 Y134.81 E6.96109
G1 X98.517 Y134.067 E7.01513
G1 X97.985 Y133.277 E7.06917
G1 X97.521 Y132.445 E7.12321
G1 X97.129 Y131.577 E7.17724
G1 X96.811 Y130.679 E7.23129
G1 X96.569 Y129.757 E7.28537
G1 X96.406 Y128.819 E7.33938
G1 X96.313 Y127.648 E7.40603
G1 X96.3 Y127.008 E7.44234
G1 X96.301 Y108.17 E8.51107
M205 X5 Y5
G0 F7500 X96.841 Y108.178
M205 X8 Y8
G1 F1500 X96.85 Y107.513 E8.5488
G1 X96.903 Y106.584 E8.60159
G1 X97.035 Y105.664 E8.65432
G1 X97.245 Y104.759 E8.70703
G1 X97.533 Y103.875 E8.75977
G1 X97.896 Y103.018 E8.81258
G1 X98.331 Y102.197 E8.86529
G1 X98.834 Y101.415 E8.91804
G1 X99.404 Y100.68 E8.97081
G1 X100.034 Y99.997 E9.02352
G1 X100.72 Y99.37 E9.07625
G1 X101.458 Y98.804 E9.12901
G1 X102.242 Y98.304 E9.18176
G1 X103.066 Y97.873 E9.23452
G1 X103.924 Y97.515 E9.28726
G1 X104.809 Y97.231 E9.33999
G1 X105.716 Y97.025 E9.39276
G1 X106.637 Y96.897 E9.44551
G1 X107.356 Y96.853 E9.48638
G1 X107.98 Y96.84 E9.52179
G1 X126.643 Y96.84 E10.58059
G1 X127.496 Y96.851 E10.62899
G1 X128.424 Y96.904 E10.68172
G1 X129.344 Y97.037 E10.73446
G1 X130.25 Y97.249 E10.78725
G1 X131.133 Y97.537 E10.83994
G1 X131.989 Y97.9 E10.89269
G1 X132.811 Y98.336 E10.94548
G1 X133.592 Y98.84 E10.99821
G1 X134.326 Y99.41 E11.05093
G1 X135.009 Y100.041 E11.10369
G1 X135.636 Y100.728 E11.15646
G1 X136.201 Y101.466 E11.20918
G1 X136.7 Y102.251 E11.26196
G1 X137.13 Y103.075 E11.31469
G1 X137.488 Y103.933 E11.36743
G1 X137.771 Y104.819 E11.4202
G1 X137.976 Y105.725 E11.4729
G1 X138.103 Y106.646 E11.52564
G1 X138.147 Y107.356 E11.566
G1 X138.16 Y107.98 E11.60141
G1 X138.159 Y126.748 E12.66617
G1 X138.15 Y127.475 E12.70741
G1 X138.099 Y128.403 E12.76014
G1 X137.968 Y129.324 E12.81292
G1 X137.758 Y130.229 E12.86563
G1 X137.471 Y131.114 E12.91841
G1 X137.11 Y131.97 E12.97111
G1 X136.676 Y132.793 E13.0239
G1 X136.173 Y133.574 E13.0766
G1 X135.604 Y134.31 E13.12938
G1 X134.975 Y134.995 E13.18214
G1 X134.289 Y135.622 E13.23486
G1 X133.552 Y136.189 E13.28762
G1 X132.769 Y136.69 E13.34036
G1 X131.945 Y137.121 E13.39311
G1 X131.088 Y137.481 E13.44585
G1 X130.203 Y137.765 E13.49858
G1 X129.296 Y137.973 E13.55137
G1 X128.376 Y138.101 E13.60407
G1 X127.644 Y138.147 E13.64568
G1 X127.02 Y138.16 E13.68109
G1 X108.218 Y138.159 E14.74777
G1 X107.52 Y138.15 E14.78738
G1 X106.591 Y138.098 E14.84016
G1 X105.671 Y137.967 E14.89288
G1 X104.765 Y137.756 E14.94566
G1 X103.881 Y137.469 E14.99839
G1 X103.025 Y137.107 E15.05111
G1 X102.203 Y136.673 E15.10385
G1 X101.421 Y136.17 E15.1566
G1 X100.685 Y135.601 E15.20938
G1 X100.001 Y134.971 E15.26213
G1 X99.374 Y134.285 E15.31486
G1 X98.808 Y133.547 E15.36762
G1 X98.308 Y132.764 E15.42033
G1 X97.876 Y131.94 E15.47311
G1 X97.517 Y131.083 E15.52583
G1 X97.233 Y130.197 E15.57861
G1 X97.026 Y129.291 E15.63134
G1 X96.898 Y128.37 E15.68409
G1 X96.853 Y127.633 E15.72598
G1 X96.84 Y127.008 E15.76144
G1 X96.841 Y108.178 E16.82972
M205 X5 Y5
G0 F7500 X97.381 Y108.185
M205 X8 Y8
G1 F1500 X97.39 Y107.52 E16.86745
G1 X97.442 Y106.615 E16.91888
G1 X97.574 Y105.719 E16.97026
G1 X97.784 Y104.837 E17.0217
G1 X98.071 Y103.978 E17.07308
G1 X98.433 Y103.147 E17.1245
G1 X98.867 Y102.351 E17.17594
G1 X99.369 Y101.597 E17.22733
G1 X99.936 Y100.89 E17.27874
G1 X100.562 Y100.235 E17.33014
G1 X101.245 Y99.639 E17.38157
G1 X101.976 Y99.104 E17.43296
G1 X102.753 Y98.637 E17.48439
G1 X103.567 Y98.239 E17.5358
G1 X104.413 Y97.915 E17.58719
G1 X105.285 Y97.667 E17.63863
G1 X106.175 Y97.497 E17.69003
G1 X107.371 Y97.393 E17.75814
G1 X107.98 Y97.38 E17.7927
G1 X126.643 Y97.38 E18.8515
G1 X127.488 Y97.391 E18.89944
G1 X128.393 Y97.444 E18.95087
G1 X129.289 Y97.576 E19.00225
G1 X130.171 Y97.787 E19.0537
G1 X131.03 Y98.075 E19.1051
G1 X131.86 Y98.438 E19.1565
G1 X132.656 Y98.872 E19.20793
G1 X133.41 Y99.375 E19.25935
G1 X134.116 Y99.942 E19.31073
G1 X134.77 Y100.569 E19.36213
G1 X135.367 Y101.252 E19.41359
G1 X135.9 Y101.984 E19.46496
G1 X136.367 Y102.761 E19.51639
G1 X136.764 Y103.576 E19.56782
G1 X137.087 Y104.422 E19.6192
G1 X137.335 Y105.294 E19.67063
G1 X137.504 Y106.184 E19.72202
G1 X137.607 Y107.371 E19.78962
G1 X137.62 Y107.98 E19.82418
G1 X137.619 Y126.741 E20.88854
G1 X137.61 Y127.468 E20.92979
G1 X137.559 Y128.373 E20.98121
G1 X137.428 Y129.27 E21.03264
G1 X137.219 Y130.151 E21.08401
G1 X136.933 Y131.011 E21.13543
G1 X136.572 Y131.842 E21.18683
G1 X136.139 Y132.639 E21.23829
G1 X135.638 Y133.394 E21.28969
G1 X135.072 Y134.101 E21.34107
G1 X134.446 Y134.757 E21.39251
G1 X133.765 Y135.354 E21.44389
G1 X133.033 Y135.889 E21.49533
G1 X132.258 Y136.358 E21.54672
G1 X131.444 Y136.756 E21.59813
G1 X130.598 Y137.081 E21.64954
G1 X129.727 Y137.33 E21.70094
G1 X128.837 Y137.502 E21.75236
G1 X127.629 Y137.607 E21.82115
G1 X127.02 Y137.62 E21.85571
G1 X108.225 Y137.619 E22.922
G1 X107.527 Y137.61 E22.9616
G1 X106.622 Y137.558 E23.01303
G1 X105.725 Y137.427 E23.06446
G1 X104.844 Y137.218 E23.11583
G1 X103.984 Y136.931 E23.16727
G1 X103.153 Y136.57 E23.21867
G1 X102.357 Y136.136 E23.2701
G1 X101.602 Y135.635 E23.32151
G1 X100.895 Y135.069 E23.37289
G1 X100.24 Y134.442 E23.42433
G1 X99.643 Y133.761 E23.47571
G1 X99.108 Y133.029 E23.52715
G1 X98.64 Y132.253 E23.57856
G1 X98.242 Y131.439 E23.62996
G1 X97.917 Y130.593 E23.68138
G1 X97.669 Y129.721 E23.73281
G1 X97.498 Y128.831 E23.78423
G1 X97.393 Y127.618 E23.8533
G1 X97.38 Y127.008 E23.88791
G1 X97.381 Y108.185 E24.95579
M205 X5 Y5
G1 F2700 E18.95579
;MESH:chep.stl
G0 F7500 X106.985 Y108.185
G0 X108.095 Y108.185
G0 X108.575 Y108.49
G1 F2700 E24.95579
G0 F7500 X108.49 Y108.49
M205 X8 Y8
;TYPE:WALL-INNER
G1 F1500 X108.49 Y126.51 E26.09171
G1 X126.51 Y126.51 E27.22762
G1 X126.51 Y108.49 E28.36353
G1 X108.49 Y108.49 E29.49945
M205 X5 Y5
G0 F7500 X107.92 Y107.92
M205 X8 Y8
;TYPE:WALL-OUTER
G1 F1500 X107.92 Y127.08 E30.58644
G1 X127.08 Y127.08 E31.67344
G1 X127.08 Y107.92 E32.76044
G1 X107.92 Y107.92 E33.84744
M205 X5 Y5
G0 F7500 X107.92 Y108.12
G0 X108.545 Y108.545
G0 X108.69 Y108.917
G0 X108.917 Y108.917
M205 X8 Y8
;TYPE:SKIN
G1 F1500 X108.917 Y126.083 E34.82131
G1 X126.083 Y126.083 E35.79518
G1 X126.083 Y108.917 E36.76905
G1 X108.917 Y108.917 E37.74293
M205 X5 Y5
G0 F7500 X108.69 Y108.917
G0 X126.238 Y108.762
G0 X126.31 Y109.775
G0 X125.812 Y109.775
M205 X8 Y8
G1 F1500 X125.224 Y109.187 E37.7901
M205 X5 Y5
G0 F7500 X124.46 Y109.187
M205 X8 Y8
G1 F1500 X125.812 Y110.539 E37.89858
M205 X5 Y5
G0 F7500 X125.812 Y111.302
M205 X8 Y8
G1 F1500 X123.697 Y109.187 E38.06827
M205 X5 Y5
G0 F7500 X122.933 Y109.187
M205 X8 Y8
G1 F1500 X125.812 Y112.066 E38.29926
M205 X5 Y5
G0 F7500 X125.812 Y112.83
M205 X8 Y8
G1 F1500 X122.169 Y109.187 E38.59154
M205 X5 Y5
G0 F7500 X121.405 Y109.187
M205 X8 Y8
G1 F1500 X125.812 Y113.593 E38.94508
M205 X5 Y5
G0 F7500 X125.812 Y114.357
M205 X8 Y8
G1 F1500 X120.642 Y109.187 E39.35988
M205 X5 Y5
G0 F7500 X119.878 Y109.187
M205 X8 Y8
G1 F1500 X125.812 Y115.121 E39.83598
M205 X5 Y5
G0 F7500 X125.812 Y115.884
M205 X8 Y8
G1 F1500 X119.114 Y109.187 E40.37334
M205 X5 Y5
G0 F7500 X118.351 Y109.187
M205 X8 Y8
G1 F1500 X125.812 Y116.648 E40.97195
M205 X5 Y5
G0 F7500 X125.812 Y117.412
M205 X8 Y8
G1 F1500 X117.587 Y109.187 E41.63186
M205 X5 Y5
G0 F7500 X116.823 Y109.187
M205 X8 Y8
G1 F1500 X125.812 Y118.175 E42.35302
M205 X5 Y5
G0 F7500 X125.812 Y118.939
M205 X8 Y8
G1 F1500 X116.06 Y109.187 E43.13545
M205 X5 Y5
G0 F7500 X115.296 Y109.187
M205 X8 Y8
G1 F1500 X125.812 Y119.703 E43.97917
M205 X5 Y5
G0 F7500 X125.812 Y120.466
M205 X8 Y8
G1 F1500 X114.532 Y109.187 E44.88414
M205 X5 Y5
G0 F7500 X113.769 Y109.187
M205 X8 Y8
G1 F1500 X125.812 Y121.23 E45.85038
M205 X5 Y5
G0 F7500 X125.812 Y121.994
M205 X8 Y8
G1 F1500 X113.005 Y109.187 E46.87791
M205 X5 Y5
G0 F7500 X112.241 Y109.187
M205 X8 Y8
G1 F1500 X125.812 Y122.757 E47.9667
M205 X5 Y5
G0 F7500 X125.812 Y123.521
M205 X8 Y8
G1 F1500 X111.478 Y109.187 E49.11675
M205 X5 Y5
G0 F7500 X110.714 Y109.187
M205 X8 Y8
G1 F1500 X125.812 Y124.285 E50.32809
M205 X5 Y5
G0 F7500 X125.812 Y125.049
M205 X8 Y8
G1 F1500 X109.95 Y109.187 E51.60073
M205 X5 Y5
G0 F7500 X109.186 Y109.186
M205 X8 Y8
G1 F1500 X125.812 Y125.812 E52.93467
M205 X5 Y5
G0 F7500 X125.049 Y125.812
M205 X8 Y8
G1 F1500 X109.186 Y109.95 E54.20735
M205 X5 Y5
G0 F7500 X109.186 Y110.713
M205 X8 Y8
G1 F1500 X124.285 Y125.812 E55.41878
M205 X5 Y5
G0 F7500 X123.521 Y125.812
M205 X8 Y8
G1 F1500 X109.186 Y111.477 E56.5689
M205 X5 Y5
G0 F7500 X109.186 Y112.241
M205 X8 Y8
G1 F1500 X122.757 Y125.812 E57.65773
M205 X5 Y5
G0 F7500 X121.994 Y125.812
M205 X8 Y8
G1 F1500 X109.186 Y113.004 E58.68534
M205 X5 Y5
G0 F7500 X109.186 Y113.768
M205 X8 Y8
G1 F1500 X121.23 Y125.812 E59.65166
M205 X5 Y5
G0 F7500 X120.466 Y125.812
M205 X8 Y8
G1 F1500 X109.186 Y114.532 E60.55668
M205 X5 Y5
G0 F7500 X109.186 Y115.295
M205 X8 Y8
G1 F1500 X119.703 Y125.812 E61.40048
M205 X5 Y5
G0 F7500 X118.939 Y125.812
M205 X8 Y8
G1 F1500 X109.186 Y116.059 E62.18298
M205 X5 Y5
G0 F7500 X109.186 Y116.823
M205 X8 Y8
G1 F1500 X118.175 Y125.812 E62.90419
M205 X5 Y5
G0 F7500 X117.412 Y125.812
M205 X8 Y8
G1 F1500 X109.186 Y117.586 E63.56418
M205 X5 Y5
G0 F7500 X109.186 Y118.35
M205 X8 Y8
G1 F1500 X116.648 Y125.812 E64.16287
M205 X5 Y5
G0 F7500 X115.884 Y125.812
M205 X8 Y8
G1 F1500 X109.186 Y119.114 E64.70026
M205 X5 Y5
G0 F7500 X109.186 Y119.877
M205 X8 Y8
G1 F1500 X115.121 Y125.812 E65.17644
M205 X5 Y5
G0 F7500 X114.357 Y125.812
M205 X8 Y8
G1 F1500 X109.186 Y120.641 E65.59132
M205 X5 Y5
G0 F7500 X109.186 Y121.405
M205 X8 Y8
G1 F1500 X113.593 Y125.812 E65.9449
M205 X5 Y5
G0 F7500 X112.83 Y125.812
M205 X8 Y8
G1 F1500 X109.186 Y122.168 E66.23727
M205 X5 Y5
G0 F7500 X109.186 Y122.932
M205 X8 Y8
G1 F1500 X112.066 Y125.812 E66.46834
M205 X5 Y5
G0 F7500 X111.302 Y125.812
M205 X8 Y8
G1 F1500 X109.186 Y123.696 E66.63811
M205 X5 Y5
G0 F7500 X109.186 Y124.459
M205 X8 Y8
G1 F1500 X110.539 Y125.812 E66.74666
M205 X5 Y5
G0 F7500 X109.775 Y125.812
M205 X8 Y8
G1 F1500 X109.186 Y125.223 E66.79392
M205 X5 Y5
;MESH:NONMESH
G0 F600 X109.186 Y125.223 Z0.56
G0 F7500 X108.69 Y125.223
G0 X108.545 Y108.545
G0 X108.2 Y108.2
;TIME_ELAPSED:58.451558
;LAYER:1
M117 Printing CE3_chep - Layer 2 of 71
M205 X14 Y14
;TYPE:WALL-INNER
;MESH:chep.stl
G1 F2700 X108.2 Y117.5 E67.30816
G1 X108.2 Y126.8 E67.8224
G1 X126.8 Y126.8 E68.85089
G1 X126.8 Y108.2 E69.87938
G1 X108.2 Y108.2 E70.90786
M205 X12.5 Y12.5
G0 F8250 X107.725 Y107.725
M205 X14 Y14
;TYPE:WALL-OUTER
G1 F2250 X107.725 Y117.5 E71.39432
G1 X107.725 Y127.275 E71.88078
G1 X127.275 Y127.275 E72.85369
G1 X127.275 Y107.725 E73.82661
G1 X107.725 Y107.725 E74.79952
M205 X12.5 Y12.5
G0 F8250 X107.725 Y107.925
G0 X108.395 Y108.395
G0 X108.532 Y108.532
M205 X14 Y14
;TYPE:SKIN
G1 F2100 X108.532 Y126.468 E75.69212
G1 X126.468 Y126.468 E76.58471
G1 X126.468 Y108.532 E77.47731
G1 X108.532 Y108.532 E78.3699
M205 X12.5 Y12.5
G0 F8250 X108.89 Y108.756
M205 X14 Y14
G1 F2100 X108.757 Y108.89 E78.37929
M205 X12.5 Y12.5
G0 F8250 X108.757 Y109.526
M205 X14 Y14
G1 F2100 X109.527 Y108.756 E78.43349
M205 X12.5 Y12.5
G0 F8250 X110.163 Y108.756
M205 X14 Y14
G1 F2100 X108.757 Y110.162 E78.53244
M205 X12.5 Y12.5
G0 F8250 X108.757 Y110.799
M205 X14 Y14
G1 F2100 X110.8 Y108.756 E78.67622
M205 X12.5 Y12.5
G0 F8250 X111.436 Y108.756
M205 X14 Y14
G1 F2100 X108.757 Y111.435 E78.86477
M205 X12.5 Y12.5
G0 F8250 X108.757 Y112.072
M205 X14 Y14
G1 F2100 X112.072 Y108.756 E79.09811
M205 X12.5 Y12.5
G0 F8250 X112.709 Y108.756
M205 X14 Y14
G1 F2100 X108.757 Y112.708 E79.37625
M205 X12.5 Y12.5
G0 F8250 X108.757 Y113.344
M205 X14 Y14
G1 F2100 X113.345 Y108.756 E79.69915
M205 X12.5 Y12.5
G0 F8250 X113.982 Y108.756
M205 X14 Y14
G1 F2100 X108.757 Y113.981 E80.06688
M205 X12.5 Y12.5
G0 F8250 X108.757 Y114.617
M205 X14 Y14
G1 F2100 X114.618 Y108.756 E80.47937
M205 X12.5 Y12.5
G0 F8250 X115.254 Y108.756
M205 X14 Y14
G1 F2100 X108.757 Y115.254 E80.93666
M205 X12.5 Y12.5
G0 F8250 X108.757 Y115.89
M205 X14 Y14
G1 F2100 X115.891 Y108.756 E81.43874
M205 X12.5 Y12.5
G0 F8250 X116.527 Y108.756
M205 X14 Y14
G1 F2100 X108.757 Y116.526 E81.98559
M205 X12.5 Y12.5
G0 F8250 X108.757 Y117.163
M205 X14 Y14
G1 F2100 X117.164 Y108.756 E82.57726
M205 X12.5 Y12.5
G0 F8250 X117.8 Y108.756
M205 X14 Y14
G1 F2100 X108.757 Y117.799 E83.2137
M205 X12.5 Y12.5
G0 F8250 X108.757 Y118.436
M205 X14 Y14
G1 F2100 X118.436 Y108.756 E83.89493
M205 X12.5 Y12.5
