; generated by PrusaSlicer 2.5.0+MacOS-x64 on 2022-11-01 at 23:38:52 UTC

; 

; external perimeters extrusion width = 0.42mm
; perimeters extrusion width = 0.44mm
; infill extrusion width = 0.44mm
; solid infill extrusion width = 0.44mm
; top infill extrusion width = 0.40mm
; first layer extrusion width = 0.42mm

M107
;TYPE:Custom
G90 ; use absolute coordinates
M83 ; extruder relative mode
M140 S60 ; set final bed temp
M104 S150 ; set temporary nozzle temp to prevent oozing during homing
G4 S10 ; allow partial nozzle warmup
G28 ; home all axis
G1 Z50 F240
G1 X2 Y10 F3000
M104 S210 ; set final nozzle temp
M190 S60 ; wait for bed temp to stabilize
M109 S210 ; wait for nozzle temp to stabilize
G1 Z0.28 F240
G92 E0
G1 Y140 E10 F1500 ; prime the nozzle
G1 X2.3 F5000
G92 E0
G1 Y10 E10 F1200 ; prime the nozzle
G92 E0
G21 ; set units to millimeters
G90 ; use absolute coordinates
M83 ; use relative distances for extrusion
; Filament gcode
M107
;LAYER_CHANGE
;Z:0.2
;HEIGHT:0.2
;BEFORE_LAYER_CHANGE
G92 E0
;0.2


G1 E-5 F3600
G1 Z.2 F9000
;AFTER_LAYER_CHANGE
;0.2
G1 X28.675 Y28.675
G1 E5 F2400
M204 S500
;TYPE:Skirt/Brim
;WIDTH:0.42
G1 F1200
G1 X45.284 Y12.066 E.73646
G1 X47.634 Y10.152 E.09504
G1 X50.281 Y8.48 E.09817
G1 X53.02 Y7.182 E.09503
G1 X55.893 Y6.217 E.09504
G1 X58.014 Y5.738 E.06816
G1 X59.513 Y5.511 E.04754
G1 X62.538 Y5.325 E.09504
G1 X157.462 Y5.325 E2.97626
G1 X159.733 Y5.431 E.0713
G1 X161.986 Y5.738 E.07129
G1 X164.203 Y6.243 E.07129
G1 X166.367 Y6.944 E.0713
G1 X168.459 Y7.833 E.0713
G1 X170.464 Y8.906 E.0713
G1 X172.366 Y10.152 E.0713
G1 X174.15 Y11.561 E.0713
G1 X175.267 Y12.587 E.04754
G1 X197.938 Y35.258 E1.00528
G1 X198.964 Y36.375 E.04754
G1 X200.432 Y38.24 E.07443
G1 X202.045 Y40.807 E.09504
G1 X203.343 Y43.545 E.09503
G1 X204.282 Y46.322 E.09191
G1 X204.927 Y49.386 E.09817
G1 X205.107 Y50.936 E.04892
G1 X205.2 Y53.064 E.06679
G1 X205.2 Y157.462 E3.27333
G1 X205.015 Y160.487 E.09504
G1 X204.496 Y163.372 E.09191
G1 X203.837 Y165.652 E.07443
G1 X202.692 Y168.459 E.09504
G1 X201.975 Y169.845 E.04891
G1 X200.864 Y171.662 E.06679
G1 X198.964 Y174.15 E.09817
G1 X164.789 Y211.406 E1.58516
G1 X163.94 Y212.225 E.03699
G1 X162.784 Y213.084 E.04514
G1 X161.683 Y213.694 E.03949
G1 X160.342 Y214.218 E.04514
G1 X158.763 Y214.575 E.05076
G1 X157.507 Y214.675 E.03949
G1 X62.323 Y214.675 E2.98442
G1 X61.246 Y214.598 E.03386
G1 X60.183 Y214.408 E.03386
G1 X59.147 Y214.105 E.03386
G1 X58.148 Y213.694 E.03386
G1 X56.599 Y212.781 E.05638
G1 X55.755 Y212.107 E.03386
G1 X55.036 Y211.4 E.03162
G1 X20.971 Y174.075 E1.58444
G1 X19.136 Y171.662 E.09504
G1 X17.6 Y169.049 E.09504
G1 X16.383 Y166.273 E.09504
G1 X15.504 Y163.372 E.09503
G1 X14.973 Y160.388 E.09504
G1 X14.799 Y157.412 E.09347
G1 X14.81 Y52.406 E3.29239
G1 X14.985 Y50.038 E.07443
G1 X15.504 Y47.153 E.09191
G1 X16.163 Y44.873 E.07443
G1 X17.308 Y42.066 E.09504
G1 X18.329 Y40.147 E.06816
G1 X19.192 Y38.781 E.05067
G1 X20.485 Y37.033 E.06816
G1 X21.541 Y35.809 E.05068
G1 X28.632 Y28.717 E.31446
G1 E-3.5 F3600
;WIPE_START
G1 F7200
G1 X30.754 Y26.596 E-1.425
;WIPE_END
G1 E-.075 F3600
G1 X41.085 Y31.752 F9000
G1 E5 F2400
;TYPE:Perimeter
;WIDTH:0.419999
G1 F1200
G1 X41.157 Y31.706 E.00266
G1 X41.366 Y31.405 E.01149
G1 X41.445 Y31.042 E.01166
G1 X41.456 Y30.288 E.02361
G1 X41.531 Y29.031 E.03951
G1 X41.68 Y27.779 E.03951
G1 X41.779 Y27.175 E.0192
G1 X42.038 Y25.942 E.03951
G1 X42.371 Y24.727 E.03951
G1 X42.558 Y24.144 E.0192
G1 X42.999 Y22.956 E.03973
G1 X43.238 Y22.392 E.0192
G1 X43.78 Y21.254 E.03951
G1 X44.385 Y20.157 E.03929
G1 X45.054 Y19.097 E.03929
G1 X45.788 Y18.074 E.03951
G1 X46.167 Y17.592 E.0192
G1 X46.99 Y16.638 E.03951
G1 X47.862 Y15.739 E.03929
G1 X48.787 Y14.893 E.03929
G1 X49.765 Y14.099 E.03951
G1 X50.257 Y13.735 E.0192
G1 X51.303 Y13.031 E.03951
G1 X52.388 Y12.39 E.03951
G1 X52.928 Y12.102 E.0192
G1 X54.072 Y11.557 E.03973
G1 X55.259 Y11.078 E.04013
G1 X56.414 Y10.688 E.03821
G1 X57.622 Y10.358 E.03929
G1 X58.849 Y10.1 E.03929
G1 X60.095 Y9.914 E.03951
G1 X60.704 Y9.851 E.0192
G1 X61.968 Y9.776 E.03971
G1 X62.622 Y9.767 E.02052
G1 X63.848 Y9.804 E.03843
G1 X64.465 Y9.85 E.0194
G1 X65.123 Y9.919 E.02074
G1 X66.335 Y10.101 E.03843
G1 X66.936 Y10.218 E.01921
G1 X68.161 Y10.514 E.03951
G1 X69.365 Y10.882 E.03948
G1 X69.982 Y11.102 E.02052
G1 X71.111 Y11.56 E.03821
G1 X72.248 Y12.102 E.03952
G1 X72.789 Y12.39 E.0192
G1 X73.88 Y13.034 E.03973
G1 X74.393 Y13.369 E.0192
G1 X75.417 Y14.104 E.03951
G1 X76.39 Y14.893 E.03929
G1 X77.314 Y15.739 E.03929
G1 X78.187 Y16.638 E.03929
G1 X79.005 Y17.587 E.03929
G1 X79.765 Y18.583 E.03928
G1 X80.465 Y19.622 E.03929
G1 X81.102 Y20.701 E.03928
G1 X81.675 Y21.816 E.03929
G1 X82.18 Y22.962 E.03928
G1 X82.616 Y24.137 E.03929
G1 X82.982 Y25.335 E.03929
G1 X83.276 Y26.553 E.03929
G1 X83.498 Y27.786 E.03929
G1 X83.646 Y29.031 E.03928
G1 X83.721 Y30.288 E.03951
G1 X83.732 Y31.042 E.02361
G1 X83.8 Y31.379 E.0108
G1 X83.996 Y31.682 E.01132
G1 X84.297 Y31.891 E.01149
G1 X84.66 Y31.97 E.01166
G1 X85.414 Y31.981 E.02361
G1 X86.679 Y32.056 E.03973
G1 X87.288 Y32.12 E.0192
G1 X88.534 Y32.306 E.03951
G1 X89.76 Y32.564 E.03929
G1 X90.969 Y32.894 E.03929
G1 X92.162 Y33.298 E.03951
G1 X93.31 Y33.763 E.03884
G1 X94.448 Y34.305 E.03951
G1 X95.545 Y34.91 E.03929
G1 X96.605 Y35.579 E.03929
G1 X97.623 Y36.309 E.03929
G1 X98.6 Y37.103 E.03948
G1 X99.089 Y37.538 E.02052
G1 X99.963 Y38.388 E.03821
G1 X100.814 Y39.318 E.03952
G1 X101.206 Y39.787 E.0192
G1 X101.971 Y40.789 E.03951
G1 X102.671 Y41.828 E.03929
G1 X103.312 Y42.913 E.03951
G1 X103.603 Y43.46 E.01942
G1 X103.878 Y44.015 E.01942
G1 X104.386 Y45.168 E.03951
G1 X104.824 Y46.35 E.03951
G1 X105.012 Y46.932 E.0192
G1 X105.346 Y48.154 E.03971
G1 X105.489 Y48.793 E.02052
G1 X105.704 Y49.992 E.03821
G1 X105.852 Y51.236 E.03929
G1 X105.927 Y52.494 E.03951
G1 X105.927 Y53.733 E.03884
G1 X105.852 Y54.99 E.03949
G1 X105.697 Y56.276 E.04061
G1 X105.481 Y57.475 E.0382
G1 X105.178 Y58.719 E.04014
G1 X104.822 Y59.884 E.03821
G1 X104.383 Y61.066 E.03952
G1 X103.884 Y62.2 E.03884
G1 X103.308 Y63.321 E.03951
G1 X102.668 Y64.406 E.03951
G1 X101.976 Y65.433 E.03884
G1 X101.211 Y66.435 E.03951
G1 X100.393 Y67.384 E.03929
G1 X99.52 Y68.283 E.03929
G1 X98.596 Y69.128 E.03929
G1 X97.623 Y69.918 E.03929
G1 X96.599 Y70.653 E.03951
G1 X96.086 Y70.987 E.0192
G1 X95.001 Y71.628 E.03951
G1 X93.886 Y72.2 E.03929
G1 X92.74 Y72.705 E.03928
G1 X91.565 Y73.141 E.03929
G1 X90.367 Y73.507 E.03928
G1 X89.149 Y73.802 E.03929
G1 X87.916 Y74.023 E.03929
G1 X86.671 Y74.171 E.03928
G1 X85.414 Y74.246 E.03951
G1 X84.661 Y74.257 E.02361
G1 X84.323 Y74.325 E.0108
G1 X84.02 Y74.521 E.01132
G1 X83.813 Y74.817 E.0113
G1 X83.732 Y75.173 E.01146
G1 X83.693 Y76.561 E.04353
G1 X83.583 Y77.804 E.03913
G1 X83.503 Y78.405 E.01902
G1 X83.285 Y79.635 E.03915
G1 X82.994 Y80.849 E.03915
G1 X82.825 Y81.438 E.01921
G1 X82.625 Y82.062 E.02055
G1 X82.208 Y83.195 E.03785
G1 X81.709 Y84.34 E.03915
G1 X81.442 Y84.885 E.01902
G1 X80.841 Y85.987 E.03937
G1 X80.528 Y86.506 E.01902
G1 X79.832 Y87.552 E.03937
G1 X79.474 Y88.041 E.01902
G1 X78.693 Y89.016 E.03914
G1 X77.862 Y89.937 E.03892
G1 X76.977 Y90.809 E.03892
G1 X76.043 Y91.626 E.03892
G1 X75.063 Y92.388 E.03892
G1 X74.04 Y93.091 E.03892
G1 X72.977 Y93.732 E.03892
G1 X71.491 Y94.518 E.05272
G1 X70.849 Y94.94 E.02408
G1 X70.298 Y95.397 E.02244
G1 X69.496 Y96.296 E.03777
G1 X69.063 Y96.963 E.02494
G1 X68.817 Y97.486 E.01812
G1 X68.548 Y98.135 E.02203
G1 X68.357 Y98.833 E.02269
G1 X68.248 Y99.492 E.02093
G1 X68.201 Y100.515 E.03213
G1 X68.134 Y101.141 E.01972
G1 X68.006 Y101.734 E.01904
G1 X67.819 Y102.299 E.01865
G1 X67.411 Y103.139 E.02931
G1 X67.082 Y103.635 E.01864
G1 X66.694 Y104.102 E.01903
G1 X66.259 Y104.526 E.01904
G1 X65.782 Y104.901 E.01903
G1 X65.267 Y105.223 E.01904
G1 X64.721 Y105.488 E.01904
G1 X64.15 Y105.694 E.01903
G1 X63.56 Y105.838 E.01904
G1 X62.959 Y105.919 E.01904
G1 X62.352 Y105.935 E.01903
G1 X61.747 Y105.886 E.01904
G1 X61.15 Y105.774 E.01904
G1 X60.569 Y105.599 E.01904
G1 X60.021 Y105.367 E.01865
G1 X59.215 Y104.893 E.02931
G1 X58.748 Y104.526 E.01864
G1 X58.313 Y104.102 E.01904
G1 X57.925 Y103.635 E.01904
G1 X57.59 Y103.129 E.01903
G1 X57.31 Y102.59 E.01904
G1 X57.089 Y102.025 E.01903
G1 X56.949 Y101.512 E.01666
G1 X56.871 Y100.993 E.01645
G1 X56.802 Y100.3 E.02184
G1 X56.779 Y99.644 E.02057
G1 X56.676 Y98.941 E.0223
G1 X56.536 Y98.305 E.02039
G1 X56.329 Y97.699 E.02008
G1 X55.887 Y96.778 E.03204
G1 X55.418 Y96.093 E.02603
G1 X54.964 Y95.565 E.02185
G1 X54.38 Y95.031 E.02479
G1 X53.482 Y94.414 E.03418
G1 X52.081 Y93.665 E.04981
G1 X51.029 Y93.021 E.03869
G1 X50.016 Y92.316 E.03869
G1 X49.046 Y91.554 E.03868
G1 X48.116 Y90.731 E.03891
G1 X47.683 Y90.312 E.0189
G1 X46.829 Y89.412 E.03891
G1 X46.034 Y88.469 E.03869
G1 X45.291 Y87.475 E.03891
G1 X44.951 Y86.977 E.0189
G1 X44.298 Y85.922 E.03891
G1 X43.71 Y84.837 E.03869
G1 X43.184 Y83.713 E.03891
G1 X42.95 Y83.15 E.01913
G1 X42.733 Y82.58 E.01912
G1 X42.341 Y81.402 E.03891
G1 X42.021 Y80.211 E.03869
G1 X41.769 Y78.996 E.03891
G1 X41.591 Y77.789 E.03824
G1 X41.483 Y76.553 E.03889
G1 X41.444 Y75.173 E.04329
G1 X41.374 Y74.842 E.01061
G1 X41.18 Y74.545 E.01112
G1 X40.879 Y74.336 E.01148
G1 X40.516 Y74.257 E.01166
G1 X39.763 Y74.246 E.02361
G1 X38.505 Y74.171 E.03951
G1 X37.261 Y74.023 E.03928
G1 X36.028 Y73.802 E.03929
G1 X34.81 Y73.507 E.03929
G1 X33.612 Y73.141 E.03928
G1 X32.437 Y72.705 E.03929
G1 X31.284 Y72.197 E.03951
G1 X30.735 Y71.926 E.0192
G1 X29.631 Y71.317 E.03951
G1 X28.572 Y70.648 E.03929
G1 X27.554 Y69.918 E.03929
G1 X26.581 Y69.128 E.03929
G1 X25.656 Y68.283 E.03929
G1 X24.784 Y67.384 E.03929
G1 X23.966 Y66.435 E.03929
G1 X23.201 Y65.433 E.03951
G1 X22.852 Y64.93 E.0192
G1 X22.175 Y63.859 E.03973
G1 X21.872 Y63.327 E.0192
G1 X21.293 Y62.2 E.03973
G1 X21.035 Y61.636 E.01942
G1 X20.793 Y61.066 E.01942
G1 X20.355 Y59.885 E.03951
G1 X19.987 Y58.679 E.03951
G1 X19.688 Y57.435 E.04013
G1 X19.473 Y56.235 E.03821
G1 X19.325 Y54.991 E.03929
G1 X19.25 Y53.733 E.03951
G1 X19.25 Y52.494 E.03884
G1 X19.325 Y51.237 E.03949
G1 X19.48 Y49.951 E.04061
G1 X19.696 Y48.752 E.0382
G1 X19.998 Y47.508 E.04014
G1 X20.356 Y46.337 E.0384
G1 X20.576 Y45.72 E.02053
G1 X21.038 Y44.585 E.03843
G1 X21.293 Y44.028 E.01921
G1 X21.868 Y42.907 E.03951
G1 X22.509 Y41.822 E.03951
G1 X22.844 Y41.309 E.0192
G1 X23.578 Y40.285 E.03951
G1 X24.368 Y39.312 E.03929
G1 X25.213 Y38.388 E.03929
G1 X26.112 Y37.515 E.03928
G1 X27.062 Y36.697 E.03929
G1 X28.057 Y35.937 E.03928
G1 X29.097 Y35.237 E.03929
G1 X30.176 Y34.6 E.03928
G1 X31.29 Y34.027 E.03929
G1 X32.437 Y33.522 E.03928
G1 X33.612 Y33.086 E.03929
G1 X34.81 Y32.72 E.03929
G1 X36.028 Y32.426 E.03928
G1 X37.261 Y32.204 E.03929
G1 X38.505 Y32.056 E.03928
G1 X39.763 Y31.981 E.03951
G1 X40.516 Y31.97 E.02361
G1 X40.854 Y31.902 E.0108
G1 X41.035 Y31.785 E.00678
G1 X40.865 Y31.441 F9000
G1 F1200
G1 X40.992 Y31.311 E.0057
G1 X41.068 Y31.036 E.00893
G1 X41.079 Y30.275 E.02388
G1 X41.155 Y28.997 E.04012
G1 X41.306 Y27.726 E.04012
G1 X41.408 Y27.106 E.01972
G1 X41.672 Y25.853 E.04013
G1 X42.009 Y24.619 E.04012
G1 X42.202 Y24.02 E.01972
G1 X42.649 Y22.817 E.04026
G1 X42.894 Y22.237 E.01973
G1 X43.444 Y21.082 E.04012
G1 X44.06 Y19.965 E.03999
G1 X44.741 Y18.887 E.03999
G1 X45.487 Y17.847 E.04012
G1 X45.876 Y17.353 E.01972
G1 X46.711 Y16.383 E.04012
G1 X47.6 Y15.468 E.03999
G1 X48.541 Y14.607 E.03999
G1 X49.534 Y13.801 E.04012
G1 X50.04 Y13.427 E.01972
G1 X51.101 Y12.712 E.04013
G1 X52.203 Y12.061 E.04012
G1 X52.758 Y11.766 E.01972
G1 X53.918 Y11.213 E.04026
G1 X55.131 Y10.723 E.04102
G1 X56.304 Y10.328 E.03881
G1 X57.534 Y9.991 E.03999
G1 X58.782 Y9.729 E.03999
G1 X60.048 Y9.54 E.04012
G1 X60.673 Y9.475 E.01972
G1 X61.954 Y9.399 E.04024
G1 X62.626 Y9.39 E.02105
G1 X63.867 Y9.427 E.03895
G1 X64.499 Y9.474 E.01985
G1 X65.17 Y9.545 E.02118
G1 X66.399 Y9.729 E.03895
G1 X67.016 Y9.85 E.01973
G1 X68.26 Y10.15 E.04012
G1 X69.484 Y10.524 E.04011
G1 X70.116 Y10.749 E.02105
G1 X71.263 Y11.215 E.03881
G1 X72.418 Y11.766 E.04013
G1 X72.973 Y12.061 E.01972
G1 X74.079 Y12.714 E.04026
G1 X74.606 Y13.058 E.01973
G1 X75.646 Y13.804 E.04012
G1 X76.636 Y14.607 E.03999
G1 X77.577 Y15.468 E.03999
G1 X78.465 Y16.383 E.03999
G1 X79.298 Y17.349 E.03999
G1 X80.072 Y18.363 E.03999
G1 X80.784 Y19.421 E.03999
G1 X81.433 Y20.519 E.03999
G1 X82.015 Y21.654 E.03999
G1 X82.529 Y22.821 E.03999
G1 X82.973 Y24.016 E.03999
G1 X83.346 Y25.236 E.03999
G1 X83.645 Y26.475 E.03999
G1 X83.871 Y27.731 E.03999
G1 X84.022 Y28.997 E.03999
G1 X84.098 Y30.275 E.04012
G1 X84.11 Y31.056 E.0245
G1 X84.192 Y31.323 E.00877
G1 X84.391 Y31.517 E.00872
G1 X84.666 Y31.593 E.00893
G1 X85.427 Y31.604 E.02388
G1 X86.709 Y31.68 E.04026
G1 X87.335 Y31.746 E.01972
G1 X88.601 Y31.935 E.04012
G1 X89.849 Y32.197 E.03999
G1 X91.079 Y32.533 E.03999
G1 X92.291 Y32.943 E.04012
G1 X92.881 Y33.173 E.01986
G1 X93.465 Y33.419 E.01986
G1 X94.62 Y33.97 E.04012
G1 X95.737 Y34.585 E.03999
G1 X96.815 Y35.266 E.03999
G1 X97.852 Y36.01 E.03999
G1 X98.845 Y36.816 E.04011
G1 X99.346 Y37.262 E.02105
G1 X100.234 Y38.125 E.03881
G1 X101.098 Y39.069 E.04013
G1 X101.501 Y39.552 E.01972
G1 X102.278 Y40.569 E.04012
G1 X102.99 Y41.627 E.03999
G1 X103.641 Y42.729 E.04012
G1 X103.938 Y43.288 E.01986
G1 X104.219 Y43.855 E.01986
G1 X104.735 Y45.026 E.04012
G1 X105.181 Y46.226 E.04012
G1 X105.373 Y46.825 E.01972
G1 X105.712 Y48.063 E.04024
G1 X105.858 Y48.718 E.02105
G1 X106.077 Y49.936 E.03881
G1 X106.228 Y51.203 E.03999
G1 X106.303 Y52.48 E.04012
G1 X106.303 Y53.747 E.03972
G1 X106.228 Y55.024 E.04011
G1 X106.07 Y56.332 E.04131
G1 X105.85 Y57.55 E.03881
G1 X105.541 Y58.822 E.04103
G1 X105.179 Y60.005 E.03881
G1 X104.734 Y61.205 E.04013
G1 X104.223 Y62.364 E.03972
G1 X103.639 Y63.503 E.04012
G1 X102.988 Y64.605 E.04012
G1 X102.642 Y65.135 E.01986
G1 X102.28 Y65.655 E.01986
G1 X101.504 Y66.672 E.04012
G1 X100.671 Y67.638 E.03999
G1 X99.783 Y68.553 E.03999
G1 X98.842 Y69.414 E.03999
G1 X97.852 Y70.218 E.03999
G1 X96.812 Y70.964 E.04012
G1 X96.285 Y71.308 E.01972
G1 X95.183 Y71.958 E.04012
G1 X94.048 Y72.541 E.03999
G1 X92.881 Y73.055 E.03999
G1 X91.686 Y73.499 E.03999
G1 X90.466 Y73.871 E.03999
G1 X89.227 Y74.171 E.03999
G1 X87.971 Y74.396 E.03999
G1 X86.705 Y74.547 E.03999
G1 X85.427 Y74.623 E.04012
G1 X84.646 Y74.635 E.02449
G1 X84.379 Y74.718 E.00877
G1 X84.186 Y74.915 E.00865
G1 X84.109 Y75.184 E.00877
G1 X84.07 Y76.583 E.04388
G1 X83.958 Y77.846 E.03975
G1 X83.876 Y78.463 E.01954
G1 X83.654 Y79.712 E.03975
G1 X83.359 Y80.945 E.03975
G1 X82.982 Y82.185 E.04064
G1 X82.558 Y83.336 E.03845
G1 X82.051 Y84.498 E.03976
G1 X81.777 Y85.058 E.01954
G1 X81.168 Y86.175 E.03989
G1 X80.846 Y86.708 E.01954
G1 X80.141 Y87.767 E.03989
G1 X79.773 Y88.27 E.01954
G1 X78.981 Y89.26 E.03975
G1 X78.134 Y90.198 E.03962
G1 X77.234 Y91.085 E.03962
G1 X76.284 Y91.917 E.03962
G1 X75.286 Y92.693 E.03962
G1 X74.244 Y93.408 E.03962
G1 X73.162 Y94.061 E.03962
G1 X71.695 Y94.835 E.05203
G1 X71.091 Y95.228 E.02259
G1 X70.581 Y95.649 E.02073
G1 X69.81 Y96.504 E.03612
G1 X69.404 Y97.124 E.02321
G1 X69.158 Y97.647 E.01812
G1 X68.909 Y98.244 E.02029
G1 X68.728 Y98.899 E.02131
G1 X68.625 Y99.509 E.01939
G1 X68.577 Y100.544 E.03249
G1 X68.507 Y101.201 E.02071
G1 X68.37 Y101.833 E.0203
G1 X68.169 Y102.441 E.02007
G1 X67.739 Y103.327 E.03089
G1 X67.385 Y103.86 E.02006
G1 X66.972 Y104.358 E.02029
G1 X66.508 Y104.81 E.0203
G1 X65.999 Y105.21 E.0203
G1 X65.45 Y105.553 E.0203
G1 X64.868 Y105.836 E.0203
G1 X64.259 Y106.056 E.02029
G1 X63.63 Y106.209 E.0203
G1 X62.989 Y106.295 E.0203
G1 X62.342 Y106.312 E.0203
G1 X61.697 Y106.261 E.0203
G1 X61.06 Y106.141 E.0203
G1 X60.441 Y105.954 E.0203
G1 X59.851 Y105.705 E.02007
G1 X59.002 Y105.205 E.03089
G1 X58.499 Y104.81 E.02006
G1 X58.035 Y104.358 E.0203
G1 X57.622 Y103.86 E.0203
G1 X57.264 Y103.321 E.0203
G1 X56.966 Y102.746 E.0203
G1 X56.73 Y102.143 E.02029
G1 X56.585 Y101.611 E.01729
G1 X56.497 Y101.043 E.01802
G1 X56.425 Y100.309 E.02314
G1 X56.406 Y99.699 E.01913
G1 X56.303 Y98.996 E.0223
G1 X56.175 Y98.414 E.01867
G1 X55.988 Y97.859 E.01836
G1 X55.572 Y96.986 E.03032
G1 X55.129 Y96.336 E.02466
